(/Applications/pcbgcode.repo/pcb-gcode.ulp)
(Copyright 2005 - 2012 by John Johnson)
(See readme.txt for licensing terms.)
(This file generated from the board:)
(.../atmega_midi_cv_drums/eagle/midi_to_cv.brd)
(Current profile is .../pcbgcode.repo/profiles/mach.pp  )
(This file generated 5/10/16 10:45 PM)
(Settings from pcb-machine.h)
(spindle on time = 0.0000)
(spindle speed = 15000.0000)
(milling depth = -0.0700)
(tool change at 0.0000  0.0000  1.5000  )
(feed rate xy = F10    )
(feed rate z  = F5     )
(Z Axis Settings)
(  High     Up        Down     Drill)
(0.2500  	0.0500  	-0.0035 	-0.0750 )
(Settings from pcb-defaults.h)
(isolate min = 0.0040)
(isolate max = 0.0200)
(isolate step = 0.0010)
(Generated bottom outlines, bottom drill, )
(Unit of measure: inch)
(Inch Mode)
G20
(Absolute Coordinates)
G90
S15000
G00 Z0.2500  
G00 X0.0000  Y0.0000  
M03
G04 P0.000000
G00 Z0.0500  
G00 X0.0000  Y0.0500  
G01 Z-0.0700 F5     
G01 X0.0000  Y3.0200  F10    
G01 X3.8900  Y3.0200  
G01 X3.9500  Y2.9700  
G01 X3.9500  Y0.1000  
G01 X3.8500  Y0.0000  
G01 X0.0500  Y0.0000  
G01 X0.0000  Y0.0500  
G00 Z0.0500  
G00 X0.1700  Y0.1600  
G01 Z-0.0700 F5     
G01 X0.2500  Y0.1600  F10    
G01 X0.2500  Y0.2300  
G01 X0.1700  Y0.2300  
G01 X0.1700  Y0.1600  
G00 Z0.0500  
G00 X0.1400  Y2.8300  
G01 Z-0.0700 F5     
G01 X0.1400  Y2.9000  F10    
G01 X0.2200  Y2.9000  
G01 X0.2200  Y2.8300  
G01 X0.1400  Y2.8300  
G00 Z0.0500  
G00 X3.7700  Y2.8400  
G01 Z-0.0700 F5     
G01 X3.8500  Y2.8400  F10    
G01 X3.8500  Y2.7700  
G01 X3.7700  Y2.7700  
G01 X3.7700  Y2.8400  
G00 Z0.0500  
G00 X3.7600  Y0.2500  
G01 Z-0.0700 F5     
G01 X3.6800  Y0.2500  F10    
G01 X3.6800  Y0.1800  
G01 X3.7600  Y0.1800  
G01 X3.7600  Y0.2500  
G00 Z0.2500  
M05
M02
