(/Applications/pcbgcode.repo/pcb-gcode.ulp)
(Copyright 2005 - 2012 by John Johnson)
(See readme.txt for licensing terms.)
(This file generated from the board:)
(.../atmega_midi_cv_drums/eagle/midi_to_cv.brd)
(Current profile is .../pcbgcode.repo/profiles/mach.pp  )
(This file generated 5/10/16 10:52 PM)
(Settings from pcb-machine.h)
(spindle on time = 0.0000)
(spindle speed = 20000.0000)
(tool change at 0.0000  0.0000  1.5000  )
(feed rate xy = F0     )
(feed rate z  = F20    )
(Z Axis Settings)
(  High     Up        Down     Drill)
(0.2500  	0.0500  	-0.0035 	-0.0750 )
(Settings from pcb-defaults.h)
(isolate min = 0.0050)
(isolate max = 0.0200)
(isolate step = 0.0010)
(Generated bottom outlines, bottom drill, )
(Unit of measure: inch)
( Tool|       Size       |  Min Sub |  Max Sub |   Count )
( T01 | 0.800mm 0.0315in | 0.0000in | 0.0000in |       0 )
( T02 | 0.813mm 0.0320in | 0.0000in | 0.0000in |       0 )
( T03 | 0.900mm 0.0354in | 0.0000in | 0.0000in |       0 )
( T04 | 0.914mm 0.0360in | 0.0000in | 0.0000in |       0 )
( T05 | 1.000mm 0.0394in | 0.0000in | 0.0000in |       0 )
( T06 | 1.016mm 0.0400in | 0.0000in | 0.0000in |       0 )
(Inch Mode)
G20
(Absolute Coordinates)
G90
S20000
G00 Z0.2500  
G00 X0.0000  Y0.0000  
M03
G04 P0.000000
M05
G00 Z1.5000  
M06 T01  ; 0.0315  
G01 Z0.0000  F20    
M06 
G00 Z0.0500  
M03
G04 P0.000000
G82 X-0.4800 Y0.5366  Z-0.0750 F20    R0.0500  P0.020000
G82 X-0.6700 Y0.5366  
G82 X-0.6700 Y0.7334  
G82 X-0.4800 Y0.7334  
G82 X-0.7400 Y1.9300  
G82 X-0.8900 Y1.9300  
G82 X-1.6100 Y2.1100  
G82 X-1.7800 Y2.1100  
G82 X-2.7000 Y1.9400  
G82 X-2.7000 Y1.6800  
G82 X-3.0500 Y1.2300  
G82 X-3.0500 Y0.5100  
G82 X-3.1000 Y2.2600  
G82 X-3.2200 Y2.4200  
M05
G00 Z1.5000  
G00 X0.0000  Y0.0000  
M06 T02  ; 0.0320  
G01 Z0.0000  F20    
M06 
G00 Z0.0500  
M03
G04 P0.000000
G82 X-0.1500 Y2.4850  Z-0.0750 F20    R0.0500  P0.020000
G82 X-0.2000 Y2.2100  
G82 X-0.2000 Y2.1100  
G82 X-0.2000 Y2.0100  
G82 X-0.2000 Y1.9100  
G82 X-0.5000 Y1.9100  
G82 X-0.5000 Y2.0100  
G82 X-0.5000 Y2.1100  
G82 X-0.5000 Y2.2100  
G82 X-0.4500 Y2.4850  
G82 X-0.6500 Y2.6600  
G82 X-0.6500 Y2.7700  
G82 X-0.8750 Y2.5600  
G82 X-0.7750 Y2.4350  
G82 X-1.0000 Y2.4100  
G82 X-1.0000 Y2.3100  
G82 X-1.0000 Y2.2100  
G82 X-1.0000 Y2.1100  
G82 X-1.0000 Y2.0100  
G82 X-1.0000 Y1.9100  
G82 X-1.0000 Y1.8100  
G82 X-1.0000 Y1.7100  
G82 X-1.0000 Y1.6100  
G82 X-1.0000 Y1.5100  
G82 X-1.0000 Y1.4100  
G82 X-1.0000 Y1.3100  
G82 X-1.0000 Y1.2100  
G82 X-1.0000 Y1.1100  
G82 X-0.9500 Y0.9600  
G82 X-0.8000 Y0.7700  
G82 X-0.9500 Y0.7100  
G82 X-0.9500 Y0.6100  
G82 X-0.8000 Y0.5700  
G82 X-0.3250 Y0.6100  
G82 X-0.3250 Y0.7100  
G82 X-0.1750 Y0.7600  
G82 X-0.1750 Y0.5600  
G82 X-0.7500 Y1.2100  
G82 X-0.8500 Y1.2100  
G82 X-0.8000 Y1.4150  
G82 X-0.6500 Y1.3400  
G82 X-0.8000 Y1.6050  
G82 X-0.6500 Y1.7400  
G82 X-0.7500 Y1.8100  
G82 X-0.8500 Y1.8100  
G82 X-0.7750 Y2.0350  
G82 X-0.8750 Y2.1600  
G82 X-1.3000 Y2.2100  
G82 X-1.3000 Y2.1100  
G82 X-1.3000 Y2.0100  
G82 X-1.3000 Y1.9100  
G82 X-1.3000 Y1.8100  
G82 X-1.3000 Y1.7100  
G82 X-1.3000 Y1.6100  
G82 X-1.3000 Y1.5100  
G82 X-1.3000 Y1.4100  
G82 X-1.3000 Y1.3100  
G82 X-1.3000 Y1.2100  
G82 X-1.3000 Y1.1100  
G82 X-1.3500 Y0.9600  
G82 X-1.7800 Y0.9600  
G82 X-2.0000 Y0.9700  
G82 X-2.1000 Y0.9600  
G82 X-2.1000 Y0.8600  
G82 X-2.0000 Y0.8600  
G82 X-2.0000 Y0.6600  
G82 X-2.2000 Y0.8600  
G82 X-2.2000 Y0.9600  
G82 X-2.2000 Y1.0600  
G82 X-2.2000 Y1.1600  
G82 X-2.2000 Y1.2600  
G82 X-2.2000 Y1.3600  
G82 X-2.2000 Y1.4600  
G82 X-2.1000 Y1.4600  
G82 X-2.1000 Y1.3600  
G82 X-2.1000 Y1.2100  
G82 X-2.1000 Y1.1100  
G82 X-2.0000 Y1.1700  
G82 X-1.9400 Y1.1800  
G82 X-1.7800 Y1.2600  
G82 X-1.9400 Y1.3800  
G82 X-1.9000 Y1.6600  
G82 X-1.8000 Y1.6600  
G82 X-1.7000 Y1.6600  
G82 X-1.7000 Y1.9600  
G82 X-1.8000 Y1.9600  
G82 X-1.9000 Y1.9600  
G82 X-2.0000 Y1.9600  
G82 X-2.1000 Y1.9600  
G82 X-2.2000 Y1.9600  
G82 X-2.3000 Y1.9600  
G82 X-2.4000 Y1.9600  
G82 X-2.5000 Y1.9600  
G82 X-2.6000 Y1.9600  
G82 X-2.6000 Y2.1100  
G82 X-2.5000 Y2.1100  
G82 X-2.5000 Y2.2100  
G82 X-2.5000 Y2.3100  
G82 X-2.5000 Y2.4100  
G82 X-2.5000 Y2.5100  
G82 X-2.5000 Y2.6100  
G82 X-2.5000 Y2.7100  
G82 X-2.6000 Y2.7100  
G82 X-2.6000 Y2.6100  
G82 X-2.6000 Y2.4600  
G82 X-2.6000 Y2.3600  
G82 X-2.7000 Y2.3800  
G82 X-2.7500 Y2.4100  
G82 X-2.8800 Y2.4600  
G82 X-2.9800 Y2.4600  
G82 X-2.9300 Y2.7100  
G82 X-2.7300 Y2.7100  
G82 X-2.7500 Y2.6100  
G82 X-2.6000 Y2.2100  
G82 X-2.7000 Y2.1800  
G82 X-2.8800 Y2.1600  
G82 X-2.9800 Y2.1600  
G82 X-2.9500 Y2.0600  
G82 X-3.0500 Y2.0600  
G82 X-3.0500 Y1.9600  
G82 X-2.9500 Y1.9600  
G82 X-3.1500 Y1.9600  
G82 X-3.2500 Y1.9600  
G82 X-3.2500 Y2.0600  
G82 X-3.3500 Y2.0600  
G82 X-3.3500 Y1.9600  
G82 X-3.4500 Y1.9600  
G82 X-3.5500 Y1.9600  
G82 X-3.5500 Y2.0600  
G82 X-3.4500 Y2.0600  
G82 X-3.3000 Y2.1600  
G82 X-3.2500 Y2.2600  
G82 X-3.1000 Y2.1600  
G82 X-3.4500 Y2.2600  
G82 X-3.5500 Y2.2600  
G82 X-3.8500 Y2.2600  
G82 X-3.5500 Y1.6600  
G82 X-3.4500 Y1.6600  
G82 X-3.4500 Y1.5600  
G82 X-3.5500 Y1.5600  
G82 X-3.5500 Y1.3600  
G82 X-3.4500 Y1.3600  
G82 X-3.3000 Y1.4600  
G82 X-3.2500 Y1.3600  
G82 X-3.1000 Y1.4600  
G82 X-3.0500 Y1.5600  
G82 X-2.9500 Y1.5600  
G82 X-2.9500 Y1.6600  
G82 X-3.0500 Y1.6600  
G82 X-3.1500 Y1.6600  
G82 X-3.2500 Y1.6600  
G82 X-3.3500 Y1.6600  
G82 X-3.1500 Y1.1600  
G82 X-2.9500 Y1.1600  
G82 X-2.8000 Y1.0600  
G82 X-2.7000 Y1.1600  
G82 X-2.8000 Y1.2600  
G82 X-2.6000 Y1.3600  
G82 X-2.6000 Y1.4600  
G82 X-2.5000 Y1.4600  
G82 X-2.5000 Y1.3600  
G82 X-2.5000 Y1.2600  
G82 X-2.5000 Y1.1600  
G82 X-2.5000 Y1.0600  
G82 X-2.5000 Y0.9600  
G82 X-2.5000 Y0.8600  
G82 X-2.6000 Y0.8600  
G82 X-2.6000 Y0.9600  
G82 X-2.7000 Y0.9600  
G82 X-2.7000 Y0.8600  
G82 X-2.7000 Y0.6600  
G82 X-2.9500 Y0.8600  
G82 X-3.1500 Y0.8600  
G82 X-3.5500 Y1.0600  
G82 X-2.6000 Y1.6600  
G82 X-2.5000 Y1.6600  
G82 X-2.4000 Y1.6600  
G82 X-2.3000 Y1.6600  
G82 X-2.2000 Y1.6600  
G82 X-2.1000 Y1.6600  
G82 X-2.0000 Y1.6600  
G82 X-2.1000 Y2.1100  
G82 X-2.1000 Y2.2100  
G82 X-2.2000 Y2.2100  
G82 X-2.2000 Y2.3100  
G82 X-2.2000 Y2.4100  
G82 X-2.2000 Y2.5100  
G82 X-2.2000 Y2.6100  
G82 X-2.2000 Y2.7100  
G82 X-2.1000 Y2.7100  
G82 X-2.1000 Y2.6100  
G82 X-1.9000 Y2.6100  
G82 X-1.9100 Y2.7100  
G82 X-1.7100 Y2.7100  
G82 X-1.8000 Y2.4600  
G82 X-1.9000 Y2.4100  
G82 X-2.0000 Y2.4100  
G82 X-2.0000 Y2.2100  
G82 X-1.8000 Y2.2600  
G82 X-2.2000 Y2.1100  
G82 X-1.3000 Y2.3100  
G82 X-1.3000 Y2.4100  
G82 X-1.0500 Y2.6600  
G82 X-1.0500 Y2.7700  
G82 X-0.4500 Y1.7100  
G82 X-0.4500 Y1.6100  
M05
G00 Z1.5000  
G00 X0.0000  Y0.0000  
M06 T03  ; 0.0354  
G01 Z0.0000  F20    
M06 
G00 Z0.0500  
M03
G04 P0.000000
G82 X-0.1500 Y2.3600  Z-0.0750 F20    R0.0500  P0.020000
G82 X-0.4500 Y2.3600  
M05
G00 Z1.5000  
G00 X0.0000  Y0.0000  
M06 T04  ; 0.0360  
G01 Z0.0000  F20    
M06 
G00 Z0.0500  
M03
G04 P0.000000
G82 X-0.5800 Y1.2100  Z-0.0750 F20    R0.0500  P0.020000
G82 X-1.0100 Y2.5600  
M05
G00 Z1.5000  
G00 X0.0000  Y0.0000  
M06 T05  ; 0.0394  
G01 Z0.0000  F20    
M06 
G00 Z0.0500  
M03
G04 P0.000000
G82 X-0.4750 Y2.6100  Z-0.0750 F20    R0.0500  P0.020000
G82 X-0.4750 Y2.7100  
G82 X-1.2000 Y2.7100  
G82 X-1.3000 Y2.7100  
G82 X-1.4000 Y2.7100  
G82 X-3.1000 Y2.8000  
G82 X-3.2000 Y2.8000  
G82 X-3.3000 Y2.8000  
G82 X-3.4000 Y2.8000  
G82 X-3.5000 Y2.8000  
G82 X-3.6000 Y2.8000  
G82 X-2.8500 Y0.2500  
G82 X-2.7500 Y0.2500  
G82 X-2.6500 Y0.2500  
G82 X-2.5500 Y0.2500  
G82 X-2.4500 Y0.2500  
G82 X-2.3500 Y0.2500  
G82 X-0.8000 Y0.9600  
G82 X-0.7000 Y0.9600  
M05
G00 Z1.5000  
G00 X0.0000  Y0.0000  
M06 T06  ; 0.0400  
G01 Z0.0000  F20    
M06 
G00 Z0.0500  
M03
G04 P0.000000
G82 X-0.7500 Y0.1600  Z-0.0750 F20    R0.0500  P0.020000
G82 X-0.8500 Y0.1600  
G82 X-0.9500 Y0.1600  
G82 X-0.9500 Y0.2600  
G82 X-0.8500 Y0.2600  
G82 X-0.7500 Y0.2600  
G82 X-1.0500 Y0.2600  
G82 X-1.1500 Y0.2600  
G82 X-1.1500 Y0.1600  
G82 X-1.0500 Y0.1600  
G82 X-1.2500 Y0.1600  
G82 X-1.2500 Y0.2600  
G82 X-1.3500 Y0.2600  
G82 X-1.4500 Y0.2600  
G82 X-1.4500 Y0.1600  
G82 X-1.3500 Y0.1600  
T01 
G00 Z0.2500  
M05
M02
