(/Applications/pcbgcode.repo/pcb-gcode.ulp)
(Copyright 2005 - 2012 by John Johnson)
(See readme.txt for licensing terms.)
(This file generated from the board:)
(.../atmega_midi_cv_drums/eagle/midi_to_cv.brd)
(Current profile is .../pcbgcode.repo/profiles/mach.pp  )
(This file generated 3/9/16 12:07 AM)
(Settings from pcb-machine.h)
(spindle on time = 0.0000)
(spindle speed = 15000.0000)
(milling depth = -0.0700)
(tool change at 0.0000  0.0000  3.0000  )
(feed rate xy = F10    )
(feed rate z  = F5     )
(Z Axis Settings)
(  High     Up        Down     Drill)
(1.0000  	0.0500  	-0.0040 	-0.0730 )
(Settings from pcb-defaults.h)
(isolate min = 0.0010)
(isolate max = 0.0170)
(isolate step = 0.0017)
(Generated bottom outlines, bottom drill, )
(Unit of measure: inch)
(Inch Mode)
G20
(Absolute Coordinates)
G90
S15000
G00 Z1.0000  
G00 X0.0000  Y0.0000  
M03
G04 P0.000000
G00 Z0.0500  
G00 X0.0000  Y0.0500  
G01 Z-0.0700 F5     
G01 X0.0000  Y3.1500  F10    
G01 X-3.9000 Y3.1500  
G01 X-3.9500 Y3.1000  
G01 X-3.9500 Y0.1000  
G01 X-3.8500 Y0.0000  
G01 X-0.0500 Y0.0000  
G01 X0.0000  Y0.0500  
G00 Z0.0500  
G00 X-0.1600 Y0.1700  
G01 Z-0.0700 F5     
G01 X-0.1600 Y0.2400  F10    
G01 X-0.2400 Y0.2400  
G01 X-0.2400 Y0.1700  
G01 X-0.1600 Y0.1700  
G00 Z0.0500  
G00 X-0.1400 Y2.9500  
G01 Z-0.0700 F5     
G01 X-0.1400 Y3.0200  F10    
G01 X-0.2200 Y3.0200  
G01 X-0.2200 Y2.9500  
G01 X-0.1400 Y2.9500  
G00 Z0.0500  
G00 X-3.6800 Y1.7800  
G01 Z-0.0700 F5     
G01 X-3.7600 Y1.7800  F10    
G01 X-3.7600 Y1.7100  
G01 X-3.6800 Y1.7100  
G01 X-3.6800 Y1.7800  
G00 Z0.0500  
G00 X-3.7000 Y0.2300  
G01 Z-0.0700 F5     
G01 X-3.7800 Y0.2300  F10    
G01 X-3.7800 Y0.1600  
G01 X-3.7000 Y0.1600  
G01 X-3.7000 Y0.2300  
G00 Z1.0000  
M05
M02
