(/Applications/pcbgcode.repo/pcb-gcode.ulp)
(Copyright 2005 - 2012 by John Johnson)
(See readme.txt for licensing terms.)
(This file generated from the board:)
(.../atmega_midi_cv_drums/eagle/power_cv_distro.brd)
(Current profile is .../pcbgcode.repo/profiles/mach.pp  )
(This file generated 3/12/16 10:27 PM)
(Settings from pcb-machine.h)
(spindle on time = 0.0000)
(  Tool Size)
(0.0100  )
(spindle speed = 30000.0000)
(tool change at 0.0000  0.0000  3.0000  )
(feed rate xy = F20    )
(feed rate z  = F10    )
(Z Axis Settings)
(  High     Up        Down     Drill)
(1.0000  	0.0500  	-0.0040 	-0.0730 )
(Settings from pcb-defaults.h)
(isolate min = 0.0010)
(isolate max = 0.0170)
(isolate step = 0.0017)
(Generated bottom outlines, bottom drill, )
(Unit of measure: inch)
(Inch Mode)
G20
(Absolute Coordinates)
G90
S30000
G00 Z1.0000  
G00 X0.0000  Y0.0000  
M03
G04 P0.000000
G00 Z0.0500  
G00 X-0.0318 Y0.5313  
G01 Z-0.0040 F10    
G01 X-0.0326 Y0.5306  F20    
G01 X-0.0334 Y0.5298  
G01 X-0.0346 Y0.5290  
G01 X-0.2826 Y0.3306  
G01 X-0.2834 Y0.3298  
G01 X-0.2846 Y0.3290  
G01 X-0.2858 Y0.3281  
G01 X-0.2868 Y0.3276  
G01 X-0.2877 Y0.3270  
G01 X-0.2890 Y0.3264  
G01 X-0.2903 Y0.3257  
G01 X-0.2914 Y0.3254  
G01 X-0.2924 Y0.3250  
G01 X-0.2938 Y0.3247  
G01 X-0.2952 Y0.3243  
G01 X-0.2963 Y0.3242  
G01 X-0.2974 Y0.3240  
G01 X-0.2989 Y0.3240  
G01 X-0.3003 Y0.3239  
G01 X-0.3014 Y0.3240  
G01 X-0.3652 Y0.3240  
G01 X-0.3822 Y0.3070  
G01 X-0.4178 Y0.3070  
G01 X-0.4348 Y0.3240  
G01 X-0.4652 Y0.3240  
G01 X-0.4822 Y0.3070  
G01 X-0.5178 Y0.3070  
G01 X-0.5348 Y0.3240  
G01 X-0.8152 Y0.3240  
G01 X-0.8322 Y0.3070  
G01 X-0.8678 Y0.3070  
G01 X-0.8848 Y0.3240  
G01 X-0.9152 Y0.3240  
G01 X-0.9322 Y0.3070  
G01 X-0.9678 Y0.3070  
G01 X-0.9848 Y0.3240  
G01 X-1.2652 Y0.3240  
G01 X-1.2822 Y0.3070  
G01 X-1.3178 Y0.3070  
G01 X-1.3348 Y0.3240  
G01 X-1.3652 Y0.3240  
G01 X-1.3822 Y0.3070  
G01 X-1.4178 Y0.3070  
G01 X-1.4348 Y0.3240  
G01 X-1.7152 Y0.3240  
G01 X-1.7322 Y0.3070  
G01 X-1.7678 Y0.3070  
G01 X-1.7848 Y0.3240  
G01 X-1.8152 Y0.3240  
G01 X-1.8322 Y0.3070  
G01 X-1.8678 Y0.3070  
G01 X-1.8848 Y0.3240  
G01 X-2.2152 Y0.3240  
G01 X-2.2322 Y0.3070  
G01 X-2.2678 Y0.3070  
G01 X-2.2848 Y0.3240  
G01 X-2.3152 Y0.3240  
G01 X-2.3322 Y0.3070  
G01 X-2.3678 Y0.3070  
G01 X-2.3848 Y0.3240  
G01 X-2.7152 Y0.3240  
G01 X-2.7322 Y0.3070  
G01 X-2.7678 Y0.3070  
G01 X-2.7848 Y0.3240  
G01 X-2.8152 Y0.3240  
G01 X-2.8322 Y0.3070  
G01 X-2.8678 Y0.3070  
G01 X-2.8848 Y0.3240  
G01 X-3.2152 Y0.3240  
G01 X-3.2322 Y0.3070  
G01 X-3.2678 Y0.3070  
G01 X-3.2848 Y0.3240  
G01 X-3.3152 Y0.3240  
G01 X-3.3322 Y0.3070  
G01 X-3.3678 Y0.3070  
G01 X-3.3848 Y0.3240  
G01 X-3.7152 Y0.3240  
G01 X-3.7322 Y0.3070  
G01 X-3.7678 Y0.3070  
G01 X-3.7848 Y0.3240  
G01 X-3.8152 Y0.3240  
G01 X-3.8322 Y0.3070  
G01 X-3.8678 Y0.3070  
G01 X-3.8848 Y0.3240  
G01 X-3.9026 Y0.3240  
G01 X-3.9076 Y0.3250  
G01 X-3.9123 Y0.3270  
G01 X-3.9166 Y0.3298  
G01 X-3.9202 Y0.3334  
G01 X-3.9230 Y0.3377  
G01 X-3.9250 Y0.3424  
G01 X-3.9260 Y0.3474  
G01 X-3.9260 Y0.3526  
G01 X-3.9250 Y0.3576  
G01 X-3.9230 Y0.3623  
G01 X-3.9202 Y0.3666  
G01 X-3.9166 Y0.3702  
G01 X-3.9123 Y0.3730  
G01 X-3.9076 Y0.3750  
G01 X-3.9026 Y0.3760  
G01 X-3.8848 Y0.3760  
G01 X-3.8678 Y0.3930  
G01 X-3.8322 Y0.3930  
G01 X-3.8152 Y0.3760  
G01 X-3.7848 Y0.3760  
G01 X-3.7678 Y0.3930  
G01 X-3.7322 Y0.3930  
G01 X-3.7152 Y0.3760  
G01 X-3.3848 Y0.3760  
G01 X-3.3678 Y0.3930  
G01 X-3.3322 Y0.3930  
G01 X-3.3152 Y0.3760  
G01 X-3.2848 Y0.3760  
G01 X-3.2678 Y0.3930  
G01 X-3.2322 Y0.3930  
G01 X-3.2152 Y0.3760  
G01 X-2.8848 Y0.3760  
G01 X-2.8678 Y0.3930  
G01 X-2.8322 Y0.3930  
G01 X-2.8152 Y0.3760  
G01 X-2.7848 Y0.3760  
G01 X-2.7678 Y0.3930  
G01 X-2.7322 Y0.3930  
G01 X-2.7152 Y0.3760  
G01 X-2.3848 Y0.3760  
G01 X-2.3678 Y0.3930  
G01 X-2.3322 Y0.3930  
G01 X-2.3152 Y0.3760  
G01 X-2.2848 Y0.3760  
G01 X-2.2678 Y0.3930  
G01 X-2.2322 Y0.3930  
G01 X-2.2152 Y0.3760  
G01 X-1.8848 Y0.3760  
G01 X-1.8678 Y0.3930  
G01 X-1.8322 Y0.3930  
G01 X-1.8152 Y0.3760  
G01 X-1.7848 Y0.3760  
G01 X-1.7678 Y0.3930  
G01 X-1.7322 Y0.3930  
G01 X-1.7152 Y0.3760  
G01 X-1.4348 Y0.3760  
G01 X-1.4178 Y0.3930  
G01 X-1.3822 Y0.3930  
G01 X-1.3652 Y0.3760  
G01 X-1.3348 Y0.3760  
G01 X-1.3178 Y0.3930  
G01 X-1.2822 Y0.3930  
G01 X-1.2652 Y0.3760  
G01 X-0.9848 Y0.3760  
G01 X-0.9678 Y0.3930  
G01 X-0.9322 Y0.3930  
G01 X-0.9152 Y0.3760  
G01 X-0.8848 Y0.3760  
G01 X-0.8678 Y0.3930  
G01 X-0.8322 Y0.3930  
G01 X-0.8152 Y0.3760  
G01 X-0.5348 Y0.3760  
G01 X-0.5178 Y0.3930  
G01 X-0.4822 Y0.3930  
G01 X-0.4652 Y0.3760  
G01 X-0.4348 Y0.3760  
G01 X-0.4178 Y0.3930  
G01 X-0.3822 Y0.3930  
G01 X-0.3652 Y0.3760  
G01 X-0.3091 Y0.3760  
G01 X-0.0760 Y0.5625  
G01 X-0.0760 Y1.4128  
G01 X-0.1890 Y1.5070  
G01 X-0.2178 Y1.5070  
G01 X-0.2430 Y1.5322  
G01 X-0.2430 Y1.5678  
G01 X-0.2260 Y1.5848  
G01 X-0.2260 Y1.6152  
G01 X-0.2430 Y1.6322  
G01 X-0.2430 Y1.6678  
G01 X-0.2178 Y1.6930  
G01 X-0.1822 Y1.6930  
G01 X-0.1570 Y1.6678  
G01 X-0.1570 Y1.6322  
G01 X-0.1740 Y1.6152  
G01 X-0.1740 Y1.5848  
G01 X-0.1570 Y1.5678  
G01 X-0.1570 Y1.5480  
G01 X-0.0344 Y1.4459  
G01 X-0.0334 Y1.4452  
G01 X-0.0324 Y1.4442  
G01 X-0.0314 Y1.4433  
G01 X-0.0306 Y1.4424  
G01 X-0.0298 Y1.4416  
G01 X-0.0290 Y1.4404  
G01 X-0.0282 Y1.4394  
G01 X-0.0276 Y1.4383  
G01 X-0.0270 Y1.4373  
G01 X-0.0264 Y1.4360  
G01 X-0.0258 Y1.4348  
G01 X-0.0255 Y1.4337  
G01 X-0.0250 Y1.4326  
G01 X-0.0247 Y1.4312  
G01 X-0.0243 Y1.4299  
G01 X-0.0242 Y1.4287  
G01 X-0.0240 Y1.4276  
G01 X-0.0240 Y1.4262  
G01 X-0.0239 Y1.4248  
G01 X-0.0240 Y1.4236  
G01 X-0.0240 Y0.5511  
G01 X-0.0239 Y0.5497  
G01 X-0.0240 Y0.5486  
G01 X-0.0240 Y0.5474  
G01 X-0.0243 Y0.5460  
G01 X-0.0244 Y0.5446  
G01 X-0.0248 Y0.5435  
G01 X-0.0250 Y0.5424  
G01 X-0.0256 Y0.5411  
G01 X-0.0260 Y0.5397  
G01 X-0.0265 Y0.5387  
G01 X-0.0270 Y0.5377  
G01 X-0.0278 Y0.5365  
G01 X-0.0285 Y0.5352  
G01 X-0.0292 Y0.5344  
G01 X-0.0298 Y0.5334  
G01 X-0.0308 Y0.5324  
G01 X-0.0318 Y0.5313  
G00 Z0.0500  
G00 X-0.1068 Y0.7313  
G01 Z-0.0040 F10    
G01 X-0.1076 Y0.7306  F20    
G01 X-0.1084 Y0.7298  
G01 X-0.1096 Y0.7290  
G01 X-0.2326 Y0.6306  
G01 X-0.2334 Y0.6298  
G01 X-0.2346 Y0.6290  
G01 X-0.2358 Y0.6281  
G01 X-0.2368 Y0.6276  
G01 X-0.2377 Y0.6270  
G01 X-0.2390 Y0.6264  
G01 X-0.2403 Y0.6257  
G01 X-0.2414 Y0.6254  
G01 X-0.2424 Y0.6250  
G01 X-0.2438 Y0.6247  
G01 X-0.2452 Y0.6243  
G01 X-0.2463 Y0.6242  
G01 X-0.2474 Y0.6240  
G01 X-0.2489 Y0.6240  
G01 X-0.2503 Y0.6239  
G01 X-0.2514 Y0.6240  
G01 X-0.3652 Y0.6240  
G01 X-0.3690 Y0.6202  
G01 X-0.3690 Y0.5798  
G01 X-0.3570 Y0.5678  
G01 X-0.3570 Y0.5322  
G01 X-0.3690 Y0.5202  
G01 X-0.3690 Y0.4798  
G01 X-0.3570 Y0.4678  
G01 X-0.3570 Y0.4322  
G01 X-0.3822 Y0.4070  
G01 X-0.4178 Y0.4070  
G01 X-0.4298 Y0.4190  
G01 X-0.4702 Y0.4190  
G01 X-0.4822 Y0.4070  
G01 X-0.5178 Y0.4070  
G01 X-0.5298 Y0.4190  
G01 X-0.8202 Y0.4190  
G01 X-0.8322 Y0.4070  
G01 X-0.8678 Y0.4070  
G01 X-0.8798 Y0.4190  
G01 X-0.9202 Y0.4190  
G01 X-0.9322 Y0.4070  
G01 X-0.9678 Y0.4070  
G01 X-0.9798 Y0.4190  
G01 X-1.2702 Y0.4190  
G01 X-1.2822 Y0.4070  
G01 X-1.3178 Y0.4070  
G01 X-1.3298 Y0.4190  
G01 X-1.3702 Y0.4190  
G01 X-1.3822 Y0.4070  
G01 X-1.4178 Y0.4070  
G01 X-1.4298 Y0.4190  
G01 X-1.7202 Y0.4190  
G01 X-1.7322 Y0.4070  
G01 X-1.7678 Y0.4070  
G01 X-1.7798 Y0.4190  
G01 X-1.8202 Y0.4190  
G01 X-1.8322 Y0.4070  
G01 X-1.8678 Y0.4070  
G01 X-1.8798 Y0.4190  
G01 X-2.2202 Y0.4190  
G01 X-2.2322 Y0.4070  
G01 X-2.2678 Y0.4070  
G01 X-2.2798 Y0.4190  
G01 X-2.3202 Y0.4190  
G01 X-2.3322 Y0.4070  
G01 X-2.3678 Y0.4070  
G01 X-2.3798 Y0.4190  
G01 X-2.7202 Y0.4190  
G01 X-2.7322 Y0.4070  
G01 X-2.7678 Y0.4070  
G01 X-2.7798 Y0.4190  
G01 X-2.8202 Y0.4190  
G01 X-2.8322 Y0.4070  
G01 X-2.8678 Y0.4070  
G01 X-2.8798 Y0.4190  
G01 X-3.2202 Y0.4190  
G01 X-3.2322 Y0.4070  
G01 X-3.2678 Y0.4070  
G01 X-3.2798 Y0.4190  
G01 X-3.3202 Y0.4190  
G01 X-3.3322 Y0.4070  
G01 X-3.3678 Y0.4070  
G01 X-3.3798 Y0.4190  
G01 X-3.7202 Y0.4190  
G01 X-3.7322 Y0.4070  
G01 X-3.7678 Y0.4070  
G01 X-3.7798 Y0.4190  
G01 X-3.8202 Y0.4190  
G01 X-3.8322 Y0.4070  
G01 X-3.8678 Y0.4070  
G01 X-3.8930 Y0.4322  
G01 X-3.8930 Y0.4678  
G01 X-3.8810 Y0.4798  
G01 X-3.8810 Y0.5202  
G01 X-3.8930 Y0.5322  
G01 X-3.8930 Y0.5678  
G01 X-3.8810 Y0.5798  
G01 X-3.8810 Y0.6202  
G01 X-3.8930 Y0.6322  
G01 X-3.8930 Y0.6678  
G01 X-3.8678 Y0.6930  
G01 X-3.8322 Y0.6930  
G01 X-3.8202 Y0.6810  
G01 X-3.7798 Y0.6810  
G01 X-3.7678 Y0.6930  
G01 X-3.7322 Y0.6930  
G01 X-3.7202 Y0.6810  
G01 X-3.3798 Y0.6810  
G01 X-3.3678 Y0.6930  
G01 X-3.3322 Y0.6930  
G01 X-3.3202 Y0.6810  
G01 X-3.2798 Y0.6810  
G01 X-3.2678 Y0.6930  
G01 X-3.2322 Y0.6930  
G01 X-3.2202 Y0.6810  
G01 X-2.8798 Y0.6810  
G01 X-2.8678 Y0.6930  
G01 X-2.8322 Y0.6930  
G01 X-2.8202 Y0.6810  
G01 X-2.7798 Y0.6810  
G01 X-2.7678 Y0.6930  
G01 X-2.7322 Y0.6930  
G01 X-2.7202 Y0.6810  
G01 X-2.3798 Y0.6810  
G01 X-2.3678 Y0.6930  
G01 X-2.3322 Y0.6930  
G01 X-2.3202 Y0.6810  
G01 X-2.2798 Y0.6810  
G01 X-2.2678 Y0.6930  
G01 X-2.2322 Y0.6930  
G01 X-2.2202 Y0.6810  
G01 X-1.8798 Y0.6810  
G01 X-1.8678 Y0.6930  
G01 X-1.8322 Y0.6930  
G01 X-1.8202 Y0.6810  
G01 X-1.7798 Y0.6810  
G01 X-1.7678 Y0.6930  
G01 X-1.7322 Y0.6930  
G01 X-1.7202 Y0.6810  
G01 X-1.4298 Y0.6810  
G01 X-1.4178 Y0.6930  
G01 X-1.3822 Y0.6930  
G01 X-1.3702 Y0.6810  
G01 X-1.3298 Y0.6810  
G01 X-1.3178 Y0.6930  
G01 X-1.2822 Y0.6930  
G01 X-1.2702 Y0.6810  
G01 X-0.9798 Y0.6810  
G01 X-0.9678 Y0.6930  
G01 X-0.9322 Y0.6930  
G01 X-0.9202 Y0.6810  
G01 X-0.8798 Y0.6810  
G01 X-0.8678 Y0.6930  
G01 X-0.8322 Y0.6930  
G01 X-0.8202 Y0.6810  
G01 X-0.5298 Y0.6810  
G01 X-0.5178 Y0.6930  
G01 X-0.4822 Y0.6930  
G01 X-0.4702 Y0.6810  
G01 X-0.4298 Y0.6810  
G01 X-0.4178 Y0.6930  
G01 X-0.3822 Y0.6930  
G01 X-0.3652 Y0.6760  
G01 X-0.2591 Y0.6760  
G01 X-0.1510 Y0.7625  
G01 X-0.1510 Y1.3383  
G01 X-0.3543 Y1.5190  
G01 X-0.3702 Y1.5190  
G01 X-0.3822 Y1.5070  
G01 X-0.4178 Y1.5070  
G01 X-0.4298 Y1.5190  
G01 X-0.4702 Y1.5190  
G01 X-0.4822 Y1.5070  
G01 X-0.5178 Y1.5070  
G01 X-0.5430 Y1.5322  
G01 X-0.5430 Y1.5678  
G01 X-0.5310 Y1.5798  
G01 X-0.5310 Y1.6202  
G01 X-0.5430 Y1.6322  
G01 X-0.5430 Y1.6678  
G01 X-0.5178 Y1.6930  
G01 X-0.4822 Y1.6930  
G01 X-0.4702 Y1.6810  
G01 X-0.4298 Y1.6810  
G01 X-0.4178 Y1.6930  
G01 X-0.3822 Y1.6930  
G01 X-0.3702 Y1.6810  
G01 X-0.3298 Y1.6810  
G01 X-0.3178 Y1.6930  
G01 X-0.2822 Y1.6930  
G01 X-0.2570 Y1.6678  
G01 X-0.2570 Y1.6322  
G01 X-0.2690 Y1.6202  
G01 X-0.2690 Y1.5798  
G01 X-0.2570 Y1.5678  
G01 X-0.2570 Y1.5322  
G01 X-0.2729 Y1.5163  
G01 X-0.1091 Y1.3706  
G01 X-0.1084 Y1.3702  
G01 X-0.1072 Y1.3689  
G01 X-0.1058 Y1.3677  
G01 X-0.1053 Y1.3671  
G01 X-0.1048 Y1.3666  
G01 X-0.1038 Y1.3651  
G01 X-0.1027 Y1.3636  
G01 X-0.1024 Y1.3630  
G01 X-0.1020 Y1.3623  
G01 X-0.1013 Y1.3607  
G01 X-0.1005 Y1.3590  
G01 X-0.1003 Y1.3583  
G01 X-0.1000 Y1.3576  
G01 X-0.0996 Y1.3558  
G01 X-0.0992 Y1.3541  
G01 X-0.0992 Y1.3533  
G01 X-0.0990 Y1.3526  
G01 X-0.0990 Y1.3508  
G01 X-0.0989 Y1.3490  
G01 X-0.0990 Y1.3482  
G01 X-0.0990 Y0.7511  
G01 X-0.0989 Y0.7497  
G01 X-0.0990 Y0.7486  
G01 X-0.0990 Y0.7474  
G01 X-0.0993 Y0.7460  
G01 X-0.0994 Y0.7446  
G01 X-0.0998 Y0.7435  
G01 X-0.1000 Y0.7424  
G01 X-0.1006 Y0.7411  
G01 X-0.1010 Y0.7397  
G01 X-0.1015 Y0.7387  
G01 X-0.1020 Y0.7377  
G01 X-0.1028 Y0.7365  
G01 X-0.1035 Y0.7352  
G01 X-0.1042 Y0.7344  
G01 X-0.1048 Y0.7334  
G01 X-0.1058 Y0.7324  
G01 X-0.1068 Y0.7313  
G00 Z0.0500  
G00 X-0.1798 Y0.8334  
G01 Z-0.0040 F10    
G01 X-0.2798 Y0.7334  F20    
G01 X-0.2834 Y0.7298  
G01 X-0.2877 Y0.7270  
G01 X-0.2924 Y0.7250  
G01 X-0.2974 Y0.7240  
G01 X-0.3652 Y0.7240  
G01 X-0.3822 Y0.7070  
G01 X-0.4178 Y0.7070  
G01 X-0.4348 Y0.7240  
G01 X-0.4652 Y0.7240  
G01 X-0.4822 Y0.7070  
G01 X-0.5178 Y0.7070  
G01 X-0.5348 Y0.7240  
G01 X-0.8152 Y0.7240  
G01 X-0.8322 Y0.7070  
G01 X-0.8678 Y0.7070  
G01 X-0.8848 Y0.7240  
G01 X-0.9152 Y0.7240  
G01 X-0.9322 Y0.7070  
G01 X-0.9678 Y0.7070  
G01 X-0.9848 Y0.7240  
G01 X-1.2652 Y0.7240  
G01 X-1.2822 Y0.7070  
G01 X-1.3178 Y0.7070  
G01 X-1.3348 Y0.7240  
G01 X-1.3652 Y0.7240  
G01 X-1.3822 Y0.7070  
G01 X-1.4178 Y0.7070  
G01 X-1.4348 Y0.7240  
G01 X-1.7152 Y0.7240  
G01 X-1.7322 Y0.7070  
G01 X-1.7678 Y0.7070  
G01 X-1.7848 Y0.7240  
G01 X-1.8152 Y0.7240  
G01 X-1.8322 Y0.7070  
G01 X-1.8678 Y0.7070  
G01 X-1.8848 Y0.7240  
G01 X-2.2152 Y0.7240  
G01 X-2.2322 Y0.7070  
G01 X-2.2678 Y0.7070  
G01 X-2.2848 Y0.7240  
G01 X-2.3152 Y0.7240  
G01 X-2.3322 Y0.7070  
G01 X-2.3678 Y0.7070  
G01 X-2.3848 Y0.7240  
G01 X-2.7152 Y0.7240  
G01 X-2.7322 Y0.7070  
G01 X-2.7678 Y0.7070  
G01 X-2.7848 Y0.7240  
G01 X-2.8152 Y0.7240  
G01 X-2.8322 Y0.7070  
G01 X-2.8678 Y0.7070  
G01 X-2.8848 Y0.7240  
G01 X-3.2152 Y0.7240  
G01 X-3.2322 Y0.7070  
G01 X-3.2678 Y0.7070  
G01 X-3.2848 Y0.7240  
G01 X-3.3152 Y0.7240  
G01 X-3.3322 Y0.7070  
G01 X-3.3678 Y0.7070  
G01 X-3.3848 Y0.7240  
G01 X-3.7152 Y0.7240  
G01 X-3.7322 Y0.7070  
G01 X-3.7678 Y0.7070  
G01 X-3.7848 Y0.7240  
G01 X-3.8152 Y0.7240  
G01 X-3.8322 Y0.7070  
G01 X-3.8678 Y0.7070  
G01 X-3.8930 Y0.7322  
G01 X-3.8930 Y0.7678  
G01 X-3.8678 Y0.7930  
G01 X-3.8322 Y0.7930  
G01 X-3.8152 Y0.7760  
G01 X-3.7848 Y0.7760  
G01 X-3.7678 Y0.7930  
G01 X-3.7322 Y0.7930  
G01 X-3.7152 Y0.7760  
G01 X-3.3848 Y0.7760  
G01 X-3.3678 Y0.7930  
G01 X-3.3322 Y0.7930  
G01 X-3.3152 Y0.7760  
G01 X-3.2848 Y0.7760  
G01 X-3.2678 Y0.7930  
G01 X-3.2322 Y0.7930  
G01 X-3.2152 Y0.7760  
G01 X-2.8848 Y0.7760  
G01 X-2.8678 Y0.7930  
G01 X-2.8322 Y0.7930  
G01 X-2.8152 Y0.7760  
G01 X-2.7848 Y0.7760  
G01 X-2.7678 Y0.7930  
G01 X-2.7322 Y0.7930  
G01 X-2.7152 Y0.7760  
G01 X-2.3848 Y0.7760  
G01 X-2.3678 Y0.7930  
G01 X-2.3322 Y0.7930  
G01 X-2.3152 Y0.7760  
G01 X-2.2848 Y0.7760  
G01 X-2.2678 Y0.7930  
G01 X-2.2322 Y0.7930  
G01 X-2.2152 Y0.7760  
G01 X-1.8848 Y0.7760  
G01 X-1.8678 Y0.7930  
G01 X-1.8322 Y0.7930  
G01 X-1.8152 Y0.7760  
G01 X-1.7848 Y0.7760  
G01 X-1.7678 Y0.7930  
G01 X-1.7322 Y0.7930  
G01 X-1.7152 Y0.7760  
G01 X-1.4348 Y0.7760  
G01 X-1.4178 Y0.7930  
G01 X-1.3822 Y0.7930  
G01 X-1.3652 Y0.7760  
G01 X-1.3348 Y0.7760  
G01 X-1.3178 Y0.7930  
G01 X-1.2822 Y0.7930  
G01 X-1.2652 Y0.7760  
G01 X-0.9848 Y0.7760  
G01 X-0.9678 Y0.7930  
G01 X-0.9322 Y0.7930  
G01 X-0.9152 Y0.7760  
G01 X-0.8848 Y0.7760  
G01 X-0.8678 Y0.7930  
G01 X-0.8322 Y0.7930  
G01 X-0.8152 Y0.7760  
G01 X-0.5348 Y0.7760  
G01 X-0.5178 Y0.7930  
G01 X-0.4822 Y0.7930  
G01 X-0.4652 Y0.7760  
G01 X-0.4348 Y0.7760  
G01 X-0.4178 Y0.7930  
G01 X-0.3822 Y0.7930  
G01 X-0.3652 Y0.7760  
G01 X-0.3108 Y0.7760  
G01 X-0.2260 Y0.8608  
G01 X-0.2260 Y1.2409  
G01 X-0.3137 Y1.3505  
G01 X-0.5023 Y1.3741  
G01 X-0.5040 Y1.3742  
G01 X-0.5049 Y1.3744  
G01 X-0.5058 Y1.3745  
G01 X-0.5073 Y1.3750  
G01 X-0.5089 Y1.3754  
G01 X-0.5098 Y1.3758  
G01 X-0.5106 Y1.3761  
G01 X-0.5121 Y1.3769  
G01 X-0.5136 Y1.3777  
G01 X-0.5143 Y1.3782  
G01 X-0.5151 Y1.3787  
G01 X-0.5163 Y1.3797  
G01 X-0.6150 Y1.4538  
G01 X-0.6166 Y1.4548  
G01 X-0.6171 Y1.4553  
G01 X-0.6176 Y1.4557  
G01 X-0.6189 Y1.4571  
G01 X-0.6202 Y1.4584  
G01 X-0.6206 Y1.4590  
G01 X-0.6211 Y1.4595  
G01 X-0.6220 Y1.4611  
G01 X-0.6230 Y1.4627  
G01 X-0.6233 Y1.4633  
G01 X-0.6237 Y1.4640  
G01 X-0.6243 Y1.4657  
G01 X-0.6250 Y1.4674  
G01 X-0.6251 Y1.4681  
G01 X-0.6254 Y1.4688  
G01 X-0.6256 Y1.4706  
G01 X-0.6260 Y1.4724  
G01 X-0.6260 Y1.4732  
G01 X-0.6261 Y1.4739  
G01 X-0.6260 Y1.4757  
G01 X-0.6260 Y1.5152  
G01 X-0.6430 Y1.5322  
G01 X-0.6430 Y1.5678  
G01 X-0.6260 Y1.5848  
G01 X-0.6260 Y1.6152  
G01 X-0.6430 Y1.6322  
G01 X-0.6430 Y1.6678  
G01 X-0.6178 Y1.6930  
G01 X-0.5822 Y1.6930  
G01 X-0.5570 Y1.6678  
G01 X-0.5570 Y1.6322  
G01 X-0.5740 Y1.6152  
G01 X-0.5740 Y1.5848  
G01 X-0.5570 Y1.5678  
G01 X-0.5570 Y1.5322  
G01 X-0.5740 Y1.5152  
G01 X-0.5740 Y1.4880  
G01 X-0.4899 Y1.4249  
G01 X-0.2970 Y1.4008  
G01 X-0.2946 Y1.4006  
G01 X-0.2944 Y1.4005  
G01 X-0.2942 Y1.4005  
G01 X-0.2920 Y1.3997  
G01 X-0.2897 Y1.3990  
G01 X-0.2895 Y1.3989  
G01 X-0.2894 Y1.3989  
G01 X-0.2873 Y1.3977  
G01 X-0.2852 Y1.3965  
G01 X-0.2851 Y1.3964  
G01 X-0.2849 Y1.3963  
G01 X-0.2831 Y1.3948  
G01 X-0.2813 Y1.3932  
G01 X-0.2812 Y1.3931  
G01 X-0.2810 Y1.3930  
G01 X-0.2796 Y1.3911  
G01 X-0.1806 Y1.2674  
G01 X-0.1798 Y1.2666  
G01 X-0.1790 Y1.2654  
G01 X-0.1781 Y1.2642  
G01 X-0.1776 Y1.2632  
G01 X-0.1770 Y1.2623  
G01 X-0.1764 Y1.2610  
G01 X-0.1757 Y1.2597  
G01 X-0.1754 Y1.2586  
G01 X-0.1750 Y1.2576  
G01 X-0.1747 Y1.2562  
G01 X-0.1743 Y1.2548  
G01 X-0.1742 Y1.2537  
G01 X-0.1740 Y1.2526  
G01 X-0.1740 Y1.2511  
G01 X-0.1739 Y1.2497  
G01 X-0.1740 Y1.2486  
G01 X-0.1740 Y0.8474  
G01 X-0.1750 Y0.8424  
G01 X-0.1770 Y0.8377  
G01 X-0.1798 Y0.8334  
G00 Z0.0500  
G00 X-0.2548 Y0.9084  
G01 Z-0.0040 F10    
G01 X-0.3298 Y0.8334  F20    
G01 X-0.3334 Y0.8298  
G01 X-0.3377 Y0.8270  
G01 X-0.3424 Y0.8250  
G01 X-0.3474 Y0.8240  
G01 X-0.3652 Y0.8240  
G01 X-0.3822 Y0.8070  
G01 X-0.4178 Y0.8070  
G01 X-0.4348 Y0.8240  
G01 X-0.4652 Y0.8240  
G01 X-0.4822 Y0.8070  
G01 X-0.5178 Y0.8070  
G01 X-0.5348 Y0.8240  
G01 X-0.8152 Y0.8240  
G01 X-0.8322 Y0.8070  
G01 X-0.8678 Y0.8070  
G01 X-0.8848 Y0.8240  
G01 X-0.9152 Y0.8240  
G01 X-0.9322 Y0.8070  
G01 X-0.9678 Y0.8070  
G01 X-0.9848 Y0.8240  
G01 X-1.2652 Y0.8240  
G01 X-1.2822 Y0.8070  
G01 X-1.3178 Y0.8070  
G01 X-1.3348 Y0.8240  
G01 X-1.3652 Y0.8240  
G01 X-1.3822 Y0.8070  
G01 X-1.4178 Y0.8070  
G01 X-1.4348 Y0.8240  
G01 X-1.7152 Y0.8240  
G01 X-1.7322 Y0.8070  
G01 X-1.7678 Y0.8070  
G01 X-1.7848 Y0.8240  
G01 X-1.8152 Y0.8240  
G01 X-1.8322 Y0.8070  
G01 X-1.8678 Y0.8070  
G01 X-1.8848 Y0.8240  
G01 X-2.2152 Y0.8240  
G01 X-2.2322 Y0.8070  
G01 X-2.2678 Y0.8070  
G01 X-2.2848 Y0.8240  
G01 X-2.3152 Y0.8240  
G01 X-2.3322 Y0.8070  
G01 X-2.3678 Y0.8070  
G01 X-2.3848 Y0.8240  
G01 X-2.7152 Y0.8240  
G01 X-2.7322 Y0.8070  
G01 X-2.7678 Y0.8070  
G01 X-2.7848 Y0.8240  
G01 X-2.8152 Y0.8240  
G01 X-2.8322 Y0.8070  
G01 X-2.8678 Y0.8070  
G01 X-2.8848 Y0.8240  
G01 X-3.2152 Y0.8240  
G01 X-3.2322 Y0.8070  
G01 X-3.2678 Y0.8070  
G01 X-3.2848 Y0.8240  
G01 X-3.3152 Y0.8240  
G01 X-3.3322 Y0.8070  
G01 X-3.3678 Y0.8070  
G01 X-3.3848 Y0.8240  
G01 X-3.7152 Y0.8240  
G01 X-3.7322 Y0.8070  
G01 X-3.7678 Y0.8070  
G01 X-3.7848 Y0.8240  
G01 X-3.8152 Y0.8240  
G01 X-3.8322 Y0.8070  
G01 X-3.8678 Y0.8070  
G01 X-3.8930 Y0.8322  
G01 X-3.8930 Y0.8678  
G01 X-3.8678 Y0.8930  
G01 X-3.8322 Y0.8930  
G01 X-3.8152 Y0.8760  
G01 X-3.7848 Y0.8760  
G01 X-3.7678 Y0.8930  
G01 X-3.7322 Y0.8930  
G01 X-3.7152 Y0.8760  
G01 X-3.3848 Y0.8760  
G01 X-3.3678 Y0.8930  
G01 X-3.3322 Y0.8930  
G01 X-3.3152 Y0.8760  
G01 X-3.2848 Y0.8760  
G01 X-3.2678 Y0.8930  
G01 X-3.2322 Y0.8930  
G01 X-3.2152 Y0.8760  
G01 X-2.8848 Y0.8760  
G01 X-2.8678 Y0.8930  
G01 X-2.8322 Y0.8930  
G01 X-2.8152 Y0.8760  
G01 X-2.7848 Y0.8760  
G01 X-2.7678 Y0.8930  
G01 X-2.7322 Y0.8930  
G01 X-2.7152 Y0.8760  
G01 X-2.3848 Y0.8760  
G01 X-2.3678 Y0.8930  
G01 X-2.3322 Y0.8930  
G01 X-2.3152 Y0.8760  
G01 X-2.2848 Y0.8760  
G01 X-2.2678 Y0.8930  
G01 X-2.2322 Y0.8930  
G01 X-2.2152 Y0.8760  
G01 X-1.8848 Y0.8760  
G01 X-1.8678 Y0.8930  
G01 X-1.8322 Y0.8930  
G01 X-1.8152 Y0.8760  
G01 X-1.7848 Y0.8760  
G01 X-1.7678 Y0.8930  
G01 X-1.7322 Y0.8930  
G01 X-1.7152 Y0.8760  
G01 X-1.4348 Y0.8760  
G01 X-1.4178 Y0.8930  
G01 X-1.3822 Y0.8930  
G01 X-1.3652 Y0.8760  
G01 X-1.3348 Y0.8760  
G01 X-1.3178 Y0.8930  
G01 X-1.2822 Y0.8930  
G01 X-1.2652 Y0.8760  
G01 X-0.9848 Y0.8760  
G01 X-0.9678 Y0.8930  
G01 X-0.9322 Y0.8930  
G01 X-0.9152 Y0.8760  
G01 X-0.8848 Y0.8760  
G01 X-0.8678 Y0.8930  
G01 X-0.8322 Y0.8930  
G01 X-0.8152 Y0.8760  
G01 X-0.5348 Y0.8760  
G01 X-0.5178 Y0.8930  
G01 X-0.4822 Y0.8930  
G01 X-0.4652 Y0.8760  
G01 X-0.4348 Y0.8760  
G01 X-0.4178 Y0.8930  
G01 X-0.3822 Y0.8930  
G01 X-0.3652 Y0.8760  
G01 X-0.3608 Y0.8760  
G01 X-0.3010 Y0.9358  
G01 X-0.3010 Y1.1913  
G01 X-0.3642 Y1.2756  
G01 X-0.5516 Y1.2990  
G01 X-0.5526 Y1.2990  
G01 X-0.5542 Y1.2993  
G01 X-0.5558 Y1.2995  
G01 X-0.5567 Y1.2998  
G01 X-0.5576 Y1.3000  
G01 X-0.5591 Y1.3006  
G01 X-0.5606 Y1.3011  
G01 X-0.5614 Y1.3016  
G01 X-0.5623 Y1.3020  
G01 X-0.5637 Y1.3029  
G01 X-0.5651 Y1.3037  
G01 X-0.5658 Y1.3043  
G01 X-0.5666 Y1.3048  
G01 X-0.5677 Y1.3060  
G01 X-0.5690 Y1.3070  
G01 X-0.5695 Y1.3078  
G01 X-0.7202 Y1.4584  
G01 X-0.7230 Y1.4627  
G01 X-0.7250 Y1.4674  
G01 X-0.7260 Y1.4724  
G01 X-0.7260 Y1.5152  
G01 X-0.7430 Y1.5322  
G01 X-0.7430 Y1.5678  
G01 X-0.7260 Y1.5848  
G01 X-0.7260 Y1.6152  
G01 X-0.7430 Y1.6322  
G01 X-0.7430 Y1.6678  
G01 X-0.7178 Y1.6930  
G01 X-0.6822 Y1.6930  
G01 X-0.6570 Y1.6678  
G01 X-0.6570 Y1.6322  
G01 X-0.6740 Y1.6152  
G01 X-0.6740 Y1.5848  
G01 X-0.6570 Y1.5678  
G01 X-0.6570 Y1.5322  
G01 X-0.6740 Y1.5152  
G01 X-0.6740 Y1.4858  
G01 X-0.5379 Y1.3497  
G01 X-0.3491 Y1.3261  
G01 X-0.3489 Y1.3261  
G01 X-0.3465 Y1.3258  
G01 X-0.3442 Y1.3255  
G01 X-0.3440 Y1.3254  
G01 X-0.3438 Y1.3254  
G01 X-0.3416 Y1.3246  
G01 X-0.3394 Y1.3239  
G01 X-0.3392 Y1.3238  
G01 X-0.3390 Y1.3237  
G01 X-0.3369 Y1.3225  
G01 X-0.3349 Y1.3213  
G01 X-0.3347 Y1.3212  
G01 X-0.3345 Y1.3211  
G01 X-0.3328 Y1.3195  
G01 X-0.3310 Y1.3180  
G01 X-0.3309 Y1.3178  
G01 X-0.3307 Y1.3176  
G01 X-0.3293 Y1.3158  
G01 X-0.3279 Y1.3139  
G01 X-0.3278 Y1.3137  
G01 X-0.2553 Y1.2171  
G01 X-0.2548 Y1.2166  
G01 X-0.2538 Y1.2150  
G01 X-0.2527 Y1.2136  
G01 X-0.2524 Y1.2129  
G01 X-0.2520 Y1.2123  
G01 X-0.2512 Y1.2106  
G01 X-0.2504 Y1.2089  
G01 X-0.2503 Y1.2082  
G01 X-0.2500 Y1.2076  
G01 X-0.2496 Y1.2058  
G01 X-0.2492 Y1.2040  
G01 X-0.2491 Y1.2033  
G01 X-0.2490 Y1.2026  
G01 X-0.2490 Y1.2007  
G01 X-0.2489 Y1.1989  
G01 X-0.2490 Y1.1982  
G01 X-0.2490 Y0.9224  
G01 X-0.2500 Y0.9174  
G01 X-0.2520 Y0.9127  
G01 X-0.2548 Y0.9084  
G00 Z0.0500  
G00 X-0.3570 Y0.9322  
G01 Z-0.0040 F10    
G01 X-0.3822 Y0.9070  F20    
G01 X-0.4178 Y0.9070  
G01 X-0.4348 Y0.9240  
G01 X-0.4652 Y0.9240  
G01 X-0.4822 Y0.9070  
G01 X-0.5178 Y0.9070  
G01 X-0.5348 Y0.9240  
G01 X-0.6026 Y0.9240  
G01 X-0.6076 Y0.9250  
G01 X-0.6123 Y0.9270  
G01 X-0.6166 Y0.9298  
G01 X-0.6202 Y0.9334  
G01 X-1.1108 Y1.4240  
G01 X-1.4526 Y1.4240  
G01 X-1.4576 Y1.4250  
G01 X-1.4623 Y1.4270  
G01 X-1.4666 Y1.4298  
G01 X-1.5702 Y1.5334  
G01 X-1.5730 Y1.5377  
G01 X-1.5750 Y1.5424  
G01 X-1.5754 Y1.5445  
G01 X-1.5780 Y1.5471  
G01 X-1.5819 Y1.5529  
G01 X-1.5846 Y1.5595  
G01 X-1.5860 Y1.5665  
G01 X-1.5860 Y1.6335  
G01 X-1.5846 Y1.6405  
G01 X-1.5819 Y1.6471  
G01 X-1.5780 Y1.6529  
G01 X-1.5729 Y1.6580  
G01 X-1.5671 Y1.6619  
G01 X-1.5605 Y1.6646  
G01 X-1.5535 Y1.6660  
G01 X-1.5465 Y1.6660  
G01 X-1.5395 Y1.6646  
G01 X-1.5329 Y1.6619  
G01 X-1.5271 Y1.6580  
G01 X-1.5220 Y1.6529  
G01 X-1.5181 Y1.6471  
G01 X-1.5154 Y1.6405  
G01 X-1.5140 Y1.6335  
G01 X-1.5140 Y1.5665  
G01 X-1.5154 Y1.5595  
G01 X-1.5175 Y1.5543  
G01 X-1.4392 Y1.4760  
G01 X-1.0974 Y1.4760  
G01 X-1.0924 Y1.4750  
G01 X-1.0877 Y1.4730  
G01 X-1.0834 Y1.4702  
G01 X-0.5892 Y0.9760  
G01 X-0.5348 Y0.9760  
G01 X-0.5178 Y0.9930  
G01 X-0.4822 Y0.9930  
G01 X-0.4652 Y0.9760  
G01 X-0.4348 Y0.9760  
G01 X-0.4178 Y0.9930  
G01 X-0.3822 Y0.9930  
G01 X-0.3570 Y0.9678  
G01 X-0.3570 Y0.9322  
G00 Z0.0500  
G00 X-0.3570 Y1.0322  
G01 Z-0.0040 F10    
G01 X-0.3822 Y1.0070  F20    
G01 X-0.4178 Y1.0070  
G01 X-0.4348 Y1.0240  
G01 X-0.4652 Y1.0240  
G01 X-0.4822 Y1.0070  
G01 X-0.5178 Y1.0070  
G01 X-0.5430 Y1.0322  
G01 X-0.5430 Y1.0678  
G01 X-0.5260 Y1.0848  
G01 X-0.5260 Y1.1892  
G01 X-0.5608 Y1.2240  
G01 X-0.8026 Y1.2240  
G01 X-0.8076 Y1.2250  
G01 X-0.8123 Y1.2270  
G01 X-0.8166 Y1.2298  
G01 X-1.1608 Y1.5740  
G01 X-1.4140 Y1.5740  
G01 X-1.4140 Y1.5665  
G01 X-1.4154 Y1.5595  
G01 X-1.4181 Y1.5529  
G01 X-1.4220 Y1.5471  
G01 X-1.4271 Y1.5420  
G01 X-1.4329 Y1.5381  
G01 X-1.4395 Y1.5354  
G01 X-1.4465 Y1.5340  
G01 X-1.4535 Y1.5340  
G01 X-1.4605 Y1.5354  
G01 X-1.4671 Y1.5381  
G01 X-1.4729 Y1.5420  
G01 X-1.4780 Y1.5471  
G01 X-1.4819 Y1.5529  
G01 X-1.4846 Y1.5595  
G01 X-1.4860 Y1.5665  
G01 X-1.4860 Y1.6335  
G01 X-1.4846 Y1.6405  
G01 X-1.4819 Y1.6471  
G01 X-1.4780 Y1.6529  
G01 X-1.4729 Y1.6580  
G01 X-1.4671 Y1.6619  
G01 X-1.4605 Y1.6646  
G01 X-1.4535 Y1.6660  
G01 X-1.4465 Y1.6660  
G01 X-1.4395 Y1.6646  
G01 X-1.4329 Y1.6619  
G01 X-1.4271 Y1.6580  
G01 X-1.4220 Y1.6529  
G01 X-1.4181 Y1.6471  
G01 X-1.4154 Y1.6405  
G01 X-1.4140 Y1.6335  
G01 X-1.4140 Y1.6260  
G01 X-1.1474 Y1.6260  
G01 X-1.1424 Y1.6250  
G01 X-1.1377 Y1.6230  
G01 X-1.1334 Y1.6202  
G01 X-1.1298 Y1.6166  
G01 X-0.7892 Y1.2760  
G01 X-0.5474 Y1.2760  
G01 X-0.5424 Y1.2750  
G01 X-0.5377 Y1.2730  
G01 X-0.5334 Y1.2702  
G01 X-0.5298 Y1.2666  
G01 X-0.4798 Y1.2166  
G01 X-0.4770 Y1.2123  
G01 X-0.4750 Y1.2076  
G01 X-0.4740 Y1.2026  
G01 X-0.4740 Y1.0848  
G01 X-0.4652 Y1.0760  
G01 X-0.4348 Y1.0760  
G01 X-0.4178 Y1.0930  
G01 X-0.3822 Y1.0930  
G01 X-0.3570 Y1.0678  
G01 X-0.3570 Y1.0322  
G00 Z0.0500  
G00 X-0.8070 Y1.0322  
G01 Z-0.0040 F10    
G01 X-0.8322 Y1.0070  F20    
G01 X-0.8678 Y1.0070  
G01 X-0.8848 Y1.0240  
G01 X-0.9152 Y1.0240  
G01 X-0.9322 Y1.0070  
G01 X-0.9678 Y1.0070  
G01 X-0.9930 Y1.0322  
G01 X-0.9930 Y1.0562  
G01 X-1.2608 Y1.3240  
G01 X-1.5026 Y1.3240  
G01 X-1.5076 Y1.3250  
G01 X-1.5123 Y1.3270  
G01 X-1.5166 Y1.3298  
G01 X-1.6666 Y1.4798  
G01 X-1.6702 Y1.4834  
G01 X-1.6730 Y1.4877  
G01 X-1.6750 Y1.4924  
G01 X-1.6760 Y1.4974  
G01 X-1.6760 Y1.5451  
G01 X-1.6780 Y1.5471  
G01 X-1.6819 Y1.5529  
G01 X-1.6846 Y1.5595  
G01 X-1.6860 Y1.5665  
G01 X-1.6860 Y1.6335  
G01 X-1.6846 Y1.6405  
G01 X-1.6819 Y1.6471  
G01 X-1.6780 Y1.6529  
G01 X-1.6729 Y1.6580  
G01 X-1.6671 Y1.6619  
G01 X-1.6605 Y1.6646  
G01 X-1.6535 Y1.6660  
G01 X-1.6465 Y1.6660  
G01 X-1.6395 Y1.6646  
G01 X-1.6329 Y1.6619  
G01 X-1.6271 Y1.6580  
G01 X-1.6220 Y1.6529  
G01 X-1.6181 Y1.6471  
G01 X-1.6154 Y1.6405  
G01 X-1.6140 Y1.6335  
G01 X-1.6140 Y1.5665  
G01 X-1.6154 Y1.5595  
G01 X-1.6181 Y1.5529  
G01 X-1.6220 Y1.5471  
G01 X-1.6240 Y1.5451  
G01 X-1.6240 Y1.5108  
G01 X-1.4892 Y1.3760  
G01 X-1.2474 Y1.3760  
G01 X-1.2424 Y1.3750  
G01 X-1.2377 Y1.3730  
G01 X-1.2334 Y1.3702  
G01 X-1.2298 Y1.3666  
G01 X-0.9562 Y1.0930  
G01 X-0.9322 Y1.0930  
G01 X-0.9152 Y1.0760  
G01 X-0.8848 Y1.0760  
G01 X-0.8678 Y1.0930  
G01 X-0.8322 Y1.0930  
G01 X-0.8070 Y1.0678  
G01 X-0.8070 Y1.0322  
G00 Z0.0500  
G00 X-0.8322 Y0.9930  
G01 Z-0.0040 F10    
G01 X-0.8070 Y0.9678  F20    
G01 X-0.8070 Y0.9322  
G01 X-0.8322 Y0.9070  
G01 X-0.8678 Y0.9070  
G01 X-0.8848 Y0.9240  
G01 X-0.9152 Y0.9240  
G01 X-0.9322 Y0.9070  
G01 X-0.9678 Y0.9070  
G01 X-0.9848 Y0.9240  
G01 X-1.0526 Y0.9240  
G01 X-1.0576 Y0.9250  
G01 X-1.0623 Y0.9270  
G01 X-1.0666 Y0.9298  
G01 X-1.0702 Y0.9334  
G01 X-1.3608 Y1.2240  
G01 X-1.5026 Y1.2240  
G01 X-1.5076 Y1.2250  
G01 X-1.5123 Y1.2270  
G01 X-1.5166 Y1.2298  
G01 X-1.5202 Y1.2334  
G01 X-1.7702 Y1.4834  
G01 X-1.7730 Y1.4877  
G01 X-1.7750 Y1.4924  
G01 X-1.7760 Y1.4974  
G01 X-1.7760 Y1.5451  
G01 X-1.7780 Y1.5471  
G01 X-1.7819 Y1.5529  
G01 X-1.7846 Y1.5595  
G01 X-1.7860 Y1.5665  
G01 X-1.7860 Y1.6335  
G01 X-1.7846 Y1.6405  
G01 X-1.7819 Y1.6471  
G01 X-1.7780 Y1.6529  
G01 X-1.7729 Y1.6580  
G01 X-1.7671 Y1.6619  
G01 X-1.7605 Y1.6646  
G01 X-1.7535 Y1.6660  
G01 X-1.7465 Y1.6660  
G01 X-1.7395 Y1.6646  
G01 X-1.7329 Y1.6619  
G01 X-1.7271 Y1.6580  
G01 X-1.7220 Y1.6529  
G01 X-1.7181 Y1.6471  
G01 X-1.7154 Y1.6405  
G01 X-1.7140 Y1.6335  
G01 X-1.7140 Y1.5665  
G01 X-1.7154 Y1.5595  
G01 X-1.7181 Y1.5529  
G01 X-1.7220 Y1.5471  
G01 X-1.7240 Y1.5451  
G01 X-1.7240 Y1.5108  
G01 X-1.4892 Y1.2760  
G01 X-1.3474 Y1.2760  
G01 X-1.3424 Y1.2750  
G01 X-1.3377 Y1.2730  
G01 X-1.3334 Y1.2702  
G01 X-1.0392 Y0.9760  
G01 X-0.9848 Y0.9760  
G01 X-0.9678 Y0.9930  
G01 X-0.9322 Y0.9930  
G01 X-0.9152 Y0.9760  
G01 X-0.8848 Y0.9760  
G01 X-0.8678 Y0.9930  
G01 X-0.8322 Y0.9930  
G00 Z0.0500  
G00 X-1.2822 Y0.9930  
G01 Z-0.0040 F10    
G01 X-1.2570 Y0.9678  F20    
G01 X-1.2570 Y0.9322  
G01 X-1.2822 Y0.9070  
G01 X-1.3178 Y0.9070  
G01 X-1.3348 Y0.9240  
G01 X-1.3652 Y0.9240  
G01 X-1.3822 Y0.9070  
G01 X-1.4178 Y0.9070  
G01 X-1.4348 Y0.9240  
G01 X-1.4526 Y0.9240  
G01 X-1.4576 Y0.9250  
G01 X-1.4623 Y0.9270  
G01 X-1.4666 Y0.9298  
G01 X-1.6166 Y1.0798  
G01 X-1.6202 Y1.0834  
G01 X-1.6230 Y1.0877  
G01 X-1.6250 Y1.0924  
G01 X-1.6260 Y1.0974  
G01 X-1.6260 Y1.1392  
G01 X-1.9666 Y1.4798  
G01 X-1.9702 Y1.4834  
G01 X-1.9730 Y1.4877  
G01 X-1.9750 Y1.4924  
G01 X-1.9760 Y1.4974  
G01 X-1.9760 Y1.5451  
G01 X-1.9780 Y1.5471  
G01 X-1.9819 Y1.5529  
G01 X-1.9846 Y1.5595  
G01 X-1.9860 Y1.5665  
G01 X-1.9860 Y1.6335  
G01 X-1.9846 Y1.6405  
G01 X-1.9819 Y1.6471  
G01 X-1.9780 Y1.6529  
G01 X-1.9729 Y1.6580  
G01 X-1.9671 Y1.6619  
G01 X-1.9605 Y1.6646  
G01 X-1.9535 Y1.6660  
G01 X-1.9465 Y1.6660  
G01 X-1.9395 Y1.6646  
G01 X-1.9329 Y1.6619  
G01 X-1.9271 Y1.6580  
G01 X-1.9220 Y1.6529  
G01 X-1.9181 Y1.6471  
G01 X-1.9154 Y1.6405  
G01 X-1.9140 Y1.6335  
G01 X-1.9140 Y1.5665  
G01 X-1.9154 Y1.5595  
G01 X-1.9181 Y1.5529  
G01 X-1.9220 Y1.5471  
G01 X-1.9240 Y1.5451  
G01 X-1.9240 Y1.5108  
G01 X-1.5798 Y1.1666  
G01 X-1.5770 Y1.1623  
G01 X-1.5750 Y1.1576  
G01 X-1.5740 Y1.1526  
G01 X-1.5740 Y1.1108  
G01 X-1.4392 Y0.9760  
G01 X-1.4348 Y0.9760  
G01 X-1.4178 Y0.9930  
G01 X-1.3822 Y0.9930  
G01 X-1.3652 Y0.9760  
G01 X-1.3348 Y0.9760  
G01 X-1.3178 Y0.9930  
G01 X-1.2822 Y0.9930  
G00 Z0.0500  
G00 X-1.2822 Y1.0070  
G01 Z-0.0040 F10    
G01 X-1.3178 Y1.0070  F20    
G01 X-1.3348 Y1.0240  
G01 X-1.3652 Y1.0240  
G01 X-1.3822 Y1.0070  
G01 X-1.4178 Y1.0070  
G01 X-1.4430 Y1.0322  
G01 X-1.4430 Y1.0562  
G01 X-1.8666 Y1.4798  
G01 X-1.8702 Y1.4834  
G01 X-1.8730 Y1.4877  
G01 X-1.8750 Y1.4924  
G01 X-1.8760 Y1.4974  
G01 X-1.8760 Y1.5451  
G01 X-1.8780 Y1.5471  
G01 X-1.8819 Y1.5529  
G01 X-1.8846 Y1.5595  
G01 X-1.8860 Y1.5665  
G01 X-1.8860 Y1.6335  
G01 X-1.8846 Y1.6405  
G01 X-1.8819 Y1.6471  
G01 X-1.8780 Y1.6529  
G01 X-1.8729 Y1.6580  
G01 X-1.8671 Y1.6619  
G01 X-1.8605 Y1.6646  
G01 X-1.8535 Y1.6660  
G01 X-1.8465 Y1.6660  
G01 X-1.8395 Y1.6646  
G01 X-1.8329 Y1.6619  
G01 X-1.8271 Y1.6580  
G01 X-1.8220 Y1.6529  
G01 X-1.8181 Y1.6471  
G01 X-1.8154 Y1.6405  
G01 X-1.8140 Y1.6335  
G01 X-1.8140 Y1.5665  
G01 X-1.8154 Y1.5595  
G01 X-1.8181 Y1.5529  
G01 X-1.8220 Y1.5471  
G01 X-1.8240 Y1.5451  
G01 X-1.8240 Y1.5108  
G01 X-1.4062 Y1.0930  
G01 X-1.3822 Y1.0930  
G01 X-1.3652 Y1.0760  
G01 X-1.3348 Y1.0760  
G01 X-1.3178 Y1.0930  
G01 X-1.2822 Y1.0930  
G01 X-1.2570 Y1.0678  
G01 X-1.2570 Y1.0322  
G01 X-1.2822 Y1.0070  
G00 Z0.0500  
G00 X-1.7070 Y1.0322  
G01 Z-0.0040 F10    
G01 X-1.7322 Y1.0070  F20    
G01 X-1.7678 Y1.0070  
G01 X-1.7848 Y1.0240  
G01 X-1.8152 Y1.0240  
G01 X-1.8322 Y1.0070  
G01 X-1.8678 Y1.0070  
G01 X-1.8930 Y1.0322  
G01 X-1.8930 Y1.0678  
G01 X-1.8678 Y1.0930  
G01 X-1.8322 Y1.0930  
G01 X-1.8152 Y1.0760  
G01 X-1.7848 Y1.0760  
G01 X-1.7760 Y1.0848  
G01 X-1.7760 Y1.1392  
G01 X-2.0702 Y1.4334  
G01 X-2.0730 Y1.4377  
G01 X-2.0750 Y1.4424  
G01 X-2.0760 Y1.4474  
G01 X-2.0760 Y1.5451  
G01 X-2.0780 Y1.5471  
G01 X-2.0819 Y1.5529  
G01 X-2.0846 Y1.5595  
G01 X-2.0860 Y1.5665  
G01 X-2.0860 Y1.6335  
G01 X-2.0846 Y1.6405  
G01 X-2.0819 Y1.6471  
G01 X-2.0780 Y1.6529  
G01 X-2.0729 Y1.6580  
G01 X-2.0671 Y1.6619  
G01 X-2.0605 Y1.6646  
G01 X-2.0535 Y1.6660  
G01 X-2.0465 Y1.6660  
G01 X-2.0395 Y1.6646  
G01 X-2.0329 Y1.6619  
G01 X-2.0271 Y1.6580  
G01 X-2.0220 Y1.6529  
G01 X-2.0181 Y1.6471  
G01 X-2.0154 Y1.6405  
G01 X-2.0140 Y1.6335  
G01 X-2.0140 Y1.5665  
G01 X-2.0154 Y1.5595  
G01 X-2.0181 Y1.5529  
G01 X-2.0220 Y1.5471  
G01 X-2.0240 Y1.5451  
G01 X-2.0240 Y1.4608  
G01 X-1.7334 Y1.1702  
G01 X-1.7298 Y1.1666  
G01 X-1.7270 Y1.1623  
G01 X-1.7250 Y1.1576  
G01 X-1.7240 Y1.1526  
G01 X-1.7240 Y1.0848  
G01 X-1.7070 Y1.0678  
G01 X-1.7070 Y1.0322  
G00 Z0.0500  
G00 X-1.7322 Y0.9930  
G01 Z-0.0040 F10    
G01 X-1.7070 Y0.9678  F20    
G01 X-1.7070 Y0.9322  
G01 X-1.7322 Y0.9070  
G01 X-1.7678 Y0.9070  
G01 X-1.7848 Y0.9240  
G01 X-1.8152 Y0.9240  
G01 X-1.8322 Y0.9070  
G01 X-1.8678 Y0.9070  
G01 X-1.8848 Y0.9240  
G01 X-1.9026 Y0.9240  
G01 X-1.9076 Y0.9250  
G01 X-1.9123 Y0.9270  
G01 X-1.9166 Y0.9298  
G01 X-2.1666 Y1.1798  
G01 X-2.1702 Y1.1834  
G01 X-2.1730 Y1.1877  
G01 X-2.1750 Y1.1924  
G01 X-2.1760 Y1.1974  
G01 X-2.1760 Y1.5451  
G01 X-2.1780 Y1.5471  
G01 X-2.1819 Y1.5529  
G01 X-2.1846 Y1.5595  
G01 X-2.1860 Y1.5665  
G01 X-2.1860 Y1.6335  
G01 X-2.1846 Y1.6405  
G01 X-2.1819 Y1.6471  
G01 X-2.1780 Y1.6529  
G01 X-2.1729 Y1.6580  
G01 X-2.1671 Y1.6619  
G01 X-2.1605 Y1.6646  
G01 X-2.1535 Y1.6660  
G01 X-2.1465 Y1.6660  
G01 X-2.1395 Y1.6646  
G01 X-2.1329 Y1.6619  
G01 X-2.1271 Y1.6580  
G01 X-2.1220 Y1.6529  
G01 X-2.1181 Y1.6471  
G01 X-2.1154 Y1.6405  
G01 X-2.1140 Y1.6335  
G01 X-2.1140 Y1.5665  
G01 X-2.1154 Y1.5595  
G01 X-2.1181 Y1.5529  
G01 X-2.1220 Y1.5471  
G01 X-2.1240 Y1.5451  
G01 X-2.1240 Y1.2108  
G01 X-1.8892 Y0.9760  
G01 X-1.8848 Y0.9760  
G01 X-1.8678 Y0.9930  
G01 X-1.8322 Y0.9930  
G01 X-1.8152 Y0.9760  
G01 X-1.7848 Y0.9760  
G01 X-1.7678 Y0.9930  
G01 X-1.7322 Y0.9930  
G00 Z0.0500  
G00 X-2.2322 Y0.9930  
G01 Z-0.0040 F10    
G01 X-2.2070 Y0.9678  F20    
G01 X-2.2070 Y0.9322  
G01 X-2.2322 Y0.9070  
G01 X-2.2678 Y0.9070  
G01 X-2.2848 Y0.9240  
G01 X-2.3152 Y0.9240  
G01 X-2.3322 Y0.9070  
G01 X-2.3678 Y0.9070  
G01 X-2.3848 Y0.9240  
G01 X-2.4026 Y0.9240  
G01 X-2.4076 Y0.9250  
G01 X-2.4123 Y0.9270  
G01 X-2.4166 Y0.9298  
G01 X-2.4666 Y0.9798  
G01 X-2.4702 Y0.9834  
G01 X-2.4730 Y0.9877  
G01 X-2.4750 Y0.9924  
G01 X-2.4760 Y0.9974  
G01 X-2.4760 Y1.4392  
G01 X-2.5108 Y1.4740  
G01 X-2.6526 Y1.4740  
G01 X-2.6576 Y1.4750  
G01 X-2.6623 Y1.4770  
G01 X-2.6666 Y1.4798  
G01 X-2.7166 Y1.5298  
G01 X-2.7202 Y1.5334  
G01 X-2.7230 Y1.5377  
G01 X-2.7250 Y1.5424  
G01 X-2.7254 Y1.5445  
G01 X-2.7280 Y1.5471  
G01 X-2.7319 Y1.5529  
G01 X-2.7346 Y1.5595  
G01 X-2.7360 Y1.5665  
G01 X-2.7360 Y1.6335  
G01 X-2.7346 Y1.6405  
G01 X-2.7319 Y1.6471  
G01 X-2.7280 Y1.6529  
G01 X-2.7229 Y1.6580  
G01 X-2.7171 Y1.6619  
G01 X-2.7105 Y1.6646  
G01 X-2.7035 Y1.6660  
G01 X-2.6965 Y1.6660  
G01 X-2.6895 Y1.6646  
G01 X-2.6829 Y1.6619  
G01 X-2.6771 Y1.6580  
G01 X-2.6720 Y1.6529  
G01 X-2.6681 Y1.6471  
G01 X-2.6654 Y1.6405  
G01 X-2.6640 Y1.6335  
G01 X-2.6640 Y1.5665  
G01 X-2.6654 Y1.5595  
G01 X-2.6675 Y1.5543  
G01 X-2.6392 Y1.5260  
G01 X-2.4974 Y1.5260  
G01 X-2.4924 Y1.5250  
G01 X-2.4877 Y1.5230  
G01 X-2.4834 Y1.5202  
G01 X-2.4798 Y1.5166  
G01 X-2.4298 Y1.4666  
G01 X-2.4270 Y1.4623  
G01 X-2.4250 Y1.4576  
G01 X-2.4240 Y1.4526  
G01 X-2.4240 Y1.0108  
G01 X-2.3892 Y0.9760  
G01 X-2.3848 Y0.9760  
G01 X-2.3678 Y0.9930  
G01 X-2.3322 Y0.9930  
G01 X-2.3152 Y0.9760  
G01 X-2.2848 Y0.9760  
G01 X-2.2678 Y0.9930  
G01 X-2.2322 Y0.9930  
G00 Z0.0500  
G00 X-2.2322 Y1.0070  
G01 Z-0.0040 F10    
G01 X-2.2678 Y1.0070  F20    
G01 X-2.2848 Y1.0240  
G01 X-2.3152 Y1.0240  
G01 X-2.3322 Y1.0070  
G01 X-2.3678 Y1.0070  
G01 X-2.3930 Y1.0322  
G01 X-2.3930 Y1.0678  
G01 X-2.3760 Y1.0848  
G01 X-2.3760 Y1.4892  
G01 X-2.4608 Y1.5740  
G01 X-2.5640 Y1.5740  
G01 X-2.5640 Y1.5665  
G01 X-2.5654 Y1.5595  
G01 X-2.5681 Y1.5529  
G01 X-2.5720 Y1.5471  
G01 X-2.5771 Y1.5420  
G01 X-2.5829 Y1.5381  
G01 X-2.5895 Y1.5354  
G01 X-2.5965 Y1.5340  
G01 X-2.6035 Y1.5340  
G01 X-2.6105 Y1.5354  
G01 X-2.6171 Y1.5381  
G01 X-2.6229 Y1.5420  
G01 X-2.6280 Y1.5471  
G01 X-2.6319 Y1.5529  
G01 X-2.6346 Y1.5595  
G01 X-2.6360 Y1.5665  
G01 X-2.6360 Y1.6335  
G01 X-2.6346 Y1.6405  
G01 X-2.6319 Y1.6471  
G01 X-2.6280 Y1.6529  
G01 X-2.6229 Y1.6580  
G01 X-2.6171 Y1.6619  
G01 X-2.6105 Y1.6646  
G01 X-2.6035 Y1.6660  
G01 X-2.5965 Y1.6660  
G01 X-2.5895 Y1.6646  
G01 X-2.5829 Y1.6619  
G01 X-2.5771 Y1.6580  
G01 X-2.5720 Y1.6529  
G01 X-2.5681 Y1.6471  
G01 X-2.5654 Y1.6405  
G01 X-2.5640 Y1.6335  
G01 X-2.5640 Y1.6260  
G01 X-2.4474 Y1.6260  
G01 X-2.4424 Y1.6250  
G01 X-2.4377 Y1.6230  
G01 X-2.4334 Y1.6202  
G01 X-2.4298 Y1.6166  
G01 X-2.3298 Y1.5166  
G01 X-2.3270 Y1.5123  
G01 X-2.3250 Y1.5076  
G01 X-2.3240 Y1.5026  
G01 X-2.3240 Y1.0848  
G01 X-2.3152 Y1.0760  
G01 X-2.2848 Y1.0760  
G01 X-2.2678 Y1.0930  
G01 X-2.2322 Y1.0930  
G01 X-2.2070 Y1.0678  
G01 X-2.2070 Y1.0322  
G01 X-2.2322 Y1.0070  
G00 Z0.0500  
G00 X-2.7070 Y1.0322  
G01 Z-0.0040 F10    
G01 X-2.7322 Y1.0070  F20    
G01 X-2.7678 Y1.0070  
G01 X-2.7848 Y1.0240  
G01 X-2.8152 Y1.0240  
G01 X-2.8322 Y1.0070  
G01 X-2.8678 Y1.0070  
G01 X-2.8930 Y1.0322  
G01 X-2.8930 Y1.0678  
G01 X-2.8678 Y1.0930  
G01 X-2.8322 Y1.0930  
G01 X-2.8152 Y1.0760  
G01 X-2.7848 Y1.0760  
G01 X-2.7678 Y1.0930  
G01 X-2.7438 Y1.0930  
G01 X-2.6760 Y1.1608  
G01 X-2.6760 Y1.2392  
G01 X-2.8202 Y1.3834  
G01 X-2.8230 Y1.3877  
G01 X-2.8250 Y1.3924  
G01 X-2.8260 Y1.3974  
G01 X-2.8260 Y1.5451  
G01 X-2.8280 Y1.5471  
G01 X-2.8319 Y1.5529  
G01 X-2.8346 Y1.5595  
G01 X-2.8360 Y1.5665  
G01 X-2.8360 Y1.6335  
G01 X-2.8346 Y1.6405  
G01 X-2.8319 Y1.6471  
G01 X-2.8280 Y1.6529  
G01 X-2.8229 Y1.6580  
G01 X-2.8171 Y1.6619  
G01 X-2.8105 Y1.6646  
G01 X-2.8035 Y1.6660  
G01 X-2.7965 Y1.6660  
G01 X-2.7895 Y1.6646  
G01 X-2.7829 Y1.6619  
G01 X-2.7771 Y1.6580  
G01 X-2.7720 Y1.6529  
G01 X-2.7681 Y1.6471  
G01 X-2.7654 Y1.6405  
G01 X-2.7640 Y1.6335  
G01 X-2.7640 Y1.5665  
G01 X-2.7654 Y1.5595  
G01 X-2.7681 Y1.5529  
G01 X-2.7720 Y1.5471  
G01 X-2.7740 Y1.5451  
G01 X-2.7740 Y1.4108  
G01 X-2.6334 Y1.2702  
G01 X-2.6298 Y1.2666  
G01 X-2.6270 Y1.2623  
G01 X-2.6250 Y1.2576  
G01 X-2.6240 Y1.2526  
G01 X-2.6240 Y1.1474  
G01 X-2.6250 Y1.1424  
G01 X-2.6270 Y1.1377  
G01 X-2.6298 Y1.1334  
G01 X-2.7070 Y1.0562  
G01 X-2.7070 Y1.0322  
G00 Z0.0500  
G00 X-2.7322 Y0.9930  
G01 Z-0.0040 F10    
G01 X-2.7070 Y0.9678  F20    
G01 X-2.7070 Y0.9322  
G01 X-2.7322 Y0.9070  
G01 X-2.7678 Y0.9070  
G01 X-2.7848 Y0.9240  
G01 X-2.8152 Y0.9240  
G01 X-2.8322 Y0.9070  
G01 X-2.8678 Y0.9070  
G01 X-2.8848 Y0.9240  
G01 X-2.9026 Y0.9240  
G01 X-2.9076 Y0.9250  
G01 X-2.9123 Y0.9270  
G01 X-2.9166 Y0.9298  
G01 X-2.9702 Y0.9834  
G01 X-2.9730 Y0.9877  
G01 X-2.9750 Y0.9924  
G01 X-2.9760 Y0.9974  
G01 X-2.9760 Y1.2026  
G01 X-2.9750 Y1.2076  
G01 X-2.9730 Y1.2123  
G01 X-2.9702 Y1.2166  
G01 X-2.9260 Y1.2608  
G01 X-2.9260 Y1.5451  
G01 X-2.9280 Y1.5471  
G01 X-2.9319 Y1.5529  
G01 X-2.9346 Y1.5595  
G01 X-2.9360 Y1.5665  
G01 X-2.9360 Y1.6335  
G01 X-2.9346 Y1.6405  
G01 X-2.9319 Y1.6471  
G01 X-2.9280 Y1.6529  
G01 X-2.9229 Y1.6580  
G01 X-2.9171 Y1.6619  
G01 X-2.9105 Y1.6646  
G01 X-2.9035 Y1.6660  
G01 X-2.8965 Y1.6660  
G01 X-2.8895 Y1.6646  
G01 X-2.8829 Y1.6619  
G01 X-2.8771 Y1.6580  
G01 X-2.8720 Y1.6529  
G01 X-2.8681 Y1.6471  
G01 X-2.8654 Y1.6405  
G01 X-2.8640 Y1.6335  
G01 X-2.8640 Y1.5665  
G01 X-2.8654 Y1.5595  
G01 X-2.8681 Y1.5529  
G01 X-2.8720 Y1.5471  
G01 X-2.8740 Y1.5451  
G01 X-2.8740 Y1.2474  
G01 X-2.8750 Y1.2424  
G01 X-2.8770 Y1.2377  
G01 X-2.8798 Y1.2334  
G01 X-2.8834 Y1.2298  
G01 X-2.9240 Y1.1892  
G01 X-2.9240 Y1.0108  
G01 X-2.8892 Y0.9760  
G01 X-2.8848 Y0.9760  
G01 X-2.8678 Y0.9930  
G01 X-2.8322 Y0.9930  
G01 X-2.8152 Y0.9760  
G01 X-2.7848 Y0.9760  
G01 X-2.7678 Y0.9930  
G01 X-2.7322 Y0.9930  
G00 Z0.0500  
G00 X-2.9798 Y1.2334  
G01 Z-0.0040 F10    
G01 X-3.1298 Y1.0834  F20    
G01 X-3.1334 Y1.0798  
G01 X-3.1377 Y1.0770  
G01 X-3.1424 Y1.0750  
G01 X-3.1474 Y1.0740  
G01 X-3.1892 Y1.0740  
G01 X-3.2070 Y1.0562  
G01 X-3.2070 Y1.0322  
G01 X-3.2322 Y1.0070  
G01 X-3.2678 Y1.0070  
G01 X-3.2848 Y1.0240  
G01 X-3.3152 Y1.0240  
G01 X-3.3322 Y1.0070  
G01 X-3.3678 Y1.0070  
G01 X-3.3930 Y1.0322  
G01 X-3.3930 Y1.0678  
G01 X-3.3678 Y1.0930  
G01 X-3.3322 Y1.0930  
G01 X-3.3152 Y1.0760  
G01 X-3.2848 Y1.0760  
G01 X-3.2678 Y1.0930  
G01 X-3.2438 Y1.0930  
G01 X-3.2166 Y1.1202  
G01 X-3.2123 Y1.1230  
G01 X-3.2076 Y1.1250  
G01 X-3.2026 Y1.1260  
G01 X-3.1608 Y1.1260  
G01 X-3.0260 Y1.2608  
G01 X-3.0260 Y1.5451  
G01 X-3.0280 Y1.5471  
G01 X-3.0319 Y1.5529  
G01 X-3.0346 Y1.5595  
G01 X-3.0360 Y1.5665  
G01 X-3.0360 Y1.6335  
G01 X-3.0346 Y1.6405  
G01 X-3.0319 Y1.6471  
G01 X-3.0280 Y1.6529  
G01 X-3.0229 Y1.6580  
G01 X-3.0171 Y1.6619  
G01 X-3.0105 Y1.6646  
G01 X-3.0035 Y1.6660  
G01 X-2.9965 Y1.6660  
G01 X-2.9895 Y1.6646  
G01 X-2.9829 Y1.6619  
G01 X-2.9771 Y1.6580  
G01 X-2.9720 Y1.6529  
G01 X-2.9681 Y1.6471  
G01 X-2.9654 Y1.6405  
G01 X-2.9640 Y1.6335  
G01 X-2.9640 Y1.5665  
G01 X-2.9654 Y1.5595  
G01 X-2.9681 Y1.5529  
G01 X-2.9720 Y1.5471  
G01 X-2.9740 Y1.5451  
G01 X-2.9740 Y1.2474  
G01 X-2.9750 Y1.2424  
G01 X-2.9770 Y1.2377  
G01 X-2.9798 Y1.2334  
G00 Z0.0500  
G00 X-3.0798 Y1.4834  
G01 Z-0.0040 F10    
G01 X-3.4240 Y1.1392  F20    
G01 X-3.4240 Y1.0108  
G01 X-3.3892 Y0.9760  
G01 X-3.3848 Y0.9760  
G01 X-3.3678 Y0.9930  
G01 X-3.3322 Y0.9930  
G01 X-3.3152 Y0.9760  
G01 X-3.2848 Y0.9760  
G01 X-3.2678 Y0.9930  
G01 X-3.2322 Y0.9930  
G01 X-3.2070 Y0.9678  
G01 X-3.2070 Y0.9322  
G01 X-3.2322 Y0.9070  
G01 X-3.2678 Y0.9070  
G01 X-3.2848 Y0.9240  
G01 X-3.3152 Y0.9240  
G01 X-3.3322 Y0.9070  
G01 X-3.3678 Y0.9070  
G01 X-3.3848 Y0.9240  
G01 X-3.4026 Y0.9240  
G01 X-3.4076 Y0.9250  
G01 X-3.4123 Y0.9270  
G01 X-3.4166 Y0.9298  
G01 X-3.4202 Y0.9334  
G01 X-3.4702 Y0.9834  
G01 X-3.4730 Y0.9877  
G01 X-3.4750 Y0.9924  
G01 X-3.4760 Y0.9974  
G01 X-3.4760 Y1.1526  
G01 X-3.4750 Y1.1576  
G01 X-3.4730 Y1.1623  
G01 X-3.4702 Y1.1666  
G01 X-3.4666 Y1.1702  
G01 X-3.1260 Y1.5108  
G01 X-3.1260 Y1.5451  
G01 X-3.1280 Y1.5471  
G01 X-3.1319 Y1.5529  
G01 X-3.1346 Y1.5595  
G01 X-3.1360 Y1.5665  
G01 X-3.1360 Y1.6335  
G01 X-3.1346 Y1.6405  
G01 X-3.1319 Y1.6471  
G01 X-3.1280 Y1.6529  
G01 X-3.1229 Y1.6580  
G01 X-3.1171 Y1.6619  
G01 X-3.1105 Y1.6646  
G01 X-3.1035 Y1.6660  
G01 X-3.0965 Y1.6660  
G01 X-3.0895 Y1.6646  
G01 X-3.0829 Y1.6619  
G01 X-3.0771 Y1.6580  
G01 X-3.0720 Y1.6529  
G01 X-3.0681 Y1.6471  
G01 X-3.0654 Y1.6405  
G01 X-3.0640 Y1.6335  
G01 X-3.0640 Y1.5665  
G01 X-3.0654 Y1.5595  
G01 X-3.0681 Y1.5529  
G01 X-3.0720 Y1.5471  
G01 X-3.0740 Y1.5451  
G01 X-3.0740 Y1.4974  
G01 X-3.0750 Y1.4924  
G01 X-3.0770 Y1.4877  
G01 X-3.0798 Y1.4834  
G00 Z0.0500  
G00 X-3.1720 Y1.5471  
G01 Z-0.0040 F10    
G01 X-3.1771 Y1.5420  F20    
G01 X-3.1829 Y1.5381  
G01 X-3.1895 Y1.5354  
G01 X-3.1965 Y1.5340  
G01 X-3.2035 Y1.5340  
G01 X-3.2105 Y1.5354  
G01 X-3.2171 Y1.5381  
G01 X-3.2229 Y1.5420  
G01 X-3.2280 Y1.5471  
G01 X-3.2319 Y1.5529  
G01 X-3.2346 Y1.5595  
G01 X-3.2360 Y1.5665  
G01 X-3.2360 Y1.6335  
G01 X-3.2346 Y1.6405  
G01 X-3.2325 Y1.6457  
G01 X-3.2608 Y1.6740  
G01 X-3.3392 Y1.6740  
G01 X-3.7740 Y1.2392  
G01 X-3.7740 Y1.1108  
G01 X-3.7562 Y1.0930  
G01 X-3.7322 Y1.0930  
G01 X-3.7070 Y1.0678  
G01 X-3.7070 Y1.0322  
G01 X-3.7322 Y1.0070  
G01 X-3.7678 Y1.0070  
G01 X-3.7848 Y1.0240  
G01 X-3.8152 Y1.0240  
G01 X-3.8322 Y1.0070  
G01 X-3.8678 Y1.0070  
G01 X-3.8930 Y1.0322  
G01 X-3.8930 Y1.0678  
G01 X-3.8678 Y1.0930  
G01 X-3.8322 Y1.0930  
G01 X-3.8152 Y1.0760  
G01 X-3.8128 Y1.0760  
G01 X-3.8202 Y1.0834  
G01 X-3.8230 Y1.0877  
G01 X-3.8250 Y1.0924  
G01 X-3.8260 Y1.0974  
G01 X-3.8260 Y1.2526  
G01 X-3.8250 Y1.2576  
G01 X-3.8230 Y1.2623  
G01 X-3.8202 Y1.2666  
G01 X-3.8166 Y1.2702  
G01 X-3.3666 Y1.7202  
G01 X-3.3623 Y1.7230  
G01 X-3.3576 Y1.7250  
G01 X-3.3526 Y1.7260  
G01 X-3.2474 Y1.7260  
G01 X-3.2424 Y1.7250  
G01 X-3.2377 Y1.7230  
G01 X-3.2334 Y1.7202  
G01 X-3.2298 Y1.7166  
G01 X-3.1798 Y1.6666  
G01 X-3.1770 Y1.6623  
G01 X-3.1750 Y1.6576  
G01 X-3.1746 Y1.6555  
G01 X-3.1720 Y1.6529  
G01 X-3.1681 Y1.6471  
G01 X-3.1654 Y1.6405  
G01 X-3.1640 Y1.6335  
G01 X-3.1640 Y1.5665  
G01 X-3.1654 Y1.5595  
G01 X-3.1681 Y1.5529  
G01 X-3.1720 Y1.5471  
G00 Z0.0500  
G00 X-3.2720 Y1.5471  
G01 Z-0.0040 F10    
G01 X-3.2740 Y1.5451  F20    
G01 X-3.2740 Y1.4474  
G01 X-3.2750 Y1.4424  
G01 X-3.2770 Y1.4377  
G01 X-3.2798 Y1.4334  
G01 X-3.6240 Y1.0892  
G01 X-3.6240 Y0.9974  
G01 X-3.6250 Y0.9924  
G01 X-3.6270 Y0.9877  
G01 X-3.6298 Y0.9834  
G01 X-3.6798 Y0.9334  
G01 X-3.6834 Y0.9298  
G01 X-3.6877 Y0.9270  
G01 X-3.6924 Y0.9250  
G01 X-3.6974 Y0.9240  
G01 X-3.7152 Y0.9240  
G01 X-3.7322 Y0.9070  
G01 X-3.7678 Y0.9070  
G01 X-3.7848 Y0.9240  
G01 X-3.8152 Y0.9240  
G01 X-3.8322 Y0.9070  
G01 X-3.8678 Y0.9070  
G01 X-3.8930 Y0.9322  
G01 X-3.8930 Y0.9678  
G01 X-3.8678 Y0.9930  
G01 X-3.8322 Y0.9930  
G01 X-3.8152 Y0.9760  
G01 X-3.7848 Y0.9760  
G01 X-3.7678 Y0.9930  
G01 X-3.7322 Y0.9930  
G01 X-3.7152 Y0.9760  
G01 X-3.7108 Y0.9760  
G01 X-3.6760 Y1.0108  
G01 X-3.6760 Y1.1026  
G01 X-3.6750 Y1.1076  
G01 X-3.6730 Y1.1123  
G01 X-3.6702 Y1.1166  
G01 X-3.6666 Y1.1202  
G01 X-3.3260 Y1.4608  
G01 X-3.3260 Y1.5451  
G01 X-3.3280 Y1.5471  
G01 X-3.3319 Y1.5529  
G01 X-3.3346 Y1.5595  
G01 X-3.3360 Y1.5665  
G01 X-3.3360 Y1.6335  
G01 X-3.3346 Y1.6405  
G01 X-3.3319 Y1.6471  
G01 X-3.3280 Y1.6529  
G01 X-3.3229 Y1.6580  
G01 X-3.3171 Y1.6619  
G01 X-3.3105 Y1.6646  
G01 X-3.3035 Y1.6660  
G01 X-3.2965 Y1.6660  
G01 X-3.2895 Y1.6646  
G01 X-3.2829 Y1.6619  
G01 X-3.2771 Y1.6580  
G01 X-3.2720 Y1.6529  
G01 X-3.2681 Y1.6471  
G01 X-3.2654 Y1.6405  
G01 X-3.2640 Y1.6335  
G01 X-3.2640 Y1.5665  
G01 X-3.2654 Y1.5595  
G01 X-3.2681 Y1.5529  
G01 X-3.2720 Y1.5471  
G00 Z0.0500  
G00 X-0.9430 Y1.5322  
G01 Z-0.0040 F10    
G01 X-0.9430 Y1.5678  F20    
G01 X-0.9178 Y1.5930  
G01 X-0.8822 Y1.5930  
G01 X-0.8570 Y1.5678  
G01 X-0.8570 Y1.5322  
G01 X-0.8822 Y1.5070  
G01 X-0.9178 Y1.5070  
G01 X-0.9430 Y1.5322  
G00 Z0.0500  
G00 X-0.8430 Y1.5322  
G01 Z-0.0040 F10    
G01 X-0.8430 Y1.5678  F20    
G01 X-0.8178 Y1.5930  
G01 X-0.7822 Y1.5930  
G01 X-0.7570 Y1.5678  
G01 X-0.7570 Y1.5322  
G01 X-0.7822 Y1.5070  
G01 X-0.8178 Y1.5070  
G01 X-0.8430 Y1.5322  
G00 Z0.0500  
G00 X-0.8430 Y1.6322  
G01 Z-0.0040 F10    
G01 X-0.8430 Y1.6678  F20    
G01 X-0.8178 Y1.6930  
G01 X-0.7822 Y1.6930  
G01 X-0.7570 Y1.6678  
G01 X-0.7570 Y1.6322  
G01 X-0.7822 Y1.6070  
G01 X-0.8178 Y1.6070  
G01 X-0.8430 Y1.6322  
G00 Z0.0500  
G00 X-0.8570 Y1.6322  
G01 Z-0.0040 F10    
G01 X-0.8822 Y1.6070  F20    
G01 X-0.9178 Y1.6070  
G01 X-0.9430 Y1.6322  
G01 X-0.9430 Y1.6678  
G01 X-0.9178 Y1.6930  
G01 X-0.8822 Y1.6930  
G01 X-0.8570 Y1.6678  
G01 X-0.8570 Y1.6322  
G00 Z0.0500  
G00 X-0.0306 Y0.5301  
G01 Z-0.0040 F10    
G01 X-0.0315 Y0.5293  F20    
G01 X-0.0323 Y0.5285  
G01 X-0.0336 Y0.5276  
G01 X-0.2815 Y0.3293  
G01 X-0.2823 Y0.3285  
G01 X-0.2836 Y0.3276  
G01 X-0.2848 Y0.3267  
G01 X-0.2859 Y0.3261  
G01 X-0.2869 Y0.3255  
G01 X-0.2883 Y0.3249  
G01 X-0.2897 Y0.3242  
G01 X-0.2908 Y0.3238  
G01 X-0.2919 Y0.3234  
G01 X-0.2934 Y0.3231  
G01 X-0.2949 Y0.3226  
G01 X-0.2961 Y0.3225  
G01 X-0.2973 Y0.3223  
G01 X-0.2988 Y0.3223  
G01 X-0.3003 Y0.3222  
G01 X-0.3015 Y0.3223  
G01 X-0.3645 Y0.3223  
G01 X-0.3815 Y0.3053  
G01 X-0.4185 Y0.3053  
G01 X-0.4355 Y0.3223  
G01 X-0.4645 Y0.3223  
G01 X-0.4815 Y0.3053  
G01 X-0.5185 Y0.3053  
G01 X-0.5355 Y0.3223  
G01 X-0.8145 Y0.3223  
G01 X-0.8315 Y0.3053  
G01 X-0.8685 Y0.3053  
G01 X-0.8855 Y0.3223  
G01 X-0.9145 Y0.3223  
G01 X-0.9315 Y0.3053  
G01 X-0.9685 Y0.3053  
G01 X-0.9855 Y0.3223  
G01 X-1.2645 Y0.3223  
G01 X-1.2815 Y0.3053  
G01 X-1.3185 Y0.3053  
G01 X-1.3355 Y0.3223  
G01 X-1.3645 Y0.3223  
G01 X-1.3815 Y0.3053  
G01 X-1.4185 Y0.3053  
G01 X-1.4355 Y0.3223  
G01 X-1.7145 Y0.3223  
G01 X-1.7315 Y0.3053  
G01 X-1.7685 Y0.3053  
G01 X-1.7855 Y0.3223  
G01 X-1.8145 Y0.3223  
G01 X-1.8315 Y0.3053  
G01 X-1.8685 Y0.3053  
G01 X-1.8855 Y0.3223  
G01 X-2.2145 Y0.3223  
G01 X-2.2315 Y0.3053  
G01 X-2.2685 Y0.3053  
G01 X-2.2855 Y0.3223  
G01 X-2.3145 Y0.3223  
G01 X-2.3315 Y0.3053  
G01 X-2.3685 Y0.3053  
G01 X-2.3855 Y0.3223  
G01 X-2.7145 Y0.3223  
G01 X-2.7315 Y0.3053  
G01 X-2.7685 Y0.3053  
G01 X-2.7855 Y0.3223  
G01 X-2.8145 Y0.3223  
G01 X-2.8315 Y0.3053  
G01 X-2.8685 Y0.3053  
G01 X-2.8855 Y0.3223  
G01 X-3.2145 Y0.3223  
G01 X-3.2315 Y0.3053  
G01 X-3.2685 Y0.3053  
G01 X-3.2855 Y0.3223  
G01 X-3.3145 Y0.3223  
G01 X-3.3315 Y0.3053  
G01 X-3.3685 Y0.3053  
G01 X-3.3855 Y0.3223  
G01 X-3.7145 Y0.3223  
G01 X-3.7315 Y0.3053  
G01 X-3.7685 Y0.3053  
G01 X-3.7855 Y0.3223  
G01 X-3.8145 Y0.3223  
G01 X-3.8315 Y0.3053  
G01 X-3.8685 Y0.3053  
G01 X-3.8855 Y0.3223  
G01 X-3.9027 Y0.3223  
G01 X-3.9081 Y0.3234  
G01 X-3.9131 Y0.3255  
G01 X-3.9177 Y0.3285  
G01 X-3.9215 Y0.3323  
G01 X-3.9245 Y0.3369  
G01 X-3.9266 Y0.3419  
G01 X-3.9277 Y0.3473  
G01 X-3.9277 Y0.3527  
G01 X-3.9266 Y0.3581  
G01 X-3.9245 Y0.3631  
G01 X-3.9215 Y0.3677  
G01 X-3.9177 Y0.3715  
G01 X-3.9131 Y0.3745  
G01 X-3.9081 Y0.3766  
G01 X-3.9027 Y0.3777  
G01 X-3.8855 Y0.3777  
G01 X-3.8685 Y0.3947  
G01 X-3.8315 Y0.3947  
G01 X-3.8145 Y0.3777  
G01 X-3.7855 Y0.3777  
G01 X-3.7685 Y0.3947  
G01 X-3.7315 Y0.3947  
G01 X-3.7145 Y0.3777  
G01 X-3.3855 Y0.3777  
G01 X-3.3685 Y0.3947  
G01 X-3.3315 Y0.3947  
G01 X-3.3145 Y0.3777  
G01 X-3.2855 Y0.3777  
G01 X-3.2685 Y0.3947  
G01 X-3.2315 Y0.3947  
G01 X-3.2145 Y0.3777  
G01 X-2.8855 Y0.3777  
G01 X-2.8685 Y0.3947  
G01 X-2.8315 Y0.3947  
G01 X-2.8145 Y0.3777  
G01 X-2.7855 Y0.3777  
G01 X-2.7685 Y0.3947  
G01 X-2.7315 Y0.3947  
G01 X-2.7145 Y0.3777  
G01 X-2.3855 Y0.3777  
G01 X-2.3685 Y0.3947  
G01 X-2.3315 Y0.3947  
G01 X-2.3145 Y0.3777  
G01 X-2.2855 Y0.3777  
G01 X-2.2685 Y0.3947  
G01 X-2.2315 Y0.3947  
G01 X-2.2145 Y0.3777  
G01 X-1.8855 Y0.3777  
G01 X-1.8685 Y0.3947  
G01 X-1.8315 Y0.3947  
G01 X-1.8145 Y0.3777  
G01 X-1.7855 Y0.3777  
G01 X-1.7685 Y0.3947  
G01 X-1.7315 Y0.3947  
G01 X-1.7145 Y0.3777  
G01 X-1.4355 Y0.3777  
G01 X-1.4185 Y0.3947  
G01 X-1.3815 Y0.3947  
G01 X-1.3645 Y0.3777  
G01 X-1.3355 Y0.3777  
G01 X-1.3185 Y0.3947  
G01 X-1.2815 Y0.3947  
G01 X-1.2645 Y0.3777  
G01 X-0.9855 Y0.3777  
G01 X-0.9685 Y0.3947  
G01 X-0.9315 Y0.3947  
G01 X-0.9145 Y0.3777  
G01 X-0.8855 Y0.3777  
G01 X-0.8685 Y0.3947  
G01 X-0.8315 Y0.3947  
G01 X-0.8145 Y0.3777  
G01 X-0.5355 Y0.3777  
G01 X-0.5185 Y0.3947  
G01 X-0.4815 Y0.3947  
G01 X-0.4645 Y0.3777  
G01 X-0.4355 Y0.3777  
G01 X-0.4185 Y0.3947  
G01 X-0.3815 Y0.3947  
G01 X-0.3645 Y0.3777  
G01 X-0.3097 Y0.3777  
G01 X-0.0777 Y0.5633  
G01 X-0.0777 Y1.4120  
G01 X-0.1896 Y1.5053  
G01 X-0.2185 Y1.5053  
G01 X-0.2447 Y1.5315  
G01 X-0.2447 Y1.5685  
G01 X-0.2277 Y1.5855  
G01 X-0.2277 Y1.6145  
G01 X-0.2447 Y1.6315  
G01 X-0.2447 Y1.6685  
G01 X-0.2185 Y1.6947  
G01 X-0.1815 Y1.6947  
G01 X-0.1553 Y1.6685  
G01 X-0.1553 Y1.6315  
G01 X-0.1723 Y1.6145  
G01 X-0.1723 Y1.5855  
G01 X-0.1553 Y1.5685  
G01 X-0.1553 Y1.5488  
G01 X-0.0334 Y1.4472  
G01 X-0.0323 Y1.4465  
G01 X-0.0313 Y1.4455  
G01 X-0.0302 Y1.4445  
G01 X-0.0294 Y1.4436  
G01 X-0.0285 Y1.4427  
G01 X-0.0277 Y1.4414  
G01 X-0.0267 Y1.4403  
G01 X-0.0262 Y1.4392  
G01 X-0.0255 Y1.4381  
G01 X-0.0249 Y1.4368  
G01 X-0.0242 Y1.4355  
G01 X-0.0238 Y1.4342  
G01 X-0.0234 Y1.4331  
G01 X-0.0231 Y1.4316  
G01 X-0.0227 Y1.4302  
G01 X-0.0225 Y1.4290  
G01 X-0.0223 Y1.4277  
G01 X-0.0223 Y1.4263  
G01 X-0.0222 Y1.4248  
G01 X-0.0223 Y1.4235  
G01 X-0.0223 Y0.5512  
G01 X-0.0222 Y0.5497  
G01 X-0.0223 Y0.5485  
G01 X-0.0223 Y0.5473  
G01 X-0.0226 Y0.5458  
G01 X-0.0228 Y0.5442  
G01 X-0.0231 Y0.5431  
G01 X-0.0234 Y0.5419  
G01 X-0.0240 Y0.5405  
G01 X-0.0244 Y0.5390  
G01 X-0.0250 Y0.5380  
G01 X-0.0255 Y0.5369  
G01 X-0.0263 Y0.5356  
G01 X-0.0271 Y0.5342  
G01 X-0.0278 Y0.5333  
G01 X-0.0285 Y0.5323  
G01 X-0.0296 Y0.5313  
G01 X-0.0306 Y0.5301  
G00 Z0.0500  
G00 X-0.1056 Y0.7301  
G01 Z-0.0040 F10    
G01 X-0.1065 Y0.7293  F20    
G01 X-0.1073 Y0.7285  
G01 X-0.1086 Y0.7276  
G01 X-0.2315 Y0.6293  
G01 X-0.2323 Y0.6285  
G01 X-0.2336 Y0.6276  
G01 X-0.2348 Y0.6267  
G01 X-0.2359 Y0.6261  
G01 X-0.2369 Y0.6255  
G01 X-0.2383 Y0.6249  
G01 X-0.2397 Y0.6242  
G01 X-0.2408 Y0.6238  
G01 X-0.2419 Y0.6234  
G01 X-0.2434 Y0.6231  
G01 X-0.2449 Y0.6226  
G01 X-0.2461 Y0.6225  
G01 X-0.2473 Y0.6223  
G01 X-0.2488 Y0.6223  
G01 X-0.2503 Y0.6222  
G01 X-0.2515 Y0.6223  
G01 X-0.3645 Y0.6223  
G01 X-0.3673 Y0.6195  
G01 X-0.3673 Y0.5805  
G01 X-0.3553 Y0.5685  
G01 X-0.3553 Y0.5315  
G01 X-0.3673 Y0.5195  
G01 X-0.3673 Y0.4805  
G01 X-0.3553 Y0.4685  
G01 X-0.3553 Y0.4315  
G01 X-0.3815 Y0.4053  
G01 X-0.4185 Y0.4053  
G01 X-0.4305 Y0.4173  
G01 X-0.4695 Y0.4173  
G01 X-0.4815 Y0.4053  
G01 X-0.5185 Y0.4053  
G01 X-0.5305 Y0.4173  
G01 X-0.8195 Y0.4173  
G01 X-0.8315 Y0.4053  
G01 X-0.8685 Y0.4053  
G01 X-0.8805 Y0.4173  
G01 X-0.9195 Y0.4173  
G01 X-0.9315 Y0.4053  
G01 X-0.9685 Y0.4053  
G01 X-0.9805 Y0.4173  
G01 X-1.2695 Y0.4173  
G01 X-1.2815 Y0.4053  
G01 X-1.3185 Y0.4053  
G01 X-1.3305 Y0.4173  
G01 X-1.3695 Y0.4173  
G01 X-1.3815 Y0.4053  
G01 X-1.4185 Y0.4053  
G01 X-1.4305 Y0.4173  
G01 X-1.7195 Y0.4173  
G01 X-1.7315 Y0.4053  
G01 X-1.7685 Y0.4053  
G01 X-1.7805 Y0.4173  
G01 X-1.8195 Y0.4173  
G01 X-1.8315 Y0.4053  
G01 X-1.8685 Y0.4053  
G01 X-1.8805 Y0.4173  
G01 X-2.2195 Y0.4173  
G01 X-2.2315 Y0.4053  
G01 X-2.2685 Y0.4053  
G01 X-2.2805 Y0.4173  
G01 X-2.3195 Y0.4173  
G01 X-2.3315 Y0.4053  
G01 X-2.3685 Y0.4053  
G01 X-2.3805 Y0.4173  
G01 X-2.7195 Y0.4173  
G01 X-2.7315 Y0.4053  
G01 X-2.7685 Y0.4053  
G01 X-2.7805 Y0.4173  
G01 X-2.8195 Y0.4173  
G01 X-2.8315 Y0.4053  
G01 X-2.8685 Y0.4053  
G01 X-2.8805 Y0.4173  
G01 X-3.2195 Y0.4173  
G01 X-3.2315 Y0.4053  
G01 X-3.2685 Y0.4053  
G01 X-3.2805 Y0.4173  
G01 X-3.3195 Y0.4173  
G01 X-3.3315 Y0.4053  
G01 X-3.3685 Y0.4053  
G01 X-3.3805 Y0.4173  
G01 X-3.7195 Y0.4173  
G01 X-3.7315 Y0.4053  
G01 X-3.7685 Y0.4053  
G01 X-3.7805 Y0.4173  
G01 X-3.8195 Y0.4173  
G01 X-3.8315 Y0.4053  
G01 X-3.8685 Y0.4053  
G01 X-3.8947 Y0.4315  
G01 X-3.8947 Y0.4685  
G01 X-3.8827 Y0.4805  
G01 X-3.8827 Y0.5195  
G01 X-3.8947 Y0.5315  
G01 X-3.8947 Y0.5685  
G01 X-3.8827 Y0.5805  
G01 X-3.8827 Y0.6195  
G01 X-3.8947 Y0.6315  
G01 X-3.8947 Y0.6685  
G01 X-3.8685 Y0.6947  
G01 X-3.8315 Y0.6947  
G01 X-3.8195 Y0.6827  
G01 X-3.7805 Y0.6827  
G01 X-3.7685 Y0.6947  
G01 X-3.7315 Y0.6947  
G01 X-3.7195 Y0.6827  
G01 X-3.3805 Y0.6827  
G01 X-3.3685 Y0.6947  
G01 X-3.3315 Y0.6947  
G01 X-3.3195 Y0.6827  
G01 X-3.2805 Y0.6827  
G01 X-3.2685 Y0.6947  
G01 X-3.2315 Y0.6947  
G01 X-3.2195 Y0.6827  
G01 X-2.8805 Y0.6827  
G01 X-2.8685 Y0.6947  
G01 X-2.8315 Y0.6947  
G01 X-2.8195 Y0.6827  
G01 X-2.7805 Y0.6827  
G01 X-2.7685 Y0.6947  
G01 X-2.7315 Y0.6947  
G01 X-2.7195 Y0.6827  
G01 X-2.3805 Y0.6827  
G01 X-2.3685 Y0.6947  
G01 X-2.3315 Y0.6947  
G01 X-2.3195 Y0.6827  
G01 X-2.2805 Y0.6827  
G01 X-2.2685 Y0.6947  
G01 X-2.2315 Y0.6947  
G01 X-2.2195 Y0.6827  
G01 X-1.8805 Y0.6827  
G01 X-1.8685 Y0.6947  
G01 X-1.8315 Y0.6947  
G01 X-1.8195 Y0.6827  
G01 X-1.7805 Y0.6827  
G01 X-1.7685 Y0.6947  
G01 X-1.7315 Y0.6947  
G01 X-1.7195 Y0.6827  
G01 X-1.4305 Y0.6827  
G01 X-1.4185 Y0.6947  
G01 X-1.3815 Y0.6947  
G01 X-1.3695 Y0.6827  
G01 X-1.3305 Y0.6827  
G01 X-1.3185 Y0.6947  
G01 X-1.2815 Y0.6947  
G01 X-1.2695 Y0.6827  
G01 X-0.9805 Y0.6827  
G01 X-0.9685 Y0.6947  
G01 X-0.9315 Y0.6947  
G01 X-0.9195 Y0.6827  
G01 X-0.8805 Y0.6827  
G01 X-0.8685 Y0.6947  
G01 X-0.8315 Y0.6947  
G01 X-0.8195 Y0.6827  
G01 X-0.5305 Y0.6827  
G01 X-0.5185 Y0.6947  
G01 X-0.4815 Y0.6947  
G01 X-0.4695 Y0.6827  
G01 X-0.4305 Y0.6827  
G01 X-0.4185 Y0.6947  
G01 X-0.3815 Y0.6947  
G01 X-0.3645 Y0.6777  
G01 X-0.2597 Y0.6777  
G01 X-0.1527 Y0.7633  
G01 X-0.1527 Y1.3376  
G01 X-0.3549 Y1.5173  
G01 X-0.3695 Y1.5173  
G01 X-0.3815 Y1.5053  
G01 X-0.4185 Y1.5053  
G01 X-0.4305 Y1.5173  
G01 X-0.4695 Y1.5173  
G01 X-0.4815 Y1.5053  
G01 X-0.5185 Y1.5053  
G01 X-0.5447 Y1.5315  
G01 X-0.5447 Y1.5685  
G01 X-0.5327 Y1.5805  
G01 X-0.5327 Y1.6195  
G01 X-0.5447 Y1.6315  
G01 X-0.5447 Y1.6685  
G01 X-0.5185 Y1.6947  
G01 X-0.4815 Y1.6947  
G01 X-0.4695 Y1.6827  
G01 X-0.4305 Y1.6827  
G01 X-0.4185 Y1.6947  
G01 X-0.3815 Y1.6947  
G01 X-0.3695 Y1.6827  
G01 X-0.3305 Y1.6827  
G01 X-0.3185 Y1.6947  
G01 X-0.2815 Y1.6947  
G01 X-0.2553 Y1.6685  
G01 X-0.2553 Y1.6315  
G01 X-0.2673 Y1.6195  
G01 X-0.2673 Y1.5805  
G01 X-0.2553 Y1.5685  
G01 X-0.2553 Y1.5315  
G01 X-0.2704 Y1.5163  
G01 X-0.1080 Y1.3720  
G01 X-0.1073 Y1.3715  
G01 X-0.1060 Y1.3702  
G01 X-0.1046 Y1.3689  
G01 X-0.1041 Y1.3682  
G01 X-0.1035 Y1.3677  
G01 X-0.1024 Y1.3661  
G01 X-0.1013 Y1.3645  
G01 X-0.1009 Y1.3638  
G01 X-0.1005 Y1.3631  
G01 X-0.0997 Y1.3614  
G01 X-0.0989 Y1.3596  
G01 X-0.0987 Y1.3588  
G01 X-0.0984 Y1.3581  
G01 X-0.0980 Y1.3562  
G01 X-0.0975 Y1.3544  
G01 X-0.0975 Y1.3535  
G01 X-0.0973 Y1.3527  
G01 X-0.0973 Y1.3508  
G01 X-0.0972 Y1.3489  
G01 X-0.0973 Y1.3481  
G01 X-0.0973 Y0.7512  
G01 X-0.0972 Y0.7497  
G01 X-0.0973 Y0.7485  
G01 X-0.0973 Y0.7473  
G01 X-0.0976 Y0.7458  
G01 X-0.0978 Y0.7442  
G01 X-0.0981 Y0.7431  
G01 X-0.0984 Y0.7419  
G01 X-0.0990 Y0.7405  
G01 X-0.0994 Y0.7390  
G01 X-0.1000 Y0.7380  
G01 X-0.1005 Y0.7369  
G01 X-0.1013 Y0.7356  
G01 X-0.1021 Y0.7342  
G01 X-0.1028 Y0.7333  
G01 X-0.1035 Y0.7323  
G01 X-0.1046 Y0.7313  
G01 X-0.1056 Y0.7301  
G00 Z0.0500  
G00 X-0.1785 Y0.8323  
G01 Z-0.0040 F10    
G01 X-0.2785 Y0.7323  F20    
G01 X-0.2823 Y0.7285  
G01 X-0.2869 Y0.7255  
G01 X-0.2919 Y0.7234  
G01 X-0.2973 Y0.7223  
G01 X-0.3645 Y0.7223  
G01 X-0.3815 Y0.7053  
G01 X-0.4185 Y0.7053  
G01 X-0.4355 Y0.7223  
G01 X-0.4645 Y0.7223  
G01 X-0.4815 Y0.7053  
G01 X-0.5185 Y0.7053  
G01 X-0.5355 Y0.7223  
G01 X-0.8145 Y0.7223  
G01 X-0.8315 Y0.7053  
G01 X-0.8685 Y0.7053  
G01 X-0.8855 Y0.7223  
G01 X-0.9145 Y0.7223  
G01 X-0.9315 Y0.7053  
G01 X-0.9685 Y0.7053  
G01 X-0.9855 Y0.7223  
G01 X-1.2645 Y0.7223  
G01 X-1.2815 Y0.7053  
G01 X-1.3185 Y0.7053  
G01 X-1.3355 Y0.7223  
G01 X-1.3645 Y0.7223  
G01 X-1.3815 Y0.7053  
G01 X-1.4185 Y0.7053  
G01 X-1.4355 Y0.7223  
G01 X-1.7145 Y0.7223  
G01 X-1.7315 Y0.7053  
G01 X-1.7685 Y0.7053  
G01 X-1.7855 Y0.7223  
G01 X-1.8145 Y0.7223  
G01 X-1.8315 Y0.7053  
G01 X-1.8685 Y0.7053  
G01 X-1.8855 Y0.7223  
G01 X-2.2145 Y0.7223  
G01 X-2.2315 Y0.7053  
G01 X-2.2685 Y0.7053  
G01 X-2.2855 Y0.7223  
G01 X-2.3145 Y0.7223  
G01 X-2.3315 Y0.7053  
G01 X-2.3685 Y0.7053  
G01 X-2.3855 Y0.7223  
G01 X-2.7145 Y0.7223  
G01 X-2.7315 Y0.7053  
G01 X-2.7685 Y0.7053  
G01 X-2.7855 Y0.7223  
G01 X-2.8145 Y0.7223  
G01 X-2.8315 Y0.7053  
G01 X-2.8685 Y0.7053  
G01 X-2.8855 Y0.7223  
G01 X-3.2145 Y0.7223  
G01 X-3.2315 Y0.7053  
G01 X-3.2685 Y0.7053  
G01 X-3.2855 Y0.7223  
G01 X-3.3145 Y0.7223  
G01 X-3.3315 Y0.7053  
G01 X-3.3685 Y0.7053  
G01 X-3.3855 Y0.7223  
G01 X-3.7145 Y0.7223  
G01 X-3.7315 Y0.7053  
G01 X-3.7685 Y0.7053  
G01 X-3.7855 Y0.7223  
G01 X-3.8145 Y0.7223  
G01 X-3.8315 Y0.7053  
G01 X-3.8685 Y0.7053  
G01 X-3.8947 Y0.7315  
G01 X-3.8947 Y0.7685  
G01 X-3.8685 Y0.7947  
G01 X-3.8315 Y0.7947  
G01 X-3.8145 Y0.7777  
G01 X-3.7855 Y0.7777  
G01 X-3.7685 Y0.7947  
G01 X-3.7315 Y0.7947  
G01 X-3.7145 Y0.7777  
G01 X-3.3855 Y0.7777  
G01 X-3.3685 Y0.7947  
G01 X-3.3315 Y0.7947  
G01 X-3.3145 Y0.7777  
G01 X-3.2855 Y0.7777  
G01 X-3.2685 Y0.7947  
G01 X-3.2315 Y0.7947  
G01 X-3.2145 Y0.7777  
G01 X-2.8855 Y0.7777  
G01 X-2.8685 Y0.7947  
G01 X-2.8315 Y0.7947  
G01 X-2.8145 Y0.7777  
G01 X-2.7855 Y0.7777  
G01 X-2.7685 Y0.7947  
G01 X-2.7315 Y0.7947  
G01 X-2.7145 Y0.7777  
G01 X-2.3855 Y0.7777  
G01 X-2.3685 Y0.7947  
G01 X-2.3315 Y0.7947  
G01 X-2.3145 Y0.7777  
G01 X-2.2855 Y0.7777  
G01 X-2.2685 Y0.7947  
G01 X-2.2315 Y0.7947  
G01 X-2.2145 Y0.7777  
G01 X-1.8855 Y0.7777  
G01 X-1.8685 Y0.7947  
G01 X-1.8315 Y0.7947  
G01 X-1.8145 Y0.7777  
G01 X-1.7855 Y0.7777  
G01 X-1.7685 Y0.7947  
G01 X-1.7315 Y0.7947  
G01 X-1.7145 Y0.7777  
G01 X-1.4355 Y0.7777  
G01 X-1.4185 Y0.7947  
G01 X-1.3815 Y0.7947  
G01 X-1.3645 Y0.7777  
G01 X-1.3355 Y0.7777  
G01 X-1.3185 Y0.7947  
G01 X-1.2815 Y0.7947  
G01 X-1.2645 Y0.7777  
G01 X-0.9855 Y0.7777  
G01 X-0.9685 Y0.7947  
G01 X-0.9315 Y0.7947  
G01 X-0.9145 Y0.7777  
G01 X-0.8855 Y0.7777  
G01 X-0.8685 Y0.7947  
G01 X-0.8315 Y0.7947  
G01 X-0.8145 Y0.7777  
G01 X-0.5355 Y0.7777  
G01 X-0.5185 Y0.7947  
G01 X-0.4815 Y0.7947  
G01 X-0.4645 Y0.7777  
G01 X-0.4355 Y0.7777  
G01 X-0.4185 Y0.7947  
G01 X-0.3815 Y0.7947  
G01 X-0.3645 Y0.7777  
G01 X-0.3115 Y0.7777  
G01 X-0.2277 Y0.8615  
G01 X-0.2277 Y1.2403  
G01 X-0.3146 Y1.3489  
G01 X-0.5025 Y1.3724  
G01 X-0.5042 Y1.3725  
G01 X-0.5052 Y1.3727  
G01 X-0.5061 Y1.3729  
G01 X-0.5078 Y1.3734  
G01 X-0.5095 Y1.3738  
G01 X-0.5104 Y1.3743  
G01 X-0.5113 Y1.3746  
G01 X-0.5129 Y1.3754  
G01 X-0.5144 Y1.3762  
G01 X-0.5152 Y1.3768  
G01 X-0.5161 Y1.3773  
G01 X-0.5174 Y1.3784  
G01 X-0.6160 Y1.4524  
G01 X-0.6177 Y1.4535  
G01 X-0.6182 Y1.4540  
G01 X-0.6188 Y1.4545  
G01 X-0.6201 Y1.4559  
G01 X-0.6215 Y1.4573  
G01 X-0.6219 Y1.4580  
G01 X-0.6224 Y1.4585  
G01 X-0.6235 Y1.4602  
G01 X-0.6245 Y1.4619  
G01 X-0.6248 Y1.4626  
G01 X-0.6252 Y1.4632  
G01 X-0.6259 Y1.4651  
G01 X-0.6266 Y1.4669  
G01 X-0.6268 Y1.4677  
G01 X-0.6270 Y1.4684  
G01 X-0.6273 Y1.4703  
G01 X-0.6277 Y1.4723  
G01 X-0.6277 Y1.4730  
G01 X-0.6278 Y1.4738  
G01 X-0.6277 Y1.4758  
G01 X-0.6277 Y1.5145  
G01 X-0.6447 Y1.5315  
G01 X-0.6447 Y1.5685  
G01 X-0.6277 Y1.5855  
G01 X-0.6277 Y1.6145  
G01 X-0.6447 Y1.6315  
G01 X-0.6447 Y1.6685  
G01 X-0.6185 Y1.6947  
G01 X-0.5815 Y1.6947  
G01 X-0.5553 Y1.6685  
G01 X-0.5553 Y1.6315  
G01 X-0.5723 Y1.6145  
G01 X-0.5723 Y1.5855  
G01 X-0.5553 Y1.5685  
G01 X-0.5553 Y1.5315  
G01 X-0.5723 Y1.5145  
G01 X-0.5723 Y1.4888  
G01 X-0.4893 Y1.4266  
G01 X-0.2968 Y1.4025  
G01 X-0.2942 Y1.4022  
G01 X-0.2940 Y1.4022  
G01 X-0.2939 Y1.4021  
G01 X-0.2914 Y1.4013  
G01 X-0.2890 Y1.4006  
G01 X-0.2889 Y1.4005  
G01 X-0.2887 Y1.4004  
G01 X-0.2865 Y1.3992  
G01 X-0.2842 Y1.3979  
G01 X-0.2841 Y1.3978  
G01 X-0.2839 Y1.3977  
G01 X-0.2820 Y1.3961  
G01 X-0.2801 Y1.3944  
G01 X-0.2800 Y1.3943  
G01 X-0.2798 Y1.3942  
G01 X-0.2783 Y1.3922  
G01 X-0.1793 Y1.2685  
G01 X-0.1785 Y1.2677  
G01 X-0.1776 Y1.2664  
G01 X-0.1767 Y1.2652  
G01 X-0.1761 Y1.2641  
G01 X-0.1755 Y1.2631  
G01 X-0.1749 Y1.2617  
G01 X-0.1742 Y1.2603  
G01 X-0.1738 Y1.2592  
G01 X-0.1734 Y1.2581  
G01 X-0.1731 Y1.2566  
G01 X-0.1726 Y1.2551  
G01 X-0.1725 Y1.2539  
G01 X-0.1723 Y1.2527  
G01 X-0.1723 Y1.2512  
G01 X-0.1722 Y1.2497  
G01 X-0.1723 Y1.2485  
G01 X-0.1723 Y0.8473  
G01 X-0.1734 Y0.8419  
G01 X-0.1755 Y0.8369  
G01 X-0.1785 Y0.8323  
G00 Z0.0500  
G00 X-0.2535 Y0.9073  
G01 Z-0.0040 F10    
G01 X-0.3285 Y0.8323  F20    
G01 X-0.3323 Y0.8285  
G01 X-0.3369 Y0.8255  
G01 X-0.3419 Y0.8234  
G01 X-0.3473 Y0.8223  
G01 X-0.3645 Y0.8223  
G01 X-0.3815 Y0.8053  
G01 X-0.4185 Y0.8053  
G01 X-0.4355 Y0.8223  
G01 X-0.4645 Y0.8223  
G01 X-0.4815 Y0.8053  
G01 X-0.5185 Y0.8053  
G01 X-0.5355 Y0.8223  
G01 X-0.8145 Y0.8223  
G01 X-0.8315 Y0.8053  
G01 X-0.8685 Y0.8053  
G01 X-0.8855 Y0.8223  
G01 X-0.9145 Y0.8223  
G01 X-0.9315 Y0.8053  
G01 X-0.9685 Y0.8053  
G01 X-0.9855 Y0.8223  
G01 X-1.2645 Y0.8223  
G01 X-1.2815 Y0.8053  
G01 X-1.3185 Y0.8053  
G01 X-1.3355 Y0.8223  
G01 X-1.3645 Y0.8223  
G01 X-1.3815 Y0.8053  
G01 X-1.4185 Y0.8053  
G01 X-1.4355 Y0.8223  
G01 X-1.7145 Y0.8223  
G01 X-1.7315 Y0.8053  
G01 X-1.7685 Y0.8053  
G01 X-1.7855 Y0.8223  
G01 X-1.8145 Y0.8223  
G01 X-1.8315 Y0.8053  
G01 X-1.8685 Y0.8053  
G01 X-1.8855 Y0.8223  
G01 X-2.2145 Y0.8223  
G01 X-2.2315 Y0.8053  
G01 X-2.2685 Y0.8053  
G01 X-2.2855 Y0.8223  
G01 X-2.3145 Y0.8223  
G01 X-2.3315 Y0.8053  
G01 X-2.3685 Y0.8053  
G01 X-2.3855 Y0.8223  
G01 X-2.7145 Y0.8223  
G01 X-2.7315 Y0.8053  
G01 X-2.7685 Y0.8053  
G01 X-2.7855 Y0.8223  
G01 X-2.8145 Y0.8223  
G01 X-2.8315 Y0.8053  
G01 X-2.8685 Y0.8053  
G01 X-2.8855 Y0.8223  
G01 X-3.2145 Y0.8223  
G01 X-3.2315 Y0.8053  
G01 X-3.2685 Y0.8053  
G01 X-3.2855 Y0.8223  
G01 X-3.3145 Y0.8223  
G01 X-3.3315 Y0.8053  
G01 X-3.3685 Y0.8053  
G01 X-3.3855 Y0.8223  
G01 X-3.7145 Y0.8223  
G01 X-3.7315 Y0.8053  
G01 X-3.7685 Y0.8053  
G01 X-3.7855 Y0.8223  
G01 X-3.8145 Y0.8223  
G01 X-3.8315 Y0.8053  
G01 X-3.8685 Y0.8053  
G01 X-3.8947 Y0.8315  
G01 X-3.8947 Y0.8685  
G01 X-3.8685 Y0.8947  
G01 X-3.8315 Y0.8947  
G01 X-3.8145 Y0.8777  
G01 X-3.7855 Y0.8777  
G01 X-3.7685 Y0.8947  
G01 X-3.7315 Y0.8947  
G01 X-3.7145 Y0.8777  
G01 X-3.3855 Y0.8777  
G01 X-3.3685 Y0.8947  
G01 X-3.3315 Y0.8947  
G01 X-3.3145 Y0.8777  
G01 X-3.2855 Y0.8777  
G01 X-3.2685 Y0.8947  
G01 X-3.2315 Y0.8947  
G01 X-3.2145 Y0.8777  
G01 X-2.8855 Y0.8777  
G01 X-2.8685 Y0.8947  
G01 X-2.8315 Y0.8947  
G01 X-2.8145 Y0.8777  
G01 X-2.7855 Y0.8777  
G01 X-2.7685 Y0.8947  
G01 X-2.7315 Y0.8947  
G01 X-2.7145 Y0.8777  
G01 X-2.3855 Y0.8777  
G01 X-2.3685 Y0.8947  
G01 X-2.3315 Y0.8947  
G01 X-2.3145 Y0.8777  
G01 X-2.2855 Y0.8777  
G01 X-2.2685 Y0.8947  
G01 X-2.2315 Y0.8947  
G01 X-2.2145 Y0.8777  
G01 X-1.8855 Y0.8777  
G01 X-1.8685 Y0.8947  
G01 X-1.8315 Y0.8947  
G01 X-1.8145 Y0.8777  
G01 X-1.7855 Y0.8777  
G01 X-1.7685 Y0.8947  
G01 X-1.7315 Y0.8947  
G01 X-1.7145 Y0.8777  
G01 X-1.4355 Y0.8777  
G01 X-1.4185 Y0.8947  
G01 X-1.3815 Y0.8947  
G01 X-1.3645 Y0.8777  
G01 X-1.3355 Y0.8777  
G01 X-1.3185 Y0.8947  
G01 X-1.2815 Y0.8947  
G01 X-1.2645 Y0.8777  
G01 X-0.9855 Y0.8777  
G01 X-0.9685 Y0.8947  
G01 X-0.9315 Y0.8947  
G01 X-0.9145 Y0.8777  
G01 X-0.8855 Y0.8777  
G01 X-0.8685 Y0.8947  
G01 X-0.8315 Y0.8947  
G01 X-0.8145 Y0.8777  
G01 X-0.5355 Y0.8777  
G01 X-0.5185 Y0.8947  
G01 X-0.4815 Y0.8947  
G01 X-0.4645 Y0.8777  
G01 X-0.4355 Y0.8777  
G01 X-0.4185 Y0.8947  
G01 X-0.3815 Y0.8947  
G01 X-0.3645 Y0.8777  
G01 X-0.3615 Y0.8777  
G01 X-0.3027 Y0.9365  
G01 X-0.3027 Y1.1908  
G01 X-0.3651 Y1.2740  
G01 X-0.5517 Y1.2973  
G01 X-0.5527 Y1.2973  
G01 X-0.5544 Y1.2976  
G01 X-0.5561 Y1.2979  
G01 X-0.5571 Y1.2982  
G01 X-0.5581 Y1.2984  
G01 X-0.5597 Y1.2990  
G01 X-0.5613 Y1.2996  
G01 X-0.5622 Y1.3001  
G01 X-0.5631 Y1.3005  
G01 X-0.5646 Y1.3014  
G01 X-0.5661 Y1.3023  
G01 X-0.5668 Y1.3029  
G01 X-0.5677 Y1.3035  
G01 X-0.5689 Y1.3047  
G01 X-0.5702 Y1.3058  
G01 X-0.5708 Y1.3066  
G01 X-0.7215 Y1.4573  
G01 X-0.7245 Y1.4619  
G01 X-0.7266 Y1.4669  
G01 X-0.7277 Y1.4723  
G01 X-0.7277 Y1.5145  
G01 X-0.7447 Y1.5315  
G01 X-0.7447 Y1.5685  
G01 X-0.7277 Y1.5855  
G01 X-0.7277 Y1.6145  
G01 X-0.7447 Y1.6315  
G01 X-0.7447 Y1.6685  
G01 X-0.7185 Y1.6947  
G01 X-0.6815 Y1.6947  
G01 X-0.6553 Y1.6685  
G01 X-0.6553 Y1.6315  
G01 X-0.6723 Y1.6145  
G01 X-0.6723 Y1.5855  
G01 X-0.6553 Y1.5685  
G01 X-0.6553 Y1.5315  
G01 X-0.6723 Y1.5145  
G01 X-0.6723 Y1.4865  
G01 X-0.5371 Y1.3513  
G01 X-0.3490 Y1.3278  
G01 X-0.3488 Y1.3278  
G01 X-0.3463 Y1.3275  
G01 X-0.3439 Y1.3271  
G01 X-0.3436 Y1.3271  
G01 X-0.3434 Y1.3270  
G01 X-0.3410 Y1.3262  
G01 X-0.3387 Y1.3254  
G01 X-0.3385 Y1.3253  
G01 X-0.3382 Y1.3252  
G01 X-0.3361 Y1.3240  
G01 X-0.3339 Y1.3227  
G01 X-0.3338 Y1.3226  
G01 X-0.3335 Y1.3224  
G01 X-0.3317 Y1.3208  
G01 X-0.3298 Y1.3192  
G01 X-0.3297 Y1.3190  
G01 X-0.3295 Y1.3188  
G01 X-0.3280 Y1.3168  
G01 X-0.3265 Y1.3149  
G01 X-0.3264 Y1.3146  
G01 X-0.2540 Y1.2182  
G01 X-0.2535 Y1.2177  
G01 X-0.2524 Y1.2160  
G01 X-0.2512 Y1.2144  
G01 X-0.2509 Y1.2138  
G01 X-0.2505 Y1.2131  
G01 X-0.2497 Y1.2113  
G01 X-0.2488 Y1.2095  
G01 X-0.2487 Y1.2088  
G01 X-0.2484 Y1.2081  
G01 X-0.2480 Y1.2061  
G01 X-0.2475 Y1.2042  
G01 X-0.2474 Y1.2035  
G01 X-0.2473 Y1.2027  
G01 X-0.2473 Y1.2008  
G01 X-0.2472 Y1.1988  
G01 X-0.2473 Y1.1980  
G01 X-0.2473 Y0.9223  
G01 X-0.2484 Y0.9169  
G01 X-0.2505 Y0.9119  
G01 X-0.2535 Y0.9073  
G00 Z0.0500  
G00 X-0.3553 Y0.9315  
G01 Z-0.0040 F10    
G01 X-0.3815 Y0.9053  F20    
G01 X-0.4185 Y0.9053  
G01 X-0.4355 Y0.9223  
G01 X-0.4645 Y0.9223  
G01 X-0.4815 Y0.9053  
G01 X-0.5185 Y0.9053  
G01 X-0.5355 Y0.9223  
G01 X-0.6027 Y0.9223  
G01 X-0.6081 Y0.9234  
G01 X-0.6131 Y0.9255  
G01 X-0.6177 Y0.9285  
G01 X-0.6215 Y0.9323  
G01 X-1.1115 Y1.4223  
G01 X-1.4527 Y1.4223  
G01 X-1.4581 Y1.4234  
G01 X-1.4631 Y1.4255  
G01 X-1.4677 Y1.4285  
G01 X-1.5715 Y1.5323  
G01 X-1.5745 Y1.5369  
G01 X-1.5766 Y1.5419  
G01 X-1.5770 Y1.5437  
G01 X-1.5793 Y1.5460  
G01 X-1.5834 Y1.5521  
G01 X-1.5863 Y1.5590  
G01 X-1.5877 Y1.5663  
G01 X-1.5877 Y1.6337  
G01 X-1.5863 Y1.6410  
G01 X-1.5834 Y1.6479  
G01 X-1.5793 Y1.6540  
G01 X-1.5740 Y1.6593  
G01 X-1.5679 Y1.6634  
G01 X-1.5610 Y1.6663  
G01 X-1.5537 Y1.6677  
G01 X-1.5463 Y1.6677  
G01 X-1.5390 Y1.6663  
G01 X-1.5321 Y1.6634  
G01 X-1.5260 Y1.6593  
G01 X-1.5207 Y1.6540  
G01 X-1.5166 Y1.6479  
G01 X-1.5137 Y1.6410  
G01 X-1.5123 Y1.6337  
G01 X-1.5123 Y1.5663  
G01 X-1.5137 Y1.5590  
G01 X-1.5155 Y1.5547  
G01 X-1.4385 Y1.4777  
G01 X-1.0973 Y1.4777  
G01 X-1.0919 Y1.4766  
G01 X-1.0869 Y1.4745  
G01 X-1.0823 Y1.4715  
G01 X-0.5885 Y0.9777  
G01 X-0.5355 Y0.9777  
G01 X-0.5185 Y0.9947  
G01 X-0.4815 Y0.9947  
G01 X-0.4645 Y0.9777  
G01 X-0.4355 Y0.9777  
G01 X-0.4185 Y0.9947  
G01 X-0.3815 Y0.9947  
G01 X-0.3553 Y0.9685  
G01 X-0.3553 Y0.9315  
G00 Z0.0500  
G00 X-0.3553 Y1.0315  
G01 Z-0.0040 F10    
G01 X-0.3815 Y1.0053  F20    
G01 X-0.4185 Y1.0053  
G01 X-0.4355 Y1.0223  
G01 X-0.4645 Y1.0223  
G01 X-0.4815 Y1.0053  
G01 X-0.5185 Y1.0053  
G01 X-0.5447 Y1.0315  
G01 X-0.5447 Y1.0685  
G01 X-0.5277 Y1.0855  
G01 X-0.5277 Y1.1885  
G01 X-0.5615 Y1.2223  
G01 X-0.8027 Y1.2223  
G01 X-0.8081 Y1.2234  
G01 X-0.8131 Y1.2255  
G01 X-0.8177 Y1.2285  
G01 X-1.1615 Y1.5723  
G01 X-1.4123 Y1.5723  
G01 X-1.4123 Y1.5663  
G01 X-1.4137 Y1.5590  
G01 X-1.4166 Y1.5521  
G01 X-1.4207 Y1.5460  
G01 X-1.4260 Y1.5407  
G01 X-1.4321 Y1.5366  
G01 X-1.4390 Y1.5337  
G01 X-1.4463 Y1.5323  
G01 X-1.4537 Y1.5323  
G01 X-1.4610 Y1.5337  
G01 X-1.4679 Y1.5366  
G01 X-1.4740 Y1.5407  
G01 X-1.4793 Y1.5460  
G01 X-1.4834 Y1.5521  
G01 X-1.4863 Y1.5590  
G01 X-1.4877 Y1.5663  
G01 X-1.4877 Y1.6337  
G01 X-1.4863 Y1.6410  
G01 X-1.4834 Y1.6479  
G01 X-1.4793 Y1.6540  
G01 X-1.4740 Y1.6593  
G01 X-1.4679 Y1.6634  
G01 X-1.4610 Y1.6663  
G01 X-1.4537 Y1.6677  
G01 X-1.4463 Y1.6677  
G01 X-1.4390 Y1.6663  
G01 X-1.4321 Y1.6634  
G01 X-1.4260 Y1.6593  
G01 X-1.4207 Y1.6540  
G01 X-1.4166 Y1.6479  
G01 X-1.4137 Y1.6410  
G01 X-1.4123 Y1.6337  
G01 X-1.4123 Y1.6277  
G01 X-1.1473 Y1.6277  
G01 X-1.1419 Y1.6266  
G01 X-1.1369 Y1.6245  
G01 X-1.1323 Y1.6215  
G01 X-1.1285 Y1.6177  
G01 X-0.7885 Y1.2777  
G01 X-0.5473 Y1.2777  
G01 X-0.5419 Y1.2766  
G01 X-0.5369 Y1.2745  
G01 X-0.5323 Y1.2715  
G01 X-0.5285 Y1.2677  
G01 X-0.4785 Y1.2177  
G01 X-0.4755 Y1.2131  
G01 X-0.4734 Y1.2081  
G01 X-0.4723 Y1.2027  
G01 X-0.4723 Y1.0855  
G01 X-0.4645 Y1.0777  
G01 X-0.4355 Y1.0777  
G01 X-0.4185 Y1.0947  
G01 X-0.3815 Y1.0947  
G01 X-0.3553 Y1.0685  
G01 X-0.3553 Y1.0315  
G00 Z0.0500  
G00 X-0.8053 Y1.0315  
G01 Z-0.0040 F10    
G01 X-0.8315 Y1.0053  F20    
G01 X-0.8685 Y1.0053  
G01 X-0.8855 Y1.0223  
G01 X-0.9145 Y1.0223  
G01 X-0.9315 Y1.0053  
G01 X-0.9685 Y1.0053  
G01 X-0.9947 Y1.0315  
G01 X-0.9947 Y1.0555  
G01 X-1.2615 Y1.3223  
G01 X-1.5027 Y1.3223  
G01 X-1.5081 Y1.3234  
G01 X-1.5131 Y1.3255  
G01 X-1.5177 Y1.3285  
G01 X-1.6677 Y1.4785  
G01 X-1.6715 Y1.4823  
G01 X-1.6745 Y1.4869  
G01 X-1.6766 Y1.4919  
G01 X-1.6777 Y1.4973  
G01 X-1.6777 Y1.5444  
G01 X-1.6793 Y1.5460  
G01 X-1.6834 Y1.5521  
G01 X-1.6863 Y1.5590  
G01 X-1.6877 Y1.5663  
G01 X-1.6877 Y1.6337  
G01 X-1.6863 Y1.6410  
G01 X-1.6834 Y1.6479  
G01 X-1.6793 Y1.6540  
G01 X-1.6740 Y1.6593  
G01 X-1.6679 Y1.6634  
G01 X-1.6610 Y1.6663  
G01 X-1.6537 Y1.6677  
G01 X-1.6463 Y1.6677  
G01 X-1.6390 Y1.6663  
G01 X-1.6321 Y1.6634  
G01 X-1.6260 Y1.6593  
G01 X-1.6207 Y1.6540  
G01 X-1.6166 Y1.6479  
G01 X-1.6137 Y1.6410  
G01 X-1.6123 Y1.6337  
G01 X-1.6123 Y1.5663  
G01 X-1.6137 Y1.5590  
G01 X-1.6166 Y1.5521  
G01 X-1.6207 Y1.5460  
G01 X-1.6223 Y1.5444  
G01 X-1.6223 Y1.5115  
G01 X-1.4885 Y1.3777  
G01 X-1.2473 Y1.3777  
G01 X-1.2419 Y1.3766  
G01 X-1.2369 Y1.3745  
G01 X-1.2323 Y1.3715  
G01 X-1.2285 Y1.3677  
G01 X-0.9555 Y1.0947  
G01 X-0.9315 Y1.0947  
G01 X-0.9145 Y1.0777  
G01 X-0.8855 Y1.0777  
G01 X-0.8685 Y1.0947  
G01 X-0.8315 Y1.0947  
G01 X-0.8053 Y1.0685  
G01 X-0.8053 Y1.0315  
G00 Z0.0500  
G00 X-0.8315 Y0.9947  
G01 Z-0.0040 F10    
G01 X-0.8053 Y0.9685  F20    
G01 X-0.8053 Y0.9315  
G01 X-0.8315 Y0.9053  
G01 X-0.8685 Y0.9053  
G01 X-0.8855 Y0.9223  
G01 X-0.9145 Y0.9223  
G01 X-0.9315 Y0.9053  
G01 X-0.9685 Y0.9053  
G01 X-0.9855 Y0.9223  
G01 X-1.0527 Y0.9223  
G01 X-1.0581 Y0.9234  
G01 X-1.0631 Y0.9255  
G01 X-1.0677 Y0.9285  
G01 X-1.0715 Y0.9323  
G01 X-1.3615 Y1.2223  
G01 X-1.5027 Y1.2223  
G01 X-1.5081 Y1.2234  
G01 X-1.5131 Y1.2255  
G01 X-1.5177 Y1.2285  
G01 X-1.5215 Y1.2323  
G01 X-1.7715 Y1.4823  
G01 X-1.7745 Y1.4869  
G01 X-1.7766 Y1.4919  
G01 X-1.7777 Y1.4973  
G01 X-1.7777 Y1.5444  
G01 X-1.7793 Y1.5460  
G01 X-1.7834 Y1.5521  
G01 X-1.7863 Y1.5590  
G01 X-1.7877 Y1.5663  
G01 X-1.7877 Y1.6337  
G01 X-1.7863 Y1.6410  
G01 X-1.7834 Y1.6479  
G01 X-1.7793 Y1.6540  
G01 X-1.7740 Y1.6593  
G01 X-1.7679 Y1.6634  
G01 X-1.7610 Y1.6663  
G01 X-1.7537 Y1.6677  
G01 X-1.7463 Y1.6677  
G01 X-1.7390 Y1.6663  
G01 X-1.7321 Y1.6634  
G01 X-1.7260 Y1.6593  
G01 X-1.7207 Y1.6540  
G01 X-1.7166 Y1.6479  
G01 X-1.7137 Y1.6410  
G01 X-1.7123 Y1.6337  
G01 X-1.7123 Y1.5663  
G01 X-1.7137 Y1.5590  
G01 X-1.7166 Y1.5521  
G01 X-1.7207 Y1.5460  
G01 X-1.7223 Y1.5444  
G01 X-1.7223 Y1.5115  
G01 X-1.4885 Y1.2777  
G01 X-1.3473 Y1.2777  
G01 X-1.3419 Y1.2766  
G01 X-1.3369 Y1.2745  
G01 X-1.3323 Y1.2715  
G01 X-1.0385 Y0.9777  
G01 X-0.9855 Y0.9777  
G01 X-0.9685 Y0.9947  
G01 X-0.9315 Y0.9947  
G01 X-0.9145 Y0.9777  
G01 X-0.8855 Y0.9777  
G01 X-0.8685 Y0.9947  
G01 X-0.8315 Y0.9947  
G00 Z0.0500  
G00 X-1.2815 Y0.9947  
G01 Z-0.0040 F10    
G01 X-1.2553 Y0.9685  F20    
G01 X-1.2553 Y0.9315  
G01 X-1.2815 Y0.9053  
G01 X-1.3185 Y0.9053  
G01 X-1.3355 Y0.9223  
G01 X-1.3645 Y0.9223  
G01 X-1.3815 Y0.9053  
G01 X-1.4185 Y0.9053  
G01 X-1.4355 Y0.9223  
G01 X-1.4527 Y0.9223  
G01 X-1.4581 Y0.9234  
G01 X-1.4631 Y0.9255  
G01 X-1.4677 Y0.9285  
G01 X-1.6177 Y1.0785  
G01 X-1.6215 Y1.0823  
G01 X-1.6245 Y1.0869  
G01 X-1.6266 Y1.0919  
G01 X-1.6277 Y1.0973  
G01 X-1.6277 Y1.1385  
G01 X-1.9677 Y1.4785  
G01 X-1.9715 Y1.4823  
G01 X-1.9745 Y1.4869  
G01 X-1.9766 Y1.4919  
G01 X-1.9777 Y1.4973  
G01 X-1.9777 Y1.5444  
G01 X-1.9793 Y1.5460  
G01 X-1.9834 Y1.5521  
G01 X-1.9863 Y1.5590  
G01 X-1.9877 Y1.5663  
G01 X-1.9877 Y1.6337  
G01 X-1.9863 Y1.6410  
G01 X-1.9834 Y1.6479  
G01 X-1.9793 Y1.6540  
G01 X-1.9740 Y1.6593  
G01 X-1.9679 Y1.6634  
G01 X-1.9610 Y1.6663  
G01 X-1.9537 Y1.6677  
G01 X-1.9463 Y1.6677  
G01 X-1.9390 Y1.6663  
G01 X-1.9321 Y1.6634  
G01 X-1.9260 Y1.6593  
G01 X-1.9207 Y1.6540  
G01 X-1.9166 Y1.6479  
G01 X-1.9137 Y1.6410  
G01 X-1.9123 Y1.6337  
G01 X-1.9123 Y1.5663  
G01 X-1.9137 Y1.5590  
G01 X-1.9166 Y1.5521  
G01 X-1.9207 Y1.5460  
G01 X-1.9223 Y1.5444  
G01 X-1.9223 Y1.5115  
G01 X-1.5785 Y1.1677  
G01 X-1.5755 Y1.1631  
G01 X-1.5734 Y1.1581  
G01 X-1.5723 Y1.1527  
G01 X-1.5723 Y1.1115  
G01 X-1.4385 Y0.9777  
G01 X-1.4355 Y0.9777  
G01 X-1.4185 Y0.9947  
G01 X-1.3815 Y0.9947  
G01 X-1.3645 Y0.9777  
G01 X-1.3355 Y0.9777  
G01 X-1.3185 Y0.9947  
G01 X-1.2815 Y0.9947  
G00 Z0.0500  
G00 X-1.2815 Y1.0053  
G01 Z-0.0040 F10    
G01 X-1.3185 Y1.0053  F20    
G01 X-1.3355 Y1.0223  
G01 X-1.3645 Y1.0223  
G01 X-1.3815 Y1.0053  
G01 X-1.4185 Y1.0053  
G01 X-1.4447 Y1.0315  
G01 X-1.4447 Y1.0555  
G01 X-1.8677 Y1.4785  
G01 X-1.8715 Y1.4823  
G01 X-1.8745 Y1.4869  
G01 X-1.8766 Y1.4919  
G01 X-1.8777 Y1.4973  
G01 X-1.8777 Y1.5444  
G01 X-1.8793 Y1.5460  
G01 X-1.8834 Y1.5521  
G01 X-1.8863 Y1.5590  
G01 X-1.8877 Y1.5663  
G01 X-1.8877 Y1.6337  
G01 X-1.8863 Y1.6410  
G01 X-1.8834 Y1.6479  
G01 X-1.8793 Y1.6540  
G01 X-1.8740 Y1.6593  
G01 X-1.8679 Y1.6634  
G01 X-1.8610 Y1.6663  
G01 X-1.8537 Y1.6677  
G01 X-1.8463 Y1.6677  
G01 X-1.8390 Y1.6663  
G01 X-1.8321 Y1.6634  
G01 X-1.8260 Y1.6593  
G01 X-1.8207 Y1.6540  
G01 X-1.8166 Y1.6479  
G01 X-1.8137 Y1.6410  
G01 X-1.8123 Y1.6337  
G01 X-1.8123 Y1.5663  
G01 X-1.8137 Y1.5590  
G01 X-1.8166 Y1.5521  
G01 X-1.8207 Y1.5460  
G01 X-1.8223 Y1.5444  
G01 X-1.8223 Y1.5115  
G01 X-1.4055 Y1.0947  
G01 X-1.3815 Y1.0947  
G01 X-1.3645 Y1.0777  
G01 X-1.3355 Y1.0777  
G01 X-1.3185 Y1.0947  
G01 X-1.2815 Y1.0947  
G01 X-1.2553 Y1.0685  
G01 X-1.2553 Y1.0315  
G01 X-1.2815 Y1.0053  
G00 Z0.0500  
G00 X-1.7053 Y1.0315  
G01 Z-0.0040 F10    
G01 X-1.7315 Y1.0053  F20    
G01 X-1.7685 Y1.0053  
G01 X-1.7855 Y1.0223  
G01 X-1.8145 Y1.0223  
G01 X-1.8315 Y1.0053  
G01 X-1.8685 Y1.0053  
G01 X-1.8947 Y1.0315  
G01 X-1.8947 Y1.0685  
G01 X-1.8685 Y1.0947  
G01 X-1.8315 Y1.0947  
G01 X-1.8145 Y1.0777  
G01 X-1.7855 Y1.0777  
G01 X-1.7777 Y1.0855  
G01 X-1.7777 Y1.1385  
G01 X-2.0715 Y1.4323  
G01 X-2.0745 Y1.4369  
G01 X-2.0766 Y1.4419  
G01 X-2.0777 Y1.4473  
G01 X-2.0777 Y1.5444  
G01 X-2.0793 Y1.5460  
G01 X-2.0834 Y1.5521  
G01 X-2.0863 Y1.5590  
G01 X-2.0877 Y1.5663  
G01 X-2.0877 Y1.6337  
G01 X-2.0863 Y1.6410  
G01 X-2.0834 Y1.6479  
G01 X-2.0793 Y1.6540  
G01 X-2.0740 Y1.6593  
G01 X-2.0679 Y1.6634  
G01 X-2.0610 Y1.6663  
G01 X-2.0537 Y1.6677  
G01 X-2.0463 Y1.6677  
G01 X-2.0390 Y1.6663  
G01 X-2.0321 Y1.6634  
G01 X-2.0260 Y1.6593  
G01 X-2.0207 Y1.6540  
G01 X-2.0166 Y1.6479  
G01 X-2.0137 Y1.6410  
G01 X-2.0123 Y1.6337  
G01 X-2.0123 Y1.5663  
G01 X-2.0137 Y1.5590  
G01 X-2.0166 Y1.5521  
G01 X-2.0207 Y1.5460  
G01 X-2.0223 Y1.5444  
G01 X-2.0223 Y1.4615  
G01 X-1.7323 Y1.1715  
G01 X-1.7285 Y1.1677  
G01 X-1.7255 Y1.1631  
G01 X-1.7234 Y1.1581  
G01 X-1.7223 Y1.1527  
G01 X-1.7223 Y1.0855  
G01 X-1.7053 Y1.0685  
G01 X-1.7053 Y1.0315  
G00 Z0.0500  
G00 X-1.7315 Y0.9947  
G01 Z-0.0040 F10    
G01 X-1.7053 Y0.9685  F20    
G01 X-1.7053 Y0.9315  
G01 X-1.7315 Y0.9053  
G01 X-1.7685 Y0.9053  
G01 X-1.7855 Y0.9223  
G01 X-1.8145 Y0.9223  
G01 X-1.8315 Y0.9053  
G01 X-1.8685 Y0.9053  
G01 X-1.8855 Y0.9223  
G01 X-1.9027 Y0.9223  
G01 X-1.9081 Y0.9234  
G01 X-1.9131 Y0.9255  
G01 X-1.9177 Y0.9285  
G01 X-2.1677 Y1.1785  
G01 X-2.1715 Y1.1823  
G01 X-2.1745 Y1.1869  
G01 X-2.1766 Y1.1919  
G01 X-2.1777 Y1.1973  
G01 X-2.1777 Y1.5444  
G01 X-2.1793 Y1.5460  
G01 X-2.1834 Y1.5521  
G01 X-2.1863 Y1.5590  
G01 X-2.1877 Y1.5663  
G01 X-2.1877 Y1.6337  
G01 X-2.1863 Y1.6410  
G01 X-2.1834 Y1.6479  
G01 X-2.1793 Y1.6540  
G01 X-2.1740 Y1.6593  
G01 X-2.1679 Y1.6634  
G01 X-2.1610 Y1.6663  
G01 X-2.1537 Y1.6677  
G01 X-2.1463 Y1.6677  
G01 X-2.1390 Y1.6663  
G01 X-2.1321 Y1.6634  
G01 X-2.1260 Y1.6593  
G01 X-2.1207 Y1.6540  
G01 X-2.1166 Y1.6479  
G01 X-2.1137 Y1.6410  
G01 X-2.1123 Y1.6337  
G01 X-2.1123 Y1.5663  
G01 X-2.1137 Y1.5590  
G01 X-2.1166 Y1.5521  
G01 X-2.1207 Y1.5460  
G01 X-2.1223 Y1.5444  
G01 X-2.1223 Y1.2115  
G01 X-1.8885 Y0.9777  
G01 X-1.8855 Y0.9777  
G01 X-1.8685 Y0.9947  
G01 X-1.8315 Y0.9947  
G01 X-1.8145 Y0.9777  
G01 X-1.7855 Y0.9777  
G01 X-1.7685 Y0.9947  
G01 X-1.7315 Y0.9947  
G00 Z0.0500  
G00 X-2.2315 Y0.9947  
G01 Z-0.0040 F10    
G01 X-2.2053 Y0.9685  F20    
G01 X-2.2053 Y0.9315  
G01 X-2.2315 Y0.9053  
G01 X-2.2685 Y0.9053  
G01 X-2.2855 Y0.9223  
G01 X-2.3145 Y0.9223  
G01 X-2.3315 Y0.9053  
G01 X-2.3685 Y0.9053  
G01 X-2.3855 Y0.9223  
G01 X-2.4027 Y0.9223  
G01 X-2.4081 Y0.9234  
G01 X-2.4131 Y0.9255  
G01 X-2.4177 Y0.9285  
G01 X-2.4677 Y0.9785  
G01 X-2.4715 Y0.9823  
G01 X-2.4745 Y0.9869  
G01 X-2.4766 Y0.9919  
G01 X-2.4777 Y0.9973  
G01 X-2.4777 Y1.4385  
G01 X-2.5115 Y1.4723  
G01 X-2.6527 Y1.4723  
G01 X-2.6581 Y1.4734  
G01 X-2.6631 Y1.4755  
G01 X-2.6677 Y1.4785  
G01 X-2.7177 Y1.5285  
G01 X-2.7215 Y1.5323  
G01 X-2.7245 Y1.5369  
G01 X-2.7266 Y1.5419  
G01 X-2.7270 Y1.5437  
G01 X-2.7293 Y1.5460  
G01 X-2.7334 Y1.5521  
G01 X-2.7363 Y1.5590  
G01 X-2.7377 Y1.5663  
G01 X-2.7377 Y1.6337  
G01 X-2.7363 Y1.6410  
G01 X-2.7334 Y1.6479  
G01 X-2.7293 Y1.6540  
G01 X-2.7240 Y1.6593  
G01 X-2.7179 Y1.6634  
G01 X-2.7110 Y1.6663  
G01 X-2.7037 Y1.6677  
G01 X-2.6963 Y1.6677  
G01 X-2.6890 Y1.6663  
G01 X-2.6821 Y1.6634  
G01 X-2.6760 Y1.6593  
G01 X-2.6707 Y1.6540  
G01 X-2.6666 Y1.6479  
G01 X-2.6637 Y1.6410  
G01 X-2.6623 Y1.6337  
G01 X-2.6623 Y1.5663  
G01 X-2.6637 Y1.5590  
G01 X-2.6655 Y1.5547  
G01 X-2.6385 Y1.5277  
G01 X-2.4973 Y1.5277  
G01 X-2.4919 Y1.5266  
G01 X-2.4869 Y1.5245  
G01 X-2.4823 Y1.5215  
G01 X-2.4785 Y1.5177  
G01 X-2.4285 Y1.4677  
G01 X-2.4255 Y1.4631  
G01 X-2.4234 Y1.4581  
G01 X-2.4223 Y1.4527  
G01 X-2.4223 Y1.0115  
G01 X-2.3885 Y0.9777  
G01 X-2.3855 Y0.9777  
G01 X-2.3685 Y0.9947  
G01 X-2.3315 Y0.9947  
G01 X-2.3145 Y0.9777  
G01 X-2.2855 Y0.9777  
G01 X-2.2685 Y0.9947  
G01 X-2.2315 Y0.9947  
G00 Z0.0500  
G00 X-2.2315 Y1.0053  
G01 Z-0.0040 F10    
G01 X-2.2685 Y1.0053  F20    
G01 X-2.2855 Y1.0223  
G01 X-2.3145 Y1.0223  
G01 X-2.3315 Y1.0053  
G01 X-2.3685 Y1.0053  
G01 X-2.3947 Y1.0315  
G01 X-2.3947 Y1.0685  
G01 X-2.3777 Y1.0855  
G01 X-2.3777 Y1.4885  
G01 X-2.4615 Y1.5723  
G01 X-2.5623 Y1.5723  
G01 X-2.5623 Y1.5663  
G01 X-2.5637 Y1.5590  
G01 X-2.5666 Y1.5521  
G01 X-2.5707 Y1.5460  
G01 X-2.5760 Y1.5407  
G01 X-2.5821 Y1.5366  
G01 X-2.5890 Y1.5337  
G01 X-2.5963 Y1.5323  
G01 X-2.6037 Y1.5323  
G01 X-2.6110 Y1.5337  
G01 X-2.6179 Y1.5366  
G01 X-2.6240 Y1.5407  
G01 X-2.6293 Y1.5460  
G01 X-2.6334 Y1.5521  
G01 X-2.6363 Y1.5590  
G01 X-2.6377 Y1.5663  
G01 X-2.6377 Y1.6337  
G01 X-2.6363 Y1.6410  
G01 X-2.6334 Y1.6479  
G01 X-2.6293 Y1.6540  
G01 X-2.6240 Y1.6593  
G01 X-2.6179 Y1.6634  
G01 X-2.6110 Y1.6663  
G01 X-2.6037 Y1.6677  
G01 X-2.5963 Y1.6677  
G01 X-2.5890 Y1.6663  
G01 X-2.5821 Y1.6634  
G01 X-2.5760 Y1.6593  
G01 X-2.5707 Y1.6540  
G01 X-2.5666 Y1.6479  
G01 X-2.5637 Y1.6410  
G01 X-2.5623 Y1.6337  
G01 X-2.5623 Y1.6277  
G01 X-2.4473 Y1.6277  
G01 X-2.4419 Y1.6266  
G01 X-2.4369 Y1.6245  
G01 X-2.4323 Y1.6215  
G01 X-2.4285 Y1.6177  
G01 X-2.3285 Y1.5177  
G01 X-2.3255 Y1.5131  
G01 X-2.3234 Y1.5081  
G01 X-2.3223 Y1.5027  
G01 X-2.3223 Y1.0855  
G01 X-2.3145 Y1.0777  
G01 X-2.2855 Y1.0777  
G01 X-2.2685 Y1.0947  
G01 X-2.2315 Y1.0947  
G01 X-2.2053 Y1.0685  
G01 X-2.2053 Y1.0315  
G01 X-2.2315 Y1.0053  
G00 Z0.0500  
G00 X-2.7053 Y1.0315  
G01 Z-0.0040 F10    
G01 X-2.7315 Y1.0053  F20    
G01 X-2.7685 Y1.0053  
G01 X-2.7855 Y1.0223  
G01 X-2.8145 Y1.0223  
G01 X-2.8315 Y1.0053  
G01 X-2.8685 Y1.0053  
G01 X-2.8947 Y1.0315  
G01 X-2.8947 Y1.0685  
G01 X-2.8685 Y1.0947  
G01 X-2.8315 Y1.0947  
G01 X-2.8145 Y1.0777  
G01 X-2.7855 Y1.0777  
G01 X-2.7685 Y1.0947  
G01 X-2.7445 Y1.0947  
G01 X-2.6777 Y1.1615  
G01 X-2.6777 Y1.2385  
G01 X-2.8215 Y1.3823  
G01 X-2.8245 Y1.3869  
G01 X-2.8266 Y1.3919  
G01 X-2.8277 Y1.3973  
G01 X-2.8277 Y1.5444  
G01 X-2.8293 Y1.5460  
G01 X-2.8334 Y1.5521  
G01 X-2.8363 Y1.5590  
G01 X-2.8377 Y1.5663  
G01 X-2.8377 Y1.6337  
G01 X-2.8363 Y1.6410  
G01 X-2.8334 Y1.6479  
G01 X-2.8293 Y1.6540  
G01 X-2.8240 Y1.6593  
G01 X-2.8179 Y1.6634  
G01 X-2.8110 Y1.6663  
G01 X-2.8037 Y1.6677  
G01 X-2.7963 Y1.6677  
G01 X-2.7890 Y1.6663  
G01 X-2.7821 Y1.6634  
G01 X-2.7760 Y1.6593  
G01 X-2.7707 Y1.6540  
G01 X-2.7666 Y1.6479  
G01 X-2.7637 Y1.6410  
G01 X-2.7623 Y1.6337  
G01 X-2.7623 Y1.5663  
G01 X-2.7637 Y1.5590  
G01 X-2.7666 Y1.5521  
G01 X-2.7707 Y1.5460  
G01 X-2.7723 Y1.5444  
G01 X-2.7723 Y1.4115  
G01 X-2.6323 Y1.2715  
G01 X-2.6285 Y1.2677  
G01 X-2.6255 Y1.2631  
G01 X-2.6234 Y1.2581  
G01 X-2.6223 Y1.2527  
G01 X-2.6223 Y1.1473  
G01 X-2.6234 Y1.1419  
G01 X-2.6255 Y1.1369  
G01 X-2.6285 Y1.1323  
G01 X-2.7053 Y1.0555  
G01 X-2.7053 Y1.0315  
G00 Z0.0500  
G00 X-2.7315 Y0.9947  
G01 Z-0.0040 F10    
G01 X-2.7053 Y0.9685  F20    
G01 X-2.7053 Y0.9315  
G01 X-2.7315 Y0.9053  
G01 X-2.7685 Y0.9053  
G01 X-2.7855 Y0.9223  
G01 X-2.8145 Y0.9223  
G01 X-2.8315 Y0.9053  
G01 X-2.8685 Y0.9053  
G01 X-2.8855 Y0.9223  
G01 X-2.9027 Y0.9223  
G01 X-2.9081 Y0.9234  
G01 X-2.9131 Y0.9255  
G01 X-2.9177 Y0.9285  
G01 X-2.9715 Y0.9823  
G01 X-2.9745 Y0.9869  
G01 X-2.9766 Y0.9919  
G01 X-2.9777 Y0.9973  
G01 X-2.9777 Y1.2027  
G01 X-2.9766 Y1.2081  
G01 X-2.9745 Y1.2131  
G01 X-2.9715 Y1.2177  
G01 X-2.9277 Y1.2615  
G01 X-2.9277 Y1.5444  
G01 X-2.9293 Y1.5460  
G01 X-2.9334 Y1.5521  
G01 X-2.9363 Y1.5590  
G01 X-2.9377 Y1.5663  
G01 X-2.9377 Y1.6337  
G01 X-2.9363 Y1.6410  
G01 X-2.9334 Y1.6479  
G01 X-2.9293 Y1.6540  
G01 X-2.9240 Y1.6593  
G01 X-2.9179 Y1.6634  
G01 X-2.9110 Y1.6663  
G01 X-2.9037 Y1.6677  
G01 X-2.8963 Y1.6677  
G01 X-2.8890 Y1.6663  
G01 X-2.8821 Y1.6634  
G01 X-2.8760 Y1.6593  
G01 X-2.8707 Y1.6540  
G01 X-2.8666 Y1.6479  
G01 X-2.8637 Y1.6410  
G01 X-2.8623 Y1.6337  
G01 X-2.8623 Y1.5663  
G01 X-2.8637 Y1.5590  
G01 X-2.8666 Y1.5521  
G01 X-2.8707 Y1.5460  
G01 X-2.8723 Y1.5444  
G01 X-2.8723 Y1.2473  
G01 X-2.8734 Y1.2419  
G01 X-2.8755 Y1.2369  
G01 X-2.8785 Y1.2323  
G01 X-2.8823 Y1.2285  
G01 X-2.9223 Y1.1885  
G01 X-2.9223 Y1.0115  
G01 X-2.8885 Y0.9777  
G01 X-2.8855 Y0.9777  
G01 X-2.8685 Y0.9947  
G01 X-2.8315 Y0.9947  
G01 X-2.8145 Y0.9777  
G01 X-2.7855 Y0.9777  
G01 X-2.7685 Y0.9947  
G01 X-2.7315 Y0.9947  
G00 Z0.0500  
G00 X-2.9785 Y1.2323  
G01 Z-0.0040 F10    
G01 X-3.1285 Y1.0823  F20    
G01 X-3.1323 Y1.0785  
G01 X-3.1369 Y1.0755  
G01 X-3.1419 Y1.0734  
G01 X-3.1473 Y1.0723  
G01 X-3.1885 Y1.0723  
G01 X-3.2053 Y1.0555  
G01 X-3.2053 Y1.0315  
G01 X-3.2315 Y1.0053  
G01 X-3.2685 Y1.0053  
G01 X-3.2855 Y1.0223  
G01 X-3.3145 Y1.0223  
G01 X-3.3315 Y1.0053  
G01 X-3.3685 Y1.0053  
G01 X-3.3947 Y1.0315  
G01 X-3.3947 Y1.0685  
G01 X-3.3685 Y1.0947  
G01 X-3.3315 Y1.0947  
G01 X-3.3145 Y1.0777  
G01 X-3.2855 Y1.0777  
G01 X-3.2685 Y1.0947  
G01 X-3.2445 Y1.0947  
G01 X-3.2177 Y1.1215  
G01 X-3.2131 Y1.1245  
G01 X-3.2081 Y1.1266  
G01 X-3.2027 Y1.1277  
G01 X-3.1615 Y1.1277  
G01 X-3.0277 Y1.2615  
G01 X-3.0277 Y1.5444  
G01 X-3.0293 Y1.5460  
G01 X-3.0334 Y1.5521  
G01 X-3.0363 Y1.5590  
G01 X-3.0377 Y1.5663  
G01 X-3.0377 Y1.6337  
G01 X-3.0363 Y1.6410  
G01 X-3.0334 Y1.6479  
G01 X-3.0293 Y1.6540  
G01 X-3.0240 Y1.6593  
G01 X-3.0179 Y1.6634  
G01 X-3.0110 Y1.6663  
G01 X-3.0037 Y1.6677  
G01 X-2.9963 Y1.6677  
G01 X-2.9890 Y1.6663  
G01 X-2.9821 Y1.6634  
G01 X-2.9760 Y1.6593  
G01 X-2.9707 Y1.6540  
G01 X-2.9666 Y1.6479  
G01 X-2.9637 Y1.6410  
G01 X-2.9623 Y1.6337  
G01 X-2.9623 Y1.5663  
G01 X-2.9637 Y1.5590  
G01 X-2.9666 Y1.5521  
G01 X-2.9707 Y1.5460  
G01 X-2.9723 Y1.5444  
G01 X-2.9723 Y1.2473  
G01 X-2.9734 Y1.2419  
G01 X-2.9755 Y1.2369  
G01 X-2.9785 Y1.2323  
G00 Z0.0500  
G00 X-3.0785 Y1.4823  
G01 Z-0.0040 F10    
G01 X-3.4223 Y1.1385  F20    
G01 X-3.4223 Y1.0115  
G01 X-3.3885 Y0.9777  
G01 X-3.3855 Y0.9777  
G01 X-3.3685 Y0.9947  
G01 X-3.3315 Y0.9947  
G01 X-3.3145 Y0.9777  
G01 X-3.2855 Y0.9777  
G01 X-3.2685 Y0.9947  
G01 X-3.2315 Y0.9947  
G01 X-3.2053 Y0.9685  
G01 X-3.2053 Y0.9315  
G01 X-3.2315 Y0.9053  
G01 X-3.2685 Y0.9053  
G01 X-3.2855 Y0.9223  
G01 X-3.3145 Y0.9223  
G01 X-3.3315 Y0.9053  
G01 X-3.3685 Y0.9053  
G01 X-3.3855 Y0.9223  
G01 X-3.4027 Y0.9223  
G01 X-3.4081 Y0.9234  
G01 X-3.4131 Y0.9255  
G01 X-3.4177 Y0.9285  
G01 X-3.4215 Y0.9323  
G01 X-3.4715 Y0.9823  
G01 X-3.4745 Y0.9869  
G01 X-3.4766 Y0.9919  
G01 X-3.4777 Y0.9973  
G01 X-3.4777 Y1.1527  
G01 X-3.4766 Y1.1581  
G01 X-3.4745 Y1.1631  
G01 X-3.4715 Y1.1677  
G01 X-3.4677 Y1.1715  
G01 X-3.1277 Y1.5115  
G01 X-3.1277 Y1.5444  
G01 X-3.1293 Y1.5460  
G01 X-3.1334 Y1.5521  
G01 X-3.1363 Y1.5590  
G01 X-3.1377 Y1.5663  
G01 X-3.1377 Y1.6337  
G01 X-3.1363 Y1.6410  
G01 X-3.1334 Y1.6479  
G01 X-3.1293 Y1.6540  
G01 X-3.1240 Y1.6593  
G01 X-3.1179 Y1.6634  
G01 X-3.1110 Y1.6663  
G01 X-3.1037 Y1.6677  
G01 X-3.0963 Y1.6677  
G01 X-3.0890 Y1.6663  
G01 X-3.0821 Y1.6634  
G01 X-3.0760 Y1.6593  
G01 X-3.0707 Y1.6540  
G01 X-3.0666 Y1.6479  
G01 X-3.0637 Y1.6410  
G01 X-3.0623 Y1.6337  
G01 X-3.0623 Y1.5663  
G01 X-3.0637 Y1.5590  
G01 X-3.0666 Y1.5521  
G01 X-3.0707 Y1.5460  
G01 X-3.0723 Y1.5444  
G01 X-3.0723 Y1.4973  
G01 X-3.0734 Y1.4919  
G01 X-3.0755 Y1.4869  
G01 X-3.0785 Y1.4823  
G00 Z0.0500  
G00 X-3.1707 Y1.5460  
G01 Z-0.0040 F10    
G01 X-3.1760 Y1.5407  F20    
G01 X-3.1821 Y1.5366  
G01 X-3.1890 Y1.5337  
G01 X-3.1963 Y1.5323  
G01 X-3.2037 Y1.5323  
G01 X-3.2110 Y1.5337  
G01 X-3.2179 Y1.5366  
G01 X-3.2240 Y1.5407  
G01 X-3.2293 Y1.5460  
G01 X-3.2334 Y1.5521  
G01 X-3.2363 Y1.5590  
G01 X-3.2377 Y1.5663  
G01 X-3.2377 Y1.6337  
G01 X-3.2363 Y1.6410  
G01 X-3.2345 Y1.6453  
G01 X-3.2615 Y1.6723  
G01 X-3.3385 Y1.6723  
G01 X-3.7723 Y1.2385  
G01 X-3.7723 Y1.1115  
G01 X-3.7555 Y1.0947  
G01 X-3.7315 Y1.0947  
G01 X-3.7053 Y1.0685  
G01 X-3.7053 Y1.0315  
G01 X-3.7315 Y1.0053  
G01 X-3.7685 Y1.0053  
G01 X-3.7855 Y1.0223  
G01 X-3.8145 Y1.0223  
G01 X-3.8315 Y1.0053  
G01 X-3.8685 Y1.0053  
G01 X-3.8947 Y1.0315  
G01 X-3.8947 Y1.0685  
G01 X-3.8685 Y1.0947  
G01 X-3.8315 Y1.0947  
G01 X-3.8252 Y1.0884  
G01 X-3.8266 Y1.0919  
G01 X-3.8277 Y1.0973  
G01 X-3.8277 Y1.2527  
G01 X-3.8266 Y1.2581  
G01 X-3.8245 Y1.2631  
G01 X-3.8215 Y1.2677  
G01 X-3.8177 Y1.2715  
G01 X-3.3677 Y1.7215  
G01 X-3.3631 Y1.7245  
G01 X-3.3581 Y1.7266  
G01 X-3.3527 Y1.7277  
G01 X-3.2473 Y1.7277  
G01 X-3.2419 Y1.7266  
G01 X-3.2369 Y1.7245  
G01 X-3.2323 Y1.7215  
G01 X-3.2285 Y1.7177  
G01 X-3.1785 Y1.6677  
G01 X-3.1755 Y1.6631  
G01 X-3.1734 Y1.6581  
G01 X-3.1730 Y1.6563  
G01 X-3.1707 Y1.6540  
G01 X-3.1666 Y1.6479  
G01 X-3.1637 Y1.6410  
G01 X-3.1623 Y1.6337  
G01 X-3.1623 Y1.5663  
G01 X-3.1637 Y1.5590  
G01 X-3.1666 Y1.5521  
G01 X-3.1707 Y1.5460  
G00 Z0.0500  
G00 X-3.2707 Y1.5460  
G01 Z-0.0040 F10    
G01 X-3.2723 Y1.5444  F20    
G01 X-3.2723 Y1.4473  
G01 X-3.2734 Y1.4419  
G01 X-3.2755 Y1.4369  
G01 X-3.2785 Y1.4323  
G01 X-3.6223 Y1.0885  
G01 X-3.6223 Y0.9973  
G01 X-3.6234 Y0.9919  
G01 X-3.6255 Y0.9869  
G01 X-3.6285 Y0.9823  
G01 X-3.6785 Y0.9323  
G01 X-3.6823 Y0.9285  
G01 X-3.6869 Y0.9255  
G01 X-3.6919 Y0.9234  
G01 X-3.6973 Y0.9223  
G01 X-3.7145 Y0.9223  
G01 X-3.7315 Y0.9053  
G01 X-3.7685 Y0.9053  
G01 X-3.7855 Y0.9223  
G01 X-3.8145 Y0.9223  
G01 X-3.8315 Y0.9053  
G01 X-3.8685 Y0.9053  
G01 X-3.8947 Y0.9315  
G01 X-3.8947 Y0.9685  
G01 X-3.8685 Y0.9947  
G01 X-3.8315 Y0.9947  
G01 X-3.8145 Y0.9777  
G01 X-3.7855 Y0.9777  
G01 X-3.7685 Y0.9947  
G01 X-3.7315 Y0.9947  
G01 X-3.7145 Y0.9777  
G01 X-3.7115 Y0.9777  
G01 X-3.6777 Y1.0115  
G01 X-3.6777 Y1.1027  
G01 X-3.6766 Y1.1081  
G01 X-3.6745 Y1.1131  
G01 X-3.6715 Y1.1177  
G01 X-3.6677 Y1.1215  
G01 X-3.3277 Y1.4615  
G01 X-3.3277 Y1.5444  
G01 X-3.3293 Y1.5460  
G01 X-3.3334 Y1.5521  
G01 X-3.3363 Y1.5590  
G01 X-3.3377 Y1.5663  
G01 X-3.3377 Y1.6337  
G01 X-3.3363 Y1.6410  
G01 X-3.3334 Y1.6479  
G01 X-3.3293 Y1.6540  
G01 X-3.3240 Y1.6593  
G01 X-3.3179 Y1.6634  
G01 X-3.3110 Y1.6663  
G01 X-3.3037 Y1.6677  
G01 X-3.2963 Y1.6677  
G01 X-3.2890 Y1.6663  
G01 X-3.2821 Y1.6634  
G01 X-3.2760 Y1.6593  
G01 X-3.2707 Y1.6540  
G01 X-3.2666 Y1.6479  
G01 X-3.2637 Y1.6410  
G01 X-3.2623 Y1.6337  
G01 X-3.2623 Y1.5663  
G01 X-3.2637 Y1.5590  
G01 X-3.2666 Y1.5521  
G01 X-3.2707 Y1.5460  
G00 Z0.0500  
G00 X-0.9447 Y1.5315  
G01 Z-0.0040 F10    
G01 X-0.9447 Y1.5685  F20    
G01 X-0.9185 Y1.5947  
G01 X-0.8815 Y1.5947  
G01 X-0.8553 Y1.5685  
G01 X-0.8553 Y1.5315  
G01 X-0.8815 Y1.5053  
G01 X-0.9185 Y1.5053  
G01 X-0.9447 Y1.5315  
G00 Z0.0500  
G00 X-0.8447 Y1.5315  
G01 Z-0.0040 F10    
G01 X-0.8447 Y1.5685  F20    
G01 X-0.8185 Y1.5947  
G01 X-0.7815 Y1.5947  
G01 X-0.7553 Y1.5685  
G01 X-0.7553 Y1.5315  
G01 X-0.7815 Y1.5053  
G01 X-0.8185 Y1.5053  
G01 X-0.8447 Y1.5315  
G00 Z0.0500  
G00 X-0.8447 Y1.6315  
G01 Z-0.0040 F10    
G01 X-0.8447 Y1.6685  F20    
G01 X-0.8185 Y1.6947  
G01 X-0.7815 Y1.6947  
G01 X-0.7553 Y1.6685  
G01 X-0.7553 Y1.6315  
G01 X-0.7815 Y1.6053  
G01 X-0.8185 Y1.6053  
G01 X-0.8447 Y1.6315  
G00 Z0.0500  
G00 X-0.8553 Y1.6315  
G01 Z-0.0040 F10    
G01 X-0.8815 Y1.6053  F20    
G01 X-0.9185 Y1.6053  
G01 X-0.9447 Y1.6315  
G01 X-0.9447 Y1.6685  
G01 X-0.9185 Y1.6947  
G01 X-0.8815 Y1.6947  
G01 X-0.8553 Y1.6685  
G01 X-0.8553 Y1.6315  
G00 Z0.0500  
G00 X-0.0294 Y0.5289  
G01 Z-0.0040 F10    
G01 X-0.0304 Y0.5281  F20    
G01 X-0.0313 Y0.5272  
G01 X-0.0326 Y0.5263  
G01 X-0.2804 Y0.3281  
G01 X-0.2813 Y0.3272  
G01 X-0.2826 Y0.3263  
G01 X-0.2839 Y0.3252  
G01 X-0.2850 Y0.3246  
G01 X-0.2861 Y0.3239  
G01 X-0.2876 Y0.3233  
G01 X-0.2890 Y0.3226  
G01 X-0.2903 Y0.3222  
G01 X-0.2914 Y0.3217  
G01 X-0.2930 Y0.3214  
G01 X-0.2946 Y0.3210  
G01 X-0.2959 Y0.3208  
G01 X-0.2971 Y0.3206  
G01 X-0.2987 Y0.3206  
G01 X-0.3004 Y0.3205  
G01 X-0.3016 Y0.3206  
G01 X-0.3638 Y0.3206  
G01 X-0.3808 Y0.3036  
G01 X-0.4192 Y0.3036  
G01 X-0.4362 Y0.3206  
G01 X-0.4638 Y0.3206  
G01 X-0.4808 Y0.3036  
G01 X-0.5192 Y0.3036  
G01 X-0.5362 Y0.3206  
G01 X-0.8138 Y0.3206  
G01 X-0.8308 Y0.3036  
G01 X-0.8692 Y0.3036  
G01 X-0.8862 Y0.3206  
G01 X-0.9138 Y0.3206  
G01 X-0.9308 Y0.3036  
G01 X-0.9692 Y0.3036  
G01 X-0.9862 Y0.3206  
G01 X-1.2638 Y0.3206  
G01 X-1.2808 Y0.3036  
G01 X-1.3192 Y0.3036  
G01 X-1.3362 Y0.3206  
G01 X-1.3638 Y0.3206  
G01 X-1.3808 Y0.3036  
G01 X-1.4192 Y0.3036  
G01 X-1.4362 Y0.3206  
G01 X-1.7138 Y0.3206  
G01 X-1.7308 Y0.3036  
G01 X-1.7692 Y0.3036  
G01 X-1.7862 Y0.3206  
G01 X-1.8138 Y0.3206  
G01 X-1.8308 Y0.3036  
G01 X-1.8692 Y0.3036  
G01 X-1.8862 Y0.3206  
G01 X-2.2138 Y0.3206  
G01 X-2.2308 Y0.3036  
G01 X-2.2692 Y0.3036  
G01 X-2.2862 Y0.3206  
G01 X-2.3138 Y0.3206  
G01 X-2.3308 Y0.3036  
G01 X-2.3692 Y0.3036  
G01 X-2.3862 Y0.3206  
G01 X-2.7138 Y0.3206  
G01 X-2.7308 Y0.3036  
G01 X-2.7692 Y0.3036  
G01 X-2.7862 Y0.3206  
G01 X-2.8138 Y0.3206  
G01 X-2.8308 Y0.3036  
G01 X-2.8692 Y0.3036  
G01 X-2.8862 Y0.3206  
G01 X-3.2138 Y0.3206  
G01 X-3.2308 Y0.3036  
G01 X-3.2692 Y0.3036  
G01 X-3.2862 Y0.3206  
G01 X-3.3138 Y0.3206  
G01 X-3.3308 Y0.3036  
G01 X-3.3692 Y0.3036  
G01 X-3.3862 Y0.3206  
G01 X-3.7138 Y0.3206  
G01 X-3.7308 Y0.3036  
G01 X-3.7692 Y0.3036  
G01 X-3.7862 Y0.3206  
G01 X-3.8138 Y0.3206  
G01 X-3.8308 Y0.3036  
G01 X-3.8692 Y0.3036  
G01 X-3.8862 Y0.3206  
G01 X-3.9029 Y0.3206  
G01 X-3.9086 Y0.3217  
G01 X-3.9139 Y0.3239  
G01 X-3.9187 Y0.3272  
G01 X-3.9228 Y0.3313  
G01 X-3.9261 Y0.3361  
G01 X-3.9283 Y0.3414  
G01 X-3.9294 Y0.3471  
G01 X-3.9294 Y0.3529  
G01 X-3.9283 Y0.3586  
G01 X-3.9261 Y0.3639  
G01 X-3.9228 Y0.3687  
G01 X-3.9187 Y0.3728  
G01 X-3.9139 Y0.3761  
G01 X-3.9086 Y0.3783  
G01 X-3.9029 Y0.3794  
G01 X-3.8862 Y0.3794  
G01 X-3.8692 Y0.3964  
G01 X-3.8308 Y0.3964  
G01 X-3.8138 Y0.3794  
G01 X-3.7862 Y0.3794  
G01 X-3.7692 Y0.3964  
G01 X-3.7308 Y0.3964  
G01 X-3.7138 Y0.3794  
G01 X-3.3862 Y0.3794  
G01 X-3.3692 Y0.3964  
G01 X-3.3308 Y0.3964  
G01 X-3.3138 Y0.3794  
G01 X-3.2862 Y0.3794  
G01 X-3.2692 Y0.3964  
G01 X-3.2308 Y0.3964  
G01 X-3.2138 Y0.3794  
G01 X-2.8862 Y0.3794  
G01 X-2.8692 Y0.3964  
G01 X-2.8308 Y0.3964  
G01 X-2.8138 Y0.3794  
G01 X-2.7862 Y0.3794  
G01 X-2.7692 Y0.3964  
G01 X-2.7308 Y0.3964  
G01 X-2.7138 Y0.3794  
G01 X-2.3862 Y0.3794  
G01 X-2.3692 Y0.3964  
G01 X-2.3308 Y0.3964  
G01 X-2.3138 Y0.3794  
G01 X-2.2862 Y0.3794  
G01 X-2.2692 Y0.3964  
G01 X-2.2308 Y0.3964  
G01 X-2.2138 Y0.3794  
G01 X-1.8862 Y0.3794  
G01 X-1.8692 Y0.3964  
G01 X-1.8308 Y0.3964  
G01 X-1.8138 Y0.3794  
G01 X-1.7862 Y0.3794  
G01 X-1.7692 Y0.3964  
G01 X-1.7308 Y0.3964  
G01 X-1.7138 Y0.3794  
G01 X-1.4362 Y0.3794  
G01 X-1.4192 Y0.3964  
G01 X-1.3808 Y0.3964  
G01 X-1.3638 Y0.3794  
G01 X-1.3362 Y0.3794  
G01 X-1.3192 Y0.3964  
G01 X-1.2808 Y0.3964  
G01 X-1.2638 Y0.3794  
G01 X-0.9862 Y0.3794  
G01 X-0.9692 Y0.3964  
G01 X-0.9308 Y0.3964  
G01 X-0.9138 Y0.3794  
G01 X-0.8862 Y0.3794  
G01 X-0.8692 Y0.3964  
G01 X-0.8308 Y0.3964  
G01 X-0.8138 Y0.3794  
G01 X-0.5362 Y0.3794  
G01 X-0.5192 Y0.3964  
G01 X-0.4808 Y0.3964  
G01 X-0.4638 Y0.3794  
G01 X-0.4362 Y0.3794  
G01 X-0.4192 Y0.3964  
G01 X-0.3808 Y0.3964  
G01 X-0.3638 Y0.3794  
G01 X-0.3103 Y0.3794  
G01 X-0.0794 Y0.5641  
G01 X-0.0794 Y1.4112  
G01 X-0.1902 Y1.5036  
G01 X-0.2192 Y1.5036  
G01 X-0.2464 Y1.5308  
G01 X-0.2464 Y1.5692  
G01 X-0.2294 Y1.5862  
G01 X-0.2294 Y1.6138  
G01 X-0.2464 Y1.6308  
G01 X-0.2464 Y1.6692  
G01 X-0.2192 Y1.6964  
G01 X-0.1808 Y1.6964  
G01 X-0.1536 Y1.6692  
G01 X-0.1536 Y1.6308  
G01 X-0.1706 Y1.6138  
G01 X-0.1706 Y1.5862  
G01 X-0.1536 Y1.5692  
G01 X-0.1536 Y1.5496  
G01 X-0.0324 Y1.4486  
G01 X-0.0313 Y1.4478  
G01 X-0.0302 Y1.4467  
G01 X-0.0290 Y1.4457  
G01 X-0.0281 Y1.4447  
G01 X-0.0272 Y1.4437  
G01 X-0.0263 Y1.4424  
G01 X-0.0253 Y1.4412  
G01 X-0.0247 Y1.4400  
G01 X-0.0239 Y1.4389  
G01 X-0.0233 Y1.4375  
G01 X-0.0226 Y1.4361  
G01 X-0.0222 Y1.4348  
G01 X-0.0217 Y1.4336  
G01 X-0.0214 Y1.4320  
G01 X-0.0210 Y1.4305  
G01 X-0.0209 Y1.4292  
G01 X-0.0206 Y1.4279  
G01 X-0.0206 Y1.4263  
G01 X-0.0205 Y1.4248  
G01 X-0.0206 Y1.4234  
G01 X-0.0206 Y0.5513  
G01 X-0.0205 Y0.5496  
G01 X-0.0206 Y0.5484  
G01 X-0.0206 Y0.5471  
G01 X-0.0209 Y0.5455  
G01 X-0.0211 Y0.5439  
G01 X-0.0215 Y0.5427  
G01 X-0.0217 Y0.5414  
G01 X-0.0224 Y0.5399  
G01 X-0.0228 Y0.5384  
G01 X-0.0235 Y0.5372  
G01 X-0.0239 Y0.5361  
G01 X-0.0249 Y0.5347  
G01 X-0.0256 Y0.5333  
G01 X-0.0265 Y0.5323  
G01 X-0.0272 Y0.5313  
G01 X-0.0283 Y0.5301  
G01 X-0.0294 Y0.5289  
G00 Z0.0500  
G00 X-0.1044 Y0.7289  
G01 Z-0.0040 F10    
G01 X-0.1054 Y0.7281  F20    
G01 X-0.1063 Y0.7272  
G01 X-0.1076 Y0.7263  
G01 X-0.2304 Y0.6281  
G01 X-0.2313 Y0.6272  
G01 X-0.2326 Y0.6263  
G01 X-0.2339 Y0.6252  
G01 X-0.2350 Y0.6246  
G01 X-0.2361 Y0.6239  
G01 X-0.2376 Y0.6233  
G01 X-0.2390 Y0.6226  
G01 X-0.2403 Y0.6222  
G01 X-0.2414 Y0.6217  
G01 X-0.2430 Y0.6214  
G01 X-0.2446 Y0.6210  
G01 X-0.2459 Y0.6208  
G01 X-0.2471 Y0.6206  
G01 X-0.2487 Y0.6206  
G01 X-0.2504 Y0.6205  
G01 X-0.2516 Y0.6206  
G01 X-0.3638 Y0.6206  
G01 X-0.3656 Y0.6188  
G01 X-0.3656 Y0.5812  
G01 X-0.3536 Y0.5692  
G01 X-0.3536 Y0.5308  
G01 X-0.3656 Y0.5188  
G01 X-0.3656 Y0.4812  
G01 X-0.3536 Y0.4692  
G01 X-0.3536 Y0.4308  
G01 X-0.3808 Y0.4036  
G01 X-0.4192 Y0.4036  
G01 X-0.4312 Y0.4156  
G01 X-0.4688 Y0.4156  
G01 X-0.4808 Y0.4036  
G01 X-0.5192 Y0.4036  
G01 X-0.5312 Y0.4156  
G01 X-0.8188 Y0.4156  
G01 X-0.8308 Y0.4036  
G01 X-0.8692 Y0.4036  
G01 X-0.8812 Y0.4156  
G01 X-0.9188 Y0.4156  
G01 X-0.9308 Y0.4036  
G01 X-0.9692 Y0.4036  
G01 X-0.9812 Y0.4156  
G01 X-1.2688 Y0.4156  
G01 X-1.2808 Y0.4036  
G01 X-1.3192 Y0.4036  
G01 X-1.3312 Y0.4156  
G01 X-1.3688 Y0.4156  
G01 X-1.3808 Y0.4036  
G01 X-1.4192 Y0.4036  
G01 X-1.4312 Y0.4156  
G01 X-1.7188 Y0.4156  
G01 X-1.7308 Y0.4036  
G01 X-1.7692 Y0.4036  
G01 X-1.7812 Y0.4156  
G01 X-1.8188 Y0.4156  
G01 X-1.8308 Y0.4036  
G01 X-1.8692 Y0.4036  
G01 X-1.8812 Y0.4156  
G01 X-2.2188 Y0.4156  
G01 X-2.2308 Y0.4036  
G01 X-2.2692 Y0.4036  
G01 X-2.2812 Y0.4156  
G01 X-2.3188 Y0.4156  
G01 X-2.3308 Y0.4036  
G01 X-2.3692 Y0.4036  
G01 X-2.3812 Y0.4156  
G01 X-2.7188 Y0.4156  
G01 X-2.7308 Y0.4036  
G01 X-2.7692 Y0.4036  
G01 X-2.7812 Y0.4156  
G01 X-2.8188 Y0.4156  
G01 X-2.8308 Y0.4036  
G01 X-2.8692 Y0.4036  
G01 X-2.8812 Y0.4156  
G01 X-3.2188 Y0.4156  
G01 X-3.2308 Y0.4036  
G01 X-3.2692 Y0.4036  
G01 X-3.2812 Y0.4156  
G01 X-3.3188 Y0.4156  
G01 X-3.3308 Y0.4036  
G01 X-3.3692 Y0.4036  
G01 X-3.3812 Y0.4156  
G01 X-3.7188 Y0.4156  
G01 X-3.7308 Y0.4036  
G01 X-3.7692 Y0.4036  
G01 X-3.7812 Y0.4156  
G01 X-3.8188 Y0.4156  
G01 X-3.8308 Y0.4036  
G01 X-3.8692 Y0.4036  
G01 X-3.8964 Y0.4308  
G01 X-3.8964 Y0.4692  
G01 X-3.8844 Y0.4812  
G01 X-3.8844 Y0.5188  
G01 X-3.8964 Y0.5308  
G01 X-3.8964 Y0.5692  
G01 X-3.8844 Y0.5812  
G01 X-3.8844 Y0.6188  
G01 X-3.8964 Y0.6308  
G01 X-3.8964 Y0.6692  
G01 X-3.8692 Y0.6964  
G01 X-3.8308 Y0.6964  
G01 X-3.8188 Y0.6844  
G01 X-3.7812 Y0.6844  
G01 X-3.7692 Y0.6964  
G01 X-3.7308 Y0.6964  
G01 X-3.7188 Y0.6844  
G01 X-3.3812 Y0.6844  
G01 X-3.3692 Y0.6964  
G01 X-3.3308 Y0.6964  
G01 X-3.3188 Y0.6844  
G01 X-3.2812 Y0.6844  
G01 X-3.2692 Y0.6964  
G01 X-3.2308 Y0.6964  
G01 X-3.2188 Y0.6844  
G01 X-2.8812 Y0.6844  
G01 X-2.8692 Y0.6964  
G01 X-2.8308 Y0.6964  
G01 X-2.8188 Y0.6844  
G01 X-2.7812 Y0.6844  
G01 X-2.7692 Y0.6964  
G01 X-2.7308 Y0.6964  
G01 X-2.7188 Y0.6844  
G01 X-2.3812 Y0.6844  
