(/Applications/pcbgcode.repo/pcb-gcode.ulp)
(Copyright 2005 - 2012 by John Johnson)
(See readme.txt for licensing terms.)
(This file generated from the board:)
(.../atmega_midi_cv_drums/eagle/power_cv_distro.brd)
(Current profile is .../pcbgcode.repo/profiles/mach.pp  )
(This file generated 3/12/16 10:28 PM)
(Settings from pcb-machine.h)
(spindle on time = 0.0000)
(spindle speed = 20000.0000)
(tool change at 0.0000  0.0000  3.0000  )
(feed rate xy = F0     )
(feed rate z  = F20    )
(Z Axis Settings)
(  High     Up        Down     Drill)
(1.0000  	0.0500  	-0.0040 	-0.0730 )
(Settings from pcb-defaults.h)
(isolate min = 0.0010)
(isolate max = 0.0170)
(isolate step = 0.0017)
(Generated bottom outlines, bottom drill, )
(Unit of measure: inch)
( Tool|       Size       |  Min Sub |  Max Sub |   Count )
( T01 | 1.016mm 0.0400in | 0.0000in | 0.0000in |       0 )
(Inch Mode)
G20
(Absolute Coordinates)
G90
S20000
G00 Z1.0000  
G00 X0.0000  Y0.0000  
M03
G04 P0.000000
M05
G00 Z3.0000  
M06 T01  ; 0.0400  
G01 Z0.0000  F20    
M06 
G00 Z0.0500  
M03
G04 P0.000000
G82 X-0.2000 Y1.5500  Z-0.0730 F20    R0.0500  P0.010000
G82 X-0.2000 Y1.6500  
G82 X-0.3000 Y1.6500  
G82 X-0.3000 Y1.5500  
G82 X-0.4000 Y1.5500  
G82 X-0.4000 Y1.6500  
G82 X-0.5000 Y1.6500  
G82 X-0.5000 Y1.5500  
G82 X-0.6000 Y1.5500  
G82 X-0.6000 Y1.6500  
G82 X-0.7000 Y1.6500  
G82 X-0.7000 Y1.5500  
G82 X-0.8000 Y1.5500  
G82 X-0.8000 Y1.6500  
G82 X-0.9000 Y1.6500  
G82 X-0.9000 Y1.5500  
G82 X-0.8500 Y1.0500  
G82 X-0.9500 Y1.0500  
G82 X-0.9500 Y0.9500  
G82 X-0.9500 Y0.8500  
G82 X-0.9500 Y0.7500  
G82 X-0.9500 Y0.6500  
G82 X-0.9500 Y0.5500  
G82 X-0.8500 Y0.5500  
G82 X-0.8500 Y0.6500  
G82 X-0.8500 Y0.7500  
G82 X-0.8500 Y0.8500  
G82 X-0.8500 Y0.9500  
G82 X-0.5000 Y0.9500  
G82 X-0.4000 Y0.9500  
G82 X-0.4000 Y0.8500  
G82 X-0.4000 Y0.7500  
G82 X-0.4000 Y0.6500  
G82 X-0.4000 Y0.5500  
G82 X-0.5000 Y0.5500  
G82 X-0.5000 Y0.6500  
G82 X-0.5000 Y0.7500  
G82 X-0.5000 Y0.8500  
G82 X-0.5000 Y1.0500  
G82 X-0.4000 Y1.0500  
G82 X-0.4000 Y0.4500  
G82 X-0.5000 Y0.4500  
G82 X-0.5000 Y0.3500  
G82 X-0.4000 Y0.3500  
G82 X-0.8500 Y0.3500  
G82 X-0.9500 Y0.3500  
G82 X-0.9500 Y0.4500  
G82 X-0.8500 Y0.4500  
G82 X-1.3000 Y0.4500  
G82 X-1.4000 Y0.4500  
G82 X-1.4000 Y0.3500  
G82 X-1.3000 Y0.3500  
G82 X-1.3000 Y0.5500  
G82 X-1.4000 Y0.5500  
G82 X-1.4000 Y0.6500  
G82 X-1.3000 Y0.6500  
G82 X-1.3000 Y0.7500  
G82 X-1.4000 Y0.7500  
G82 X-1.4000 Y0.8500  
G82 X-1.3000 Y0.8500  
G82 X-1.3000 Y0.9500  
G82 X-1.4000 Y0.9500  
G82 X-1.4000 Y1.0500  
G82 X-1.3000 Y1.0500  
G82 X-1.7500 Y1.0500  
G82 X-1.7500 Y0.9500  
G82 X-1.7500 Y0.8500  
G82 X-1.7500 Y0.7500  
G82 X-1.7500 Y0.6500  
G82 X-1.7500 Y0.5500  
G82 X-1.7500 Y0.4500  
G82 X-1.7500 Y0.3500  
G82 X-1.8500 Y0.3500  
G82 X-1.8500 Y0.4500  
G82 X-1.8500 Y0.5500  
G82 X-1.8500 Y0.6500  
G82 X-1.8500 Y0.7500  
G82 X-1.8500 Y0.8500  
G82 X-1.8500 Y0.9500  
G82 X-1.8500 Y1.0500  
G82 X-2.2500 Y1.0500  
G82 X-2.2500 Y0.9500  
G82 X-2.2500 Y0.8500  
G82 X-2.2500 Y0.7500  
G82 X-2.2500 Y0.6500  
G82 X-2.2500 Y0.5500  
G82 X-2.2500 Y0.4500  
G82 X-2.2500 Y0.3500  
G82 X-2.3500 Y0.3500  
G82 X-2.3500 Y0.4500  
G82 X-2.3500 Y0.5500  
G82 X-2.3500 Y0.6500  
G82 X-2.3500 Y0.7500  
G82 X-2.3500 Y0.8500  
G82 X-2.3500 Y0.9500  
G82 X-2.3500 Y1.0500  
G82 X-2.7500 Y1.0500  
G82 X-2.7500 Y0.9500  
G82 X-2.7500 Y0.8500  
G82 X-2.7500 Y0.7500  
G82 X-2.7500 Y0.6500  
G82 X-2.7500 Y0.5500  
G82 X-2.7500 Y0.4500  
G82 X-2.7500 Y0.3500  
G82 X-2.8500 Y0.3500  
G82 X-2.8500 Y0.4500  
G82 X-2.8500 Y0.5500  
G82 X-2.8500 Y0.6500  
G82 X-2.8500 Y0.7500  
G82 X-2.8500 Y0.8500  
G82 X-2.8500 Y0.9500  
G82 X-2.8500 Y1.0500  
G82 X-3.2500 Y1.0500  
G82 X-3.2500 Y0.9500  
G82 X-3.2500 Y0.8500  
G82 X-3.2500 Y0.7500  
G82 X-3.2500 Y0.6500  
G82 X-3.2500 Y0.5500  
G82 X-3.2500 Y0.4500  
G82 X-3.2500 Y0.3500  
G82 X-3.3500 Y0.3500  
G82 X-3.3500 Y0.4500  
G82 X-3.3500 Y0.5500  
G82 X-3.3500 Y0.6500  
G82 X-3.3500 Y0.7500  
G82 X-3.3500 Y0.8500  
G82 X-3.3500 Y0.9500  
G82 X-3.3500 Y1.0500  
G82 X-3.7500 Y1.0500  
G82 X-3.7500 Y0.9500  
G82 X-3.7500 Y0.8500  
G82 X-3.7500 Y0.7500  
G82 X-3.7500 Y0.6500  
G82 X-3.7500 Y0.5500  
G82 X-3.7500 Y0.4500  
G82 X-3.7500 Y0.3500  
G82 X-3.8500 Y0.3500  
G82 X-3.8500 Y0.4500  
G82 X-3.8500 Y0.5500  
G82 X-3.8500 Y0.6500  
G82 X-3.8500 Y0.7500  
G82 X-3.8500 Y0.8500  
G82 X-3.8500 Y0.9500  
G82 X-3.8500 Y1.0500  
G82 X-3.3000 Y1.6000  
G82 X-3.2000 Y1.6000  
G82 X-3.1000 Y1.6000  
G82 X-3.0000 Y1.6000  
G82 X-2.9000 Y1.6000  
G82 X-2.8000 Y1.6000  
G82 X-2.7000 Y1.6000  
G82 X-2.6000 Y1.6000  
G82 X-2.1500 Y1.6000  
G82 X-2.0500 Y1.6000  
G82 X-1.9500 Y1.6000  
G82 X-1.8500 Y1.6000  
G82 X-1.7500 Y1.6000  
G82 X-1.6500 Y1.6000  
G82 X-1.5500 Y1.6000  
G82 X-1.4500 Y1.6000  
T01 
G00 Z1.0000  
M05
M02
