(/Applications/pcbgcode.repo/pcb-gcode.ulp)
(Copyright 2005 - 2012 by John Johnson)
(See readme.txt for licensing terms.)
(This file generated from the board:)
(.../atmega_midi_cv_drums/eagle/power_cv_distro.brd)
(Current profile is .../pcbgcode.repo/profiles/mach.pp  )
(This file generated 3/19/16 2:40 PM)
(Settings from pcb-machine.h)
(spindle on time = 0.0000)
(spindle speed = 15000.0000)
(milling depth = -0.0700)
(tool change at 0.0000  0.0000  3.0000  )
(feed rate xy = F10    )
(feed rate z  = F5     )
(Z Axis Settings)
(  High     Up        Down     Drill)
(0.2500  	0.0500  	-0.0030 	-0.0730 )
(Settings from pcb-defaults.h)
(isolate min = 0.0050)
(isolate max = 0.0150)
(isolate step = 0.0015)
(Generated bottom outlines, bottom drill, )
(Unit of measure: inch)
(Inch Mode)
G20
(Absolute Coordinates)
G90
S15000
G00 Z0.2500  
G00 X0.0000  Y0.0000  
M03
G04 P0.000000
G00 Z0.0500  
G00 X0.0000  Y0.8000  
G01 Z-0.0700 F5     
G01 X-3.9500 Y0.8000  F10    
G01 X-3.9500 Y3.1000  
G01 X-3.9000 Y3.1500  
G01 X-0.0250 Y3.1500  
G01 X0.0500  Y3.0750  
G01 X0.0500  Y0.8500  
G01 X0.0000  Y0.8000  
G00 Z0.0500  
G00 X-0.0650 Y0.9000  
G01 Z-0.0700 F5     
G01 X-0.0650 Y0.9700  F10    
G01 X-0.1450 Y0.9700  
G01 X-0.1450 Y0.9000  
G01 X-0.0650 Y0.9000  
G00 Z0.0500  
G00 X-0.0900 Y2.9500  
G01 Z-0.0700 F5     
G01 X-0.0900 Y3.0200  F10    
G01 X-0.1700 Y3.0200  
G01 X-0.1700 Y2.9500  
G01 X-0.0900 Y2.9500  
G00 Z0.0500  
G00 X-3.7650 Y2.9750  
G01 Z-0.0700 F5     
G01 X-3.7650 Y3.0450  F10    
G01 X-3.8450 Y3.0450  
G01 X-3.8450 Y2.9750  
G01 X-3.7650 Y2.9750  
G00 Z0.2500  
M05
M02
