(/Applications/pcbgcode.repo/pcb-gcode.ulp)
(Copyright 2005 - 2012 by John Johnson)
(See readme.txt for licensing terms.)
(This file generated from the board:)
(.../atmega_midi_cv_drums/eagle/power_cv_distro.brd)
(Current profile is .../pcbgcode.repo/profiles/mach.pp  )
(This file generated 3/19/16 2:37 PM)
(Settings from pcb-machine.h)
(spindle on time = 0.0000)
(  Tool Size)
(0.0040  )
(spindle speed = 30000.0000)
(tool change at 0.0000  0.0000  3.0000  )
(feed rate xy = F20    )
(feed rate z  = F10    )
(Z Axis Settings)
(  High     Up        Down     Drill)
(0.2500  	0.0500  	-0.0030 	-0.0730 )
(Settings from pcb-defaults.h)
(isolate min = 0.0050)
(isolate max = 0.0150)
(isolate step = 0.0015)
(Generated bottom outlines, bottom drill, )
(Unit of measure: inch)
(Inch Mode)
G20
(Absolute Coordinates)
G90
S30000
G00 Z0.2500  
G00 X0.0000  Y0.0000  
M03
G04 P0.000000
G00 Z0.0500  
G00 X-0.3774 Y0.8771  
G01 Z-0.0030 F10    
G01 X-0.3786 Y0.8762  F20    
G01 X-0.3796 Y0.8751  
G01 X-0.3810 Y0.8742  
G01 X-0.3823 Y0.8731  
G01 X-0.3836 Y0.8725  
G01 X-0.3848 Y0.8716  
G01 X-0.3864 Y0.8710  
G01 X-0.3879 Y0.8702  
G01 X-0.3893 Y0.8698  
G01 X-0.3907 Y0.8692  
G01 X-0.3923 Y0.8689  
G01 X-0.3940 Y0.8684  
G01 X-0.3954 Y0.8683  
G01 X-0.3968 Y0.8680  
G01 X-0.3985 Y0.8680  
G01 X-0.4002 Y0.8678  
G01 X-0.4017 Y0.8680  
G01 X-0.5948 Y0.8680  
G01 X-0.6068 Y0.8560  
G01 X-0.6432 Y0.8560  
G01 X-0.6552 Y0.8680  
G01 X-0.6948 Y0.8680  
G01 X-0.7068 Y0.8560  
G01 X-0.7432 Y0.8560  
G01 X-0.7552 Y0.8680  
G01 X-1.0448 Y0.8680  
G01 X-1.0568 Y0.8560  
G01 X-1.0932 Y0.8560  
G01 X-1.1052 Y0.8680  
G01 X-1.1448 Y0.8680  
G01 X-1.1568 Y0.8560  
G01 X-1.1932 Y0.8560  
G01 X-1.2052 Y0.8680  
G01 X-1.4948 Y0.8680  
G01 X-1.5068 Y0.8560  
G01 X-1.5432 Y0.8560  
G01 X-1.5552 Y0.8680  
G01 X-1.5948 Y0.8680  
G01 X-1.6068 Y0.8560  
G01 X-1.6432 Y0.8560  
G01 X-1.6552 Y0.8680  
G01 X-1.9198 Y0.8680  
G01 X-1.9318 Y0.8560  
G01 X-1.9682 Y0.8560  
G01 X-1.9802 Y0.8680  
G01 X-2.0198 Y0.8680  
G01 X-2.0318 Y0.8560  
G01 X-2.0682 Y0.8560  
G01 X-2.0802 Y0.8680  
G01 X-2.3698 Y0.8680  
G01 X-2.3818 Y0.8560  
G01 X-2.4182 Y0.8560  
G01 X-2.4302 Y0.8680  
G01 X-2.4698 Y0.8680  
G01 X-2.4818 Y0.8560  
G01 X-2.5182 Y0.8560  
G01 X-2.5302 Y0.8680  
G01 X-2.8198 Y0.8680  
G01 X-2.8318 Y0.8560  
G01 X-2.8682 Y0.8560  
G01 X-2.8802 Y0.8680  
G01 X-2.9198 Y0.8680  
G01 X-2.9318 Y0.8560  
G01 X-2.9682 Y0.8560  
G01 X-2.9802 Y0.8680  
G01 X-3.2698 Y0.8680  
G01 X-3.2818 Y0.8560  
G01 X-3.3182 Y0.8560  
G01 X-3.3302 Y0.8680  
G01 X-3.3698 Y0.8680  
G01 X-3.3818 Y0.8560  
G01 X-3.4182 Y0.8560  
G01 X-3.4302 Y0.8680  
G01 X-3.6948 Y0.8680  
G01 X-3.7068 Y0.8560  
G01 X-3.7432 Y0.8560  
G01 X-3.7552 Y0.8680  
G01 X-3.7948 Y0.8680  
G01 X-3.8068 Y0.8560  
G01 X-3.8432 Y0.8560  
G01 X-3.8690 Y0.8818  
G01 X-3.8690 Y0.9182  
G01 X-3.8432 Y0.9440  
G01 X-3.8068 Y0.9440  
G01 X-3.7948 Y0.9320  
G01 X-3.7552 Y0.9320  
G01 X-3.7432 Y0.9440  
G01 X-3.7068 Y0.9440  
G01 X-3.6948 Y0.9320  
G01 X-3.4302 Y0.9320  
G01 X-3.4182 Y0.9440  
G01 X-3.3818 Y0.9440  
G01 X-3.3698 Y0.9320  
G01 X-3.3302 Y0.9320  
G01 X-3.3182 Y0.9440  
G01 X-3.2818 Y0.9440  
G01 X-3.2698 Y0.9320  
G01 X-2.9802 Y0.9320  
G01 X-2.9682 Y0.9440  
G01 X-2.9318 Y0.9440  
G01 X-2.9198 Y0.9320  
G01 X-2.8802 Y0.9320  
G01 X-2.8682 Y0.9440  
G01 X-2.8318 Y0.9440  
G01 X-2.8198 Y0.9320  
G01 X-2.5302 Y0.9320  
G01 X-2.5182 Y0.9440  
G01 X-2.4818 Y0.9440  
G01 X-2.4698 Y0.9320  
G01 X-2.4302 Y0.9320  
G01 X-2.4182 Y0.9440  
G01 X-2.3818 Y0.9440  
G01 X-2.3698 Y0.9320  
G01 X-2.0802 Y0.9320  
G01 X-2.0682 Y0.9440  
G01 X-2.0318 Y0.9440  
G01 X-2.0198 Y0.9320  
G01 X-1.9802 Y0.9320  
G01 X-1.9682 Y0.9440  
G01 X-1.9318 Y0.9440  
G01 X-1.9198 Y0.9320  
G01 X-1.6552 Y0.9320  
G01 X-1.6432 Y0.9440  
G01 X-1.6068 Y0.9440  
G01 X-1.5948 Y0.9320  
G01 X-1.5552 Y0.9320  
G01 X-1.5432 Y0.9440  
G01 X-1.5068 Y0.9440  
G01 X-1.4948 Y0.9320  
G01 X-1.2052 Y0.9320  
G01 X-1.1932 Y0.9440  
G01 X-1.1568 Y0.9440  
G01 X-1.1448 Y0.9320  
G01 X-1.1052 Y0.9320  
G01 X-1.0932 Y0.9440  
G01 X-1.0568 Y0.9440  
G01 X-1.0448 Y0.9320  
G01 X-0.7552 Y0.9320  
G01 X-0.7432 Y0.9440  
G01 X-0.7068 Y0.9440  
G01 X-0.6948 Y0.9320  
G01 X-0.6552 Y0.9320  
G01 X-0.6432 Y0.9440  
G01 X-0.6068 Y0.9440  
G01 X-0.5948 Y0.9320  
G01 X-0.4150 Y0.9320  
G01 X-0.1816 Y1.2121  
G01 X-0.1582 Y1.8680  
G01 X-0.1948 Y1.8680  
G01 X-0.2068 Y1.8560  
G01 X-0.2432 Y1.8560  
G01 X-0.2690 Y1.8818  
G01 X-0.2690 Y1.9182  
G01 X-0.2432 Y1.9440  
G01 X-0.2068 Y1.9440  
G01 X-0.1948 Y1.9320  
G01 X-0.1552 Y1.9320  
G01 X-0.1432 Y1.9440  
G01 X-0.1068 Y1.9440  
G01 X-0.0810 Y1.9182  
G01 X-0.0810 Y1.8818  
G01 X-0.0941 Y1.8687  
G01 X-0.1179 Y1.2009  
G01 X-0.1178 Y1.1998  
G01 X-0.1181 Y1.1977  
G01 X-0.1181 Y1.1957  
G01 X-0.1184 Y1.1946  
G01 X-0.1185 Y1.1935  
G01 X-0.1191 Y1.1916  
G01 X-0.1196 Y1.1896  
G01 X-0.1201 Y1.1885  
G01 X-0.1204 Y1.1875  
G01 X-0.1214 Y1.1857  
G01 X-0.1222 Y1.1838  
G01 X-0.1229 Y1.1829  
G01 X-0.1234 Y1.1819  
G01 X-0.1247 Y1.1804  
G01 X-0.1259 Y1.1787  
G01 X-0.1267 Y1.1780  
G01 X-0.3743 Y0.8808  
G01 X-0.3751 Y0.8796  
G01 X-0.3763 Y0.8784  
G01 X-0.3774 Y0.8771  
G00 Z0.0500  
G00 X-0.3764 Y1.1180  
G01 Z-0.0030 F10    
G01 X-0.5688 Y1.1180  F20    
G01 X-0.5810 Y1.1058  
G01 X-0.5810 Y1.0818  
G01 X-0.5930 Y1.0698  
G01 X-0.5930 Y1.0302  
G01 X-0.5810 Y1.0182  
G01 X-0.5810 Y0.9818  
G01 X-0.6068 Y0.9560  
G01 X-0.6432 Y0.9560  
G01 X-0.6552 Y0.9680  
G01 X-0.6948 Y0.9680  
G01 X-0.7068 Y0.9560  
G01 X-0.7432 Y0.9560  
G01 X-0.7552 Y0.9680  
G01 X-1.0448 Y0.9680  
G01 X-1.0568 Y0.9560  
G01 X-1.0932 Y0.9560  
G01 X-1.1052 Y0.9680  
G01 X-1.1448 Y0.9680  
G01 X-1.1568 Y0.9560  
G01 X-1.1932 Y0.9560  
G01 X-1.2052 Y0.9680  
G01 X-1.4948 Y0.9680  
G01 X-1.5068 Y0.9560  
G01 X-1.5432 Y0.9560  
G01 X-1.5552 Y0.9680  
G01 X-1.5948 Y0.9680  
G01 X-1.6068 Y0.9560  
G01 X-1.6432 Y0.9560  
G01 X-1.6552 Y0.9680  
G01 X-1.9198 Y0.9680  
G01 X-1.9318 Y0.9560  
G01 X-1.9682 Y0.9560  
G01 X-1.9802 Y0.9680  
G01 X-2.0198 Y0.9680  
G01 X-2.0318 Y0.9560  
G01 X-2.0682 Y0.9560  
G01 X-2.0802 Y0.9680  
G01 X-2.3698 Y0.9680  
G01 X-2.3818 Y0.9560  
G01 X-2.4182 Y0.9560  
G01 X-2.4302 Y0.9680  
G01 X-2.4698 Y0.9680  
G01 X-2.4818 Y0.9560  
G01 X-2.5182 Y0.9560  
G01 X-2.5302 Y0.9680  
G01 X-2.8198 Y0.9680  
G01 X-2.8318 Y0.9560  
G01 X-2.8682 Y0.9560  
G01 X-2.8802 Y0.9680  
G01 X-2.9198 Y0.9680  
G01 X-2.9318 Y0.9560  
G01 X-2.9682 Y0.9560  
G01 X-2.9802 Y0.9680  
G01 X-3.2698 Y0.9680  
G01 X-3.2818 Y0.9560  
G01 X-3.3182 Y0.9560  
G01 X-3.3302 Y0.9680  
G01 X-3.3698 Y0.9680  
G01 X-3.3818 Y0.9560  
G01 X-3.4182 Y0.9560  
G01 X-3.4302 Y0.9680  
G01 X-3.6948 Y0.9680  
G01 X-3.7068 Y0.9560  
G01 X-3.7432 Y0.9560  
G01 X-3.7552 Y0.9680  
G01 X-3.7948 Y0.9680  
G01 X-3.8068 Y0.9560  
G01 X-3.8432 Y0.9560  
G01 X-3.8690 Y0.9818  
G01 X-3.8690 Y1.0182  
G01 X-3.8570 Y1.0302  
G01 X-3.8570 Y1.0698  
G01 X-3.8690 Y1.0818  
G01 X-3.8690 Y1.1182  
G01 X-3.8570 Y1.1302  
G01 X-3.8570 Y1.1698  
G01 X-3.8690 Y1.1818  
G01 X-3.8690 Y1.2182  
G01 X-3.8432 Y1.2440  
G01 X-3.8068 Y1.2440  
G01 X-3.7948 Y1.2320  
G01 X-3.7552 Y1.2320  
G01 X-3.7432 Y1.2440  
G01 X-3.7068 Y1.2440  
G01 X-3.6948 Y1.2320  
G01 X-3.4302 Y1.2320  
G01 X-3.4182 Y1.2440  
G01 X-3.3818 Y1.2440  
G01 X-3.3698 Y1.2320  
G01 X-3.3302 Y1.2320  
G01 X-3.3182 Y1.2440  
G01 X-3.2818 Y1.2440  
G01 X-3.2698 Y1.2320  
G01 X-2.9802 Y1.2320  
G01 X-2.9682 Y1.2440  
G01 X-2.9318 Y1.2440  
G01 X-2.9198 Y1.2320  
G01 X-2.8802 Y1.2320  
G01 X-2.8682 Y1.2440  
G01 X-2.8318 Y1.2440  
G01 X-2.8198 Y1.2320  
G01 X-2.5302 Y1.2320  
G01 X-2.5182 Y1.2440  
G01 X-2.4818 Y1.2440  
G01 X-2.4698 Y1.2320  
G01 X-2.4302 Y1.2320  
G01 X-2.4182 Y1.2440  
G01 X-2.3818 Y1.2440  
G01 X-2.3698 Y1.2320  
G01 X-2.0802 Y1.2320  
G01 X-2.0682 Y1.2440  
G01 X-2.0318 Y1.2440  
G01 X-2.0198 Y1.2320  
G01 X-1.9802 Y1.2320  
G01 X-1.9682 Y1.2440  
G01 X-1.9318 Y1.2440  
G01 X-1.9198 Y1.2320  
G01 X-1.6552 Y1.2320  
G01 X-1.6432 Y1.2440  
G01 X-1.6068 Y1.2440  
G01 X-1.5948 Y1.2320  
G01 X-1.5552 Y1.2320  
G01 X-1.5432 Y1.2440  
G01 X-1.5068 Y1.2440  
G01 X-1.4948 Y1.2320  
G01 X-1.2052 Y1.2320  
G01 X-1.1932 Y1.2440  
G01 X-1.1568 Y1.2440  
G01 X-1.1448 Y1.2320  
G01 X-1.1052 Y1.2320  
G01 X-1.0932 Y1.2440  
G01 X-1.0568 Y1.2440  
G01 X-1.0448 Y1.2320  
G01 X-0.7552 Y1.2320  
G01 X-0.7432 Y1.2440  
G01 X-0.7068 Y1.2440  
G01 X-0.6948 Y1.2320  
G01 X-0.6552 Y1.2320  
G01 X-0.6432 Y1.2440  
G01 X-0.6068 Y1.2440  
G01 X-0.5810 Y1.2182  
G01 X-0.5810 Y1.1818  
G01 X-0.5814 Y1.1813  
G01 X-0.5782 Y1.1820  
G01 X-0.3904 Y1.1820  
G01 X-0.3070 Y1.2862  
G01 X-0.3070 Y1.7188  
G01 X-0.3546 Y1.8379  
G01 X-0.3558 Y1.8407  
G01 X-0.3558 Y1.8409  
G01 X-0.3559 Y1.8410  
G01 X-0.3564 Y1.8439  
G01 X-0.3570 Y1.8468  
G01 X-0.3570 Y1.8470  
G01 X-0.3570 Y1.8472  
G01 X-0.3570 Y1.8502  
G01 X-0.3570 Y1.9730  
G01 X-0.3571 Y1.9741  
G01 X-0.3570 Y1.9761  
G01 X-0.3570 Y1.9782  
G01 X-0.3568 Y1.9793  
G01 X-0.3567 Y1.9804  
G01 X-0.3562 Y1.9824  
G01 X-0.3558 Y1.9843  
G01 X-0.3553 Y1.9854  
G01 X-0.3550 Y1.9865  
G01 X-0.3541 Y1.9883  
G01 X-0.3534 Y1.9902  
G01 X-0.3527 Y1.9911  
G01 X-0.3522 Y1.9921  
G01 X-0.3510 Y1.9937  
G01 X-0.3499 Y1.9954  
G01 X-0.3490 Y1.9962  
G01 X-0.3483 Y1.9971  
G01 X-0.3468 Y1.9984  
G01 X-0.3454 Y1.9999  
G01 X-0.3444 Y2.0005  
G01 X-0.3436 Y2.0012  
G01 X-0.3418 Y2.0022  
G01 X-0.3402 Y2.0034  
G01 X-0.3391 Y2.0038  
G01 X-0.3381 Y2.0044  
G01 X-0.3362 Y2.0050  
G01 X-0.3343 Y2.0058  
G01 X-0.3332 Y2.0060  
G01 X-0.2820 Y2.0231  
G01 X-0.2820 Y2.0782  
G01 X-0.2808 Y2.0843  
G01 X-0.2784 Y2.0902  
G01 X-0.2749 Y2.0954  
G01 X-0.2690 Y2.1013  
G01 X-0.2690 Y2.1182  
G01 X-0.2570 Y2.1302  
G01 X-0.2570 Y2.1698  
G01 X-0.2690 Y2.1818  
G01 X-0.2690 Y2.2182  
G01 X-0.2432 Y2.2440  
G01 X-0.2068 Y2.2440  
G01 X-0.1948 Y2.2320  
G01 X-0.1552 Y2.2320  
G01 X-0.1432 Y2.2440  
G01 X-0.1068 Y2.2440  
G01 X-0.1007 Y2.2380  
G01 X-0.0570 Y2.2671  
G01 X-0.0570 Y2.7329  
G01 X-0.1131 Y2.7703  
G01 X-0.3070 Y2.8188  
G01 X-0.3093 Y2.8192  
G01 X-0.3100 Y2.8195  
G01 X-0.3108 Y2.8197  
G01 X-0.3129 Y2.8207  
G01 X-0.3151 Y2.8216  
G01 X-0.3158 Y2.8221  
G01 X-0.3165 Y2.8224  
G01 X-0.3184 Y2.8238  
G01 X-0.4597 Y2.9180  
G01 X-0.4776 Y2.9180  
G01 X-0.4841 Y2.9115  
G01 X-0.5159 Y2.9115  
G01 X-0.5224 Y2.9180  
G01 X-0.5617 Y2.9180  
G01 X-0.5930 Y2.8867  
G01 X-0.5930 Y2.7647  
G01 X-0.5920 Y2.7637  
G01 X-0.5920 Y2.7363  
G01 X-0.6113 Y2.7170  
G01 X-0.6387 Y2.7170  
G01 X-0.6580 Y2.7363  
G01 X-0.6580 Y2.7377  
G01 X-0.7383 Y2.8180  
G01 X-0.8032 Y2.8180  
G01 X-0.8093 Y2.8192  
G01 X-0.8251 Y2.8193  
G01 X-0.8277 Y2.8203  
G01 X-0.8297 Y2.8223  
G01 X-0.8307 Y2.8249  
G01 X-0.8307 Y2.8406  
G01 X-0.8320 Y2.8468  
G01 X-0.8320 Y2.8532  
G01 X-0.8308 Y2.8593  
G01 X-0.8307 Y2.8751  
G01 X-0.8297 Y2.8777  
G01 X-0.8277 Y2.8797  
G01 X-0.8251 Y2.8807  
G01 X-0.8094 Y2.8807  
G01 X-0.8032 Y2.8820  
G01 X-0.7218 Y2.8820  
G01 X-0.7157 Y2.8808  
G01 X-0.7098 Y2.8784  
G01 X-0.7046 Y2.8749  
G01 X-0.7001 Y2.8704  
G01 X-0.6570 Y2.8273  
G01 X-0.6570 Y2.9032  
G01 X-0.6558 Y2.9093  
G01 X-0.6534 Y2.9152  
G01 X-0.6499 Y2.9204  
G01 X-0.6454 Y2.9249  
G01 X-0.5954 Y2.9749  
G01 X-0.5902 Y2.9784  
G01 X-0.5843 Y2.9808  
G01 X-0.5782 Y2.9820  
G01 X-0.5224 Y2.9820  
G01 X-0.5159 Y2.9885  
G01 X-0.4841 Y2.9885  
G01 X-0.4776 Y2.9820  
G01 X-0.4500 Y2.9820  
G01 X-0.4469 Y2.9820  
G01 X-0.4438 Y2.9814  
G01 X-0.4407 Y2.9808  
G01 X-0.4378 Y2.9796  
G01 X-0.4349 Y2.9784  
G01 X-0.4322 Y2.9766  
G01 X-0.2869 Y2.8797  
G01 X-0.0930 Y2.8312  
G01 X-0.0907 Y2.8308  
G01 X-0.0900 Y2.8305  
G01 X-0.0892 Y2.8303  
G01 X-0.0871 Y2.8293  
G01 X-0.0849 Y2.8284  
G01 X-0.0842 Y2.8279  
G01 X-0.0835 Y2.8276  
G01 X-0.0816 Y2.8262  
G01 X-0.0099 Y2.7784  
G01 X-0.0072 Y2.7766  
G01 X-0.0046 Y2.7749  
G01 X-0.0023 Y2.7726  
G01 X-0.0002 Y2.7704  
G01 X0.0016  Y2.7678  
G01 X0.0033  Y2.7652  
G01 X0.0046  Y2.7622  
G01 X0.0058  Y2.7594  
G01 X0.0064  Y2.7562  
G01 X0.0070  Y2.7532  
G01 X0.0070  Y2.7500  
G01 X0.0070  Y2.7469  
G01 X0.0070  Y2.2531  
G01 X0.0070  Y2.2500  
G01 X0.0070  Y2.2468  
G01 X0.0064  Y2.2438  
G01 X0.0058  Y2.2407  
G01 X0.0046  Y2.2378  
G01 X0.0034  Y2.2348  
G01 X0.0016  Y2.2322  
G01 X-0.0001 Y2.2296  
G01 X-0.0023 Y2.2274  
G01 X-0.0046 Y2.2251  
G01 X-0.0072 Y2.2234  
G01 X-0.0098 Y2.2216  
G01 X-0.0822 Y2.1734  
G01 X-0.0848 Y2.1716  
G01 X-0.0878 Y2.1704  
G01 X-0.0907 Y2.1692  
G01 X-0.0930 Y2.1688  
G01 X-0.0930 Y2.1302  
G01 X-0.0810 Y2.1182  
G01 X-0.0810 Y2.0818  
G01 X-0.0930 Y2.0698  
G01 X-0.0930 Y2.0302  
G01 X-0.0810 Y2.0182  
G01 X-0.0810 Y1.9818  
G01 X-0.1068 Y1.9560  
G01 X-0.1432 Y1.9560  
G01 X-0.1552 Y1.9680  
G01 X-0.1948 Y1.9680  
G01 X-0.2068 Y1.9560  
G01 X-0.2432 Y1.9560  
G01 X-0.2526 Y1.9654  
G01 X-0.2930 Y1.9519  
G01 X-0.2930 Y1.8562  
G01 X-0.2454 Y1.7371  
G01 X-0.2442 Y1.7343  
G01 X-0.2442 Y1.7341  
G01 X-0.2441 Y1.7340  
G01 X-0.2436 Y1.7311  
G01 X-0.2430 Y1.7282  
G01 X-0.2430 Y1.7280  
G01 X-0.2430 Y1.7278  
G01 X-0.2430 Y1.7248  
G01 X-0.2430 Y1.2768  
G01 X-0.2428 Y1.2754  
G01 X-0.2430 Y1.2736  
G01 X-0.2430 Y1.2718  
G01 X-0.2433 Y1.2705  
G01 X-0.2434 Y1.2691  
G01 X-0.2439 Y1.2674  
G01 X-0.2442 Y1.2657  
G01 X-0.2448 Y1.2644  
G01 X-0.2451 Y1.2631  
G01 X-0.2460 Y1.2615  
G01 X-0.2466 Y1.2598  
G01 X-0.2474 Y1.2587  
G01 X-0.2480 Y1.2575  
G01 X-0.2492 Y1.2561  
G01 X-0.2501 Y1.2546  
G01 X-0.2511 Y1.2536  
G01 X-0.3492 Y1.1311  
G01 X-0.3501 Y1.1296  
G01 X-0.3511 Y1.1286  
G01 X-0.3520 Y1.1275  
G01 X-0.3533 Y1.1264  
G01 X-0.3546 Y1.1251  
G01 X-0.3557 Y1.1244  
G01 X-0.3568 Y1.1235  
G01 X-0.3584 Y1.1226  
G01 X-0.3598 Y1.1216  
G01 X-0.3611 Y1.1211  
G01 X-0.3623 Y1.1204  
G01 X-0.3640 Y1.1199  
G01 X-0.3657 Y1.1192  
G01 X-0.3670 Y1.1190  
G01 X-0.3683 Y1.1185  
G01 X-0.3701 Y1.1183  
G01 X-0.3718 Y1.1180  
G01 X-0.3732 Y1.1180  
G01 X-0.3746 Y1.1178  
G01 X-0.3764 Y1.1180  
G00 Z0.0500  
G00 X-0.4046 Y1.2751  
G01 Z-0.0030 F10    
G01 X-0.4098 Y1.2716  F20    
G01 X-0.4157 Y1.2692  
G01 X-0.4218 Y1.2680  
G01 X-0.5948 Y1.2680  
G01 X-0.6068 Y1.2560  
G01 X-0.6432 Y1.2560  
G01 X-0.6552 Y1.2680  
G01 X-0.6948 Y1.2680  
G01 X-0.7068 Y1.2560  
G01 X-0.7432 Y1.2560  
G01 X-0.7552 Y1.2680  
G01 X-1.0448 Y1.2680  
G01 X-1.0568 Y1.2560  
G01 X-1.0932 Y1.2560  
G01 X-1.1052 Y1.2680  
G01 X-1.1448 Y1.2680  
G01 X-1.1568 Y1.2560  
G01 X-1.1932 Y1.2560  
G01 X-1.2052 Y1.2680  
G01 X-1.4948 Y1.2680  
G01 X-1.5068 Y1.2560  
G01 X-1.5432 Y1.2560  
G01 X-1.5552 Y1.2680  
G01 X-1.5948 Y1.2680  
G01 X-1.6068 Y1.2560  
G01 X-1.6432 Y1.2560  
G01 X-1.6552 Y1.2680  
G01 X-1.9198 Y1.2680  
G01 X-1.9318 Y1.2560  
G01 X-1.9682 Y1.2560  
G01 X-1.9802 Y1.2680  
G01 X-2.0198 Y1.2680  
G01 X-2.0318 Y1.2560  
G01 X-2.0682 Y1.2560  
G01 X-2.0802 Y1.2680  
G01 X-2.3698 Y1.2680  
G01 X-2.3818 Y1.2560  
G01 X-2.4182 Y1.2560  
G01 X-2.4302 Y1.2680  
G01 X-2.4698 Y1.2680  
G01 X-2.4818 Y1.2560  
G01 X-2.5182 Y1.2560  
G01 X-2.5302 Y1.2680  
G01 X-2.8198 Y1.2680  
G01 X-2.8318 Y1.2560  
G01 X-2.8682 Y1.2560  
G01 X-2.8802 Y1.2680  
G01 X-2.9198 Y1.2680  
G01 X-2.9318 Y1.2560  
G01 X-2.9682 Y1.2560  
G01 X-2.9802 Y1.2680  
G01 X-3.2698 Y1.2680  
G01 X-3.2818 Y1.2560  
G01 X-3.3182 Y1.2560  
G01 X-3.3302 Y1.2680  
G01 X-3.3698 Y1.2680  
G01 X-3.3818 Y1.2560  
G01 X-3.4182 Y1.2560  
G01 X-3.4302 Y1.2680  
G01 X-3.6948 Y1.2680  
G01 X-3.7068 Y1.2560  
G01 X-3.7432 Y1.2560  
G01 X-3.7552 Y1.2680  
G01 X-3.7948 Y1.2680  
G01 X-3.8068 Y1.2560  
G01 X-3.8432 Y1.2560  
G01 X-3.8690 Y1.2818  
G01 X-3.8690 Y1.3182  
G01 X-3.8432 Y1.3440  
G01 X-3.8068 Y1.3440  
G01 X-3.7948 Y1.3320  
G01 X-3.7552 Y1.3320  
G01 X-3.7432 Y1.3440  
G01 X-3.7068 Y1.3440  
G01 X-3.6948 Y1.3320  
G01 X-3.4302 Y1.3320  
G01 X-3.4182 Y1.3440  
G01 X-3.3818 Y1.3440  
G01 X-3.3698 Y1.3320  
G01 X-3.3302 Y1.3320  
G01 X-3.3182 Y1.3440  
G01 X-3.2818 Y1.3440  
G01 X-3.2698 Y1.3320  
G01 X-2.9802 Y1.3320  
G01 X-2.9682 Y1.3440  
G01 X-2.9318 Y1.3440  
G01 X-2.9198 Y1.3320  
G01 X-2.8802 Y1.3320  
G01 X-2.8682 Y1.3440  
G01 X-2.8318 Y1.3440  
G01 X-2.8198 Y1.3320  
G01 X-2.5302 Y1.3320  
G01 X-2.5182 Y1.3440  
G01 X-2.4818 Y1.3440  
G01 X-2.4698 Y1.3320  
G01 X-2.4302 Y1.3320  
G01 X-2.4182 Y1.3440  
G01 X-2.3818 Y1.3440  
G01 X-2.3698 Y1.3320  
G01 X-2.0802 Y1.3320  
G01 X-2.0682 Y1.3440  
G01 X-2.0318 Y1.3440  
G01 X-2.0198 Y1.3320  
G01 X-1.9802 Y1.3320  
G01 X-1.9682 Y1.3440  
G01 X-1.9318 Y1.3440  
G01 X-1.9198 Y1.3320  
G01 X-1.6552 Y1.3320  
G01 X-1.6432 Y1.3440  
G01 X-1.6068 Y1.3440  
G01 X-1.5948 Y1.3320  
G01 X-1.5552 Y1.3320  
G01 X-1.5432 Y1.3440  
G01 X-1.5068 Y1.3440  
G01 X-1.4948 Y1.3320  
G01 X-1.2052 Y1.3320  
G01 X-1.1932 Y1.3440  
G01 X-1.1568 Y1.3440  
G01 X-1.1448 Y1.3320  
G01 X-1.1052 Y1.3320  
G01 X-1.0932 Y1.3440  
G01 X-1.0568 Y1.3440  
G01 X-1.0448 Y1.3320  
G01 X-0.7552 Y1.3320  
G01 X-0.7432 Y1.3440  
G01 X-0.7068 Y1.3440  
G01 X-0.6948 Y1.3320  
G01 X-0.6552 Y1.3320  
G01 X-0.6432 Y1.3440  
G01 X-0.6068 Y1.3440  
G01 X-0.5948 Y1.3320  
G01 X-0.4383 Y1.3320  
G01 X-0.4070 Y1.3633  
G01 X-0.4070 Y1.6924  
G01 X-0.5027 Y1.8839  
G01 X-0.5034 Y1.8848  
G01 X-0.5041 Y1.8867  
G01 X-0.5050 Y1.8885  
G01 X-0.5053 Y1.8896  
G01 X-0.5058 Y1.8907  
G01 X-0.5062 Y1.8926  
G01 X-0.5067 Y1.8946  
G01 X-0.5068 Y1.8957  
G01 X-0.5070 Y1.8968  
G01 X-0.5070 Y1.8989  
G01 X-0.5071 Y1.9009  
G01 X-0.5070 Y1.9020  
G01 X-0.5070 Y2.2199  
G01 X-0.5093 Y2.2223  
G01 X-0.5135 Y2.2280  
G01 X-0.5167 Y2.2343  
G01 X-0.5189 Y2.2410  
G01 X-0.5200 Y2.2480  
G01 X-0.5200 Y2.2551  
G01 X-0.5189 Y2.2621  
G01 X-0.5167 Y2.2688  
G01 X-0.5135 Y2.2752  
G01 X-0.5093 Y2.2809  
G01 X-0.5043 Y2.2859  
G01 X-0.4986 Y2.2901  
G01 X-0.4923 Y2.2933  
G01 X-0.4855 Y2.2955  
G01 X-0.4785 Y2.2966  
G01 X-0.4715 Y2.2966  
G01 X-0.4645 Y2.2955  
G01 X-0.4577 Y2.2933  
G01 X-0.4514 Y2.2901  
G01 X-0.3058 Y2.3316  
G01 X-0.2995 Y2.3322  
G01 X-0.2932 Y2.3314  
G01 X-0.2872 Y2.3295  
G01 X-0.2827 Y2.3270  
G01 X-0.2602 Y2.3270  
G01 X-0.2432 Y2.3440  
G01 X-0.2068 Y2.3440  
G01 X-0.1948 Y2.3320  
G01 X-0.1552 Y2.3320  
G01 X-0.1432 Y2.3440  
G01 X-0.1068 Y2.3440  
G01 X-0.0810 Y2.3182  
G01 X-0.0810 Y2.2818  
G01 X-0.1068 Y2.2560  
G01 X-0.1432 Y2.2560  
G01 X-0.1552 Y2.2680  
G01 X-0.1948 Y2.2680  
G01 X-0.2068 Y2.2560  
G01 X-0.2432 Y2.2560  
G01 X-0.2602 Y2.2730  
G01 X-0.2825 Y2.2730  
G01 X-0.2882 Y2.2701  
G01 X-0.4368 Y2.2276  
G01 X-0.4407 Y2.2223  
G01 X-0.4430 Y2.2199  
G01 X-0.4430 Y1.9076  
G01 X-0.3473 Y1.7161  
G01 X-0.3466 Y1.7152  
G01 X-0.3459 Y1.7133  
G01 X-0.3450 Y1.7115  
G01 X-0.3447 Y1.7104  
G01 X-0.3442 Y1.7093  
G01 X-0.3438 Y1.7074  
G01 X-0.3433 Y1.7054  
G01 X-0.3432 Y1.7043  
G01 X-0.3430 Y1.7032  
G01 X-0.3430 Y1.7011  
G01 X-0.3429 Y1.6991  
G01 X-0.3430 Y1.6980  
G01 X-0.3430 Y1.3468  
G01 X-0.3442 Y1.3407  
G01 X-0.3466 Y1.3348  
G01 X-0.3501 Y1.3296  
G01 X-0.3546 Y1.3251  
G01 X-0.4046 Y1.2751  
G00 Z0.0500  
G00 X-0.4502 Y1.4296  
G01 Z-0.0030 F10    
G01 X-0.4523 Y1.4274  F20    
G01 X-0.4546 Y1.4251  
G01 X-0.4572 Y1.4234  
G01 X-0.4598 Y1.4216  
G01 X-0.5322 Y1.3734  
G01 X-0.5348 Y1.3716  
G01 X-0.5378 Y1.3704  
G01 X-0.5407 Y1.3692  
G01 X-0.5438 Y1.3686  
G01 X-0.5468 Y1.3680  
G01 X-0.5500 Y1.3680  
G01 X-0.5948 Y1.3680  
G01 X-0.6068 Y1.3560  
G01 X-0.6432 Y1.3560  
G01 X-0.6552 Y1.3680  
G01 X-0.6948 Y1.3680  
G01 X-0.7068 Y1.3560  
G01 X-0.7432 Y1.3560  
G01 X-0.7552 Y1.3680  
G01 X-1.0448 Y1.3680  
G01 X-1.0568 Y1.3560  
G01 X-1.0932 Y1.3560  
G01 X-1.1052 Y1.3680  
G01 X-1.1448 Y1.3680  
G01 X-1.1568 Y1.3560  
G01 X-1.1932 Y1.3560  
G01 X-1.2052 Y1.3680  
G01 X-1.4948 Y1.3680  
G01 X-1.5068 Y1.3560  
G01 X-1.5432 Y1.3560  
G01 X-1.5552 Y1.3680  
G01 X-1.5948 Y1.3680  
G01 X-1.6068 Y1.3560  
G01 X-1.6432 Y1.3560  
G01 X-1.6552 Y1.3680  
G01 X-1.9198 Y1.3680  
G01 X-1.9318 Y1.3560  
G01 X-1.9682 Y1.3560  
G01 X-1.9802 Y1.3680  
G01 X-2.0198 Y1.3680  
G01 X-2.0318 Y1.3560  
G01 X-2.0682 Y1.3560  
G01 X-2.0802 Y1.3680  
G01 X-2.3698 Y1.3680  
G01 X-2.3818 Y1.3560  
G01 X-2.4182 Y1.3560  
G01 X-2.4302 Y1.3680  
G01 X-2.4698 Y1.3680  
G01 X-2.4818 Y1.3560  
G01 X-2.5182 Y1.3560  
G01 X-2.5302 Y1.3680  
G01 X-2.8198 Y1.3680  
G01 X-2.8318 Y1.3560  
G01 X-2.8682 Y1.3560  
G01 X-2.8802 Y1.3680  
G01 X-2.9198 Y1.3680  
G01 X-2.9318 Y1.3560  
G01 X-2.9682 Y1.3560  
G01 X-2.9802 Y1.3680  
G01 X-3.2698 Y1.3680  
G01 X-3.2818 Y1.3560  
G01 X-3.3182 Y1.3560  
G01 X-3.3302 Y1.3680  
G01 X-3.3698 Y1.3680  
G01 X-3.3818 Y1.3560  
G01 X-3.4182 Y1.3560  
G01 X-3.4302 Y1.3680  
G01 X-3.6948 Y1.3680  
G01 X-3.7068 Y1.3560  
G01 X-3.7432 Y1.3560  
G01 X-3.7552 Y1.3680  
G01 X-3.7948 Y1.3680  
G01 X-3.8068 Y1.3560  
G01 X-3.8432 Y1.3560  
G01 X-3.8690 Y1.3818  
G01 X-3.8690 Y1.4182  
G01 X-3.8432 Y1.4440  
G01 X-3.8068 Y1.4440  
G01 X-3.7948 Y1.4320  
G01 X-3.7552 Y1.4320  
G01 X-3.7432 Y1.4440  
G01 X-3.7068 Y1.4440  
G01 X-3.6948 Y1.4320  
G01 X-3.4302 Y1.4320  
G01 X-3.4182 Y1.4440  
G01 X-3.3818 Y1.4440  
G01 X-3.3698 Y1.4320  
G01 X-3.3302 Y1.4320  
G01 X-3.3182 Y1.4440  
G01 X-3.2818 Y1.4440  
G01 X-3.2698 Y1.4320  
G01 X-2.9802 Y1.4320  
G01 X-2.9682 Y1.4440  
G01 X-2.9318 Y1.4440  
G01 X-2.9198 Y1.4320  
G01 X-2.8802 Y1.4320  
G01 X-2.8682 Y1.4440  
G01 X-2.8318 Y1.4440  
G01 X-2.8198 Y1.4320  
G01 X-2.5302 Y1.4320  
G01 X-2.5182 Y1.4440  
G01 X-2.4818 Y1.4440  
G01 X-2.4698 Y1.4320  
G01 X-2.4302 Y1.4320  
G01 X-2.4182 Y1.4440  
G01 X-2.3818 Y1.4440  
G01 X-2.3698 Y1.4320  
G01 X-2.0802 Y1.4320  
G01 X-2.0682 Y1.4440  
G01 X-2.0318 Y1.4440  
G01 X-2.0198 Y1.4320  
G01 X-1.9802 Y1.4320  
G01 X-1.9682 Y1.4440  
G01 X-1.9318 Y1.4440  
G01 X-1.9198 Y1.4320  
G01 X-1.6552 Y1.4320  
G01 X-1.6432 Y1.4440  
G01 X-1.6068 Y1.4440  
G01 X-1.5948 Y1.4320  
G01 X-1.5552 Y1.4320  
G01 X-1.5432 Y1.4440  
G01 X-1.5068 Y1.4440  
G01 X-1.4948 Y1.4320  
G01 X-1.2052 Y1.4320  
G01 X-1.1932 Y1.4440  
G01 X-1.1568 Y1.4440  
G01 X-1.1448 Y1.4320  
G01 X-1.1052 Y1.4320  
G01 X-1.0932 Y1.4440  
G01 X-1.0568 Y1.4440  
G01 X-1.0448 Y1.4320  
G01 X-0.7552 Y1.4320  
G01 X-0.7432 Y1.4440  
G01 X-0.7068 Y1.4440  
G01 X-0.6948 Y1.4320  
G01 X-0.6552 Y1.4320  
G01 X-0.6432 Y1.4440  
G01 X-0.6068 Y1.4440  
G01 X-0.5948 Y1.4320  
G01 X-0.5597 Y1.4320  
G01 X-0.5070 Y1.4671  
G01 X-0.5070 Y1.6682  
G01 X-0.6031 Y1.8845  
G01 X-0.6034 Y1.8848  
G01 X-0.6044 Y1.8874  
G01 X-0.6055 Y1.8899  
G01 X-0.6056 Y1.8903  
G01 X-0.6058 Y1.8907  
G01 X-0.6063 Y1.8934  
G01 X-0.6069 Y1.8960  
G01 X-0.6069 Y1.8964  
G01 X-0.6070 Y1.8968  
G01 X-0.6070 Y1.8996  
G01 X-0.6071 Y1.9023  
G01 X-0.6070 Y1.9027  
G01 X-0.6070 Y2.3248  
G01 X-0.6070 Y2.3277  
G01 X-0.6070 Y2.3279  
G01 X-0.6070 Y2.3282  
G01 X-0.6064 Y2.3310  
G01 X-0.6059 Y2.3339  
G01 X-0.6058 Y2.3341  
G01 X-0.6058 Y2.3343  
G01 X-0.6047 Y2.3370  
G01 X-0.6036 Y2.3397  
G01 X-0.6034 Y2.3399  
G01 X-0.6034 Y2.3402  
G01 X-0.6017 Y2.3426  
G01 X-0.6002 Y2.3450  
G01 X-0.6000 Y2.3452  
G01 X-0.5999 Y2.3454  
G01 X-0.5978 Y2.3475  
G01 X-0.5958 Y2.3496  
G01 X-0.5956 Y2.3497  
G01 X-0.5954 Y2.3499  
G01 X-0.5930 Y2.3515  
G01 X-0.5906 Y2.3531  
G01 X-0.5904 Y2.3532  
G01 X-0.5902 Y2.3534  
G01 X-0.5875 Y2.3545  
G01 X-0.5848 Y2.3556  
G01 X-0.5846 Y2.3557  
G01 X-0.5843 Y2.3558  
G01 X-0.5815 Y2.3563  
G01 X-0.2625 Y2.4247  
G01 X-0.2432 Y2.4440  
G01 X-0.2068 Y2.4440  
G01 X-0.1948 Y2.4320  
G01 X-0.1552 Y2.4320  
G01 X-0.1432 Y2.4440  
G01 X-0.1068 Y2.4440  
G01 X-0.0810 Y2.4182  
G01 X-0.0810 Y2.3818  
G01 X-0.1068 Y2.3560  
G01 X-0.1432 Y2.3560  
G01 X-0.1552 Y2.3680  
G01 X-0.1948 Y2.3680  
G01 X-0.2068 Y2.3560  
G01 X-0.2432 Y2.3560  
G01 X-0.2493 Y2.3621  
G01 X-0.5430 Y2.2991  
G01 X-0.5430 Y1.9068  
G01 X-0.4469 Y1.6905  
G01 X-0.4466 Y1.6902  
G01 X-0.4456 Y1.6876  
G01 X-0.4445 Y1.6851  
G01 X-0.4444 Y1.6847  
G01 X-0.4442 Y1.6843  
G01 X-0.4437 Y1.6816  
G01 X-0.4431 Y1.6790  
G01 X-0.4431 Y1.6786  
G01 X-0.4430 Y1.6782  
G01 X-0.4430 Y1.6754  
G01 X-0.4429 Y1.6727  
G01 X-0.4430 Y1.6723  
G01 X-0.4430 Y1.4531  
G01 X-0.4430 Y1.4500  
G01 X-0.4430 Y1.4468  
G01 X-0.4436 Y1.4438  
G01 X-0.4442 Y1.4407  
G01 X-0.4454 Y1.4378  
G01 X-0.4466 Y1.4348  
G01 X-0.4484 Y1.4322  
G01 X-0.4501 Y1.4296  
G00 Z0.0500  
G00 X-0.5332 Y1.5091  
G01 Z-0.0030 F10    
G01 X-0.5343 Y1.5082  F20    
G01 X-0.5353 Y1.5071  
G01 X-0.5360 Y1.5067  
G01 X-0.5366 Y1.5061  
G01 X-0.5379 Y1.5054  
G01 X-0.5391 Y1.5046  
G01 X-0.5399 Y1.5043  
G01 X-0.5406 Y1.5039  
G01 X-0.5420 Y1.5034  
G01 X-0.5433 Y1.5029  
G01 X-0.5441 Y1.5027  
G01 X-0.5810 Y1.4904  
G01 X-0.5810 Y1.4818  
G01 X-0.6068 Y1.4560  
G01 X-0.6432 Y1.4560  
G01 X-0.6552 Y1.4680  
G01 X-0.6948 Y1.4680  
G01 X-0.7068 Y1.4560  
G01 X-0.7432 Y1.4560  
G01 X-0.7690 Y1.4818  
G01 X-0.7690 Y1.5182  
G01 X-0.7432 Y1.5440  
G01 X-0.7068 Y1.5440  
G01 X-0.6948 Y1.5320  
G01 X-0.6552 Y1.5320  
G01 X-0.6432 Y1.5440  
G01 X-0.6068 Y1.5440  
G01 X-0.5965 Y1.5337  
G01 X-0.5730 Y1.5416  
G01 X-0.5730 Y1.6419  
G01 X-0.7567 Y1.8716  
G01 X-0.7613 Y1.8670  
G01 X-0.7887 Y1.8670  
G01 X-0.8080 Y1.8863  
G01 X-0.8080 Y1.9137  
G01 X-0.7887 Y1.9330  
G01 X-0.7613 Y1.9330  
G01 X-0.7513 Y1.9230  
G01 X-0.7510 Y1.9230  
G01 X-0.7497 Y1.9231  
G01 X-0.7487 Y1.9230  
G01 X-0.7477 Y1.9230  
G01 X-0.7465 Y1.9228  
G01 X-0.7452 Y1.9226  
G01 X-0.7443 Y1.9223  
G01 X-0.7433 Y1.9221  
G01 X-0.7421 Y1.9216  
G01 X-0.7409 Y1.9212  
G01 X-0.7400 Y1.9208  
G01 X-0.7391 Y1.9204  
G01 X-0.7380 Y1.9197  
G01 X-0.7369 Y1.9191  
G01 X-0.7362 Y1.9184  
G01 X-0.7353 Y1.9179  
G01 X-0.7344 Y1.9170  
G01 X-0.7335 Y1.9161  
G01 X-0.7328 Y1.9154  
G01 X-0.7321 Y1.9147  
G01 X-0.7314 Y1.9136  
G01 X-0.5328 Y1.6654  
G01 X-0.5321 Y1.6647  
G01 X-0.5314 Y1.6636  
G01 X-0.5306 Y1.6626  
G01 X-0.5302 Y1.6617  
G01 X-0.5296 Y1.6609  
G01 X-0.5291 Y1.6597  
G01 X-0.5285 Y1.6586  
G01 X-0.5283 Y1.6576  
G01 X-0.5279 Y1.6567  
G01 X-0.5276 Y1.6555  
G01 X-0.5273 Y1.6542  
G01 X-0.5272 Y1.6532  
G01 X-0.5270 Y1.6523  
G01 X-0.5270 Y1.6510  
G01 X-0.5269 Y1.6497  
G01 X-0.5270 Y1.6487  
G01 X-0.5270 Y1.5264  
G01 X-0.5269 Y1.5256  
G01 X-0.5270 Y1.5242  
G01 X-0.5270 Y1.5227  
G01 X-0.5272 Y1.5219  
G01 X-0.5272 Y1.5211  
G01 X-0.5276 Y1.5197  
G01 X-0.5279 Y1.5183  
G01 X-0.5282 Y1.5175  
G01 X-0.5284 Y1.5167  
G01 X-0.5291 Y1.5154  
G01 X-0.5296 Y1.5141  
G01 X-0.5301 Y1.5134  
G01 X-0.5304 Y1.5127  
G01 X-0.5313 Y1.5115  
G01 X-0.5321 Y1.5103  
G01 X-0.5327 Y1.5098  
G01 X-0.5332 Y1.5091  
G00 Z0.0500  
G00 X-0.5810 Y1.5818  
G01 Z-0.0030 F10    
G01 X-0.6068 Y1.5560  F20    
G01 X-0.6432 Y1.5560  
G01 X-0.6552 Y1.5680  
G01 X-0.6948 Y1.5680  
G01 X-0.7068 Y1.5560  
G01 X-0.7432 Y1.5560  
G01 X-0.7642 Y1.5770  
G01 X-0.7988 Y1.5770  
G01 X-0.7998 Y1.5769  
G01 X-0.8010 Y1.5770  
G01 X-0.8023 Y1.5770  
G01 X-0.8033 Y1.5772  
G01 X-0.8043 Y1.5773  
G01 X-0.8055 Y1.5776  
G01 X-0.8067 Y1.5779  
G01 X-0.8077 Y1.5783  
G01 X-0.8087 Y1.5786  
G01 X-0.8098 Y1.5791  
G01 X-0.8109 Y1.5796  
G01 X-0.8118 Y1.5802  
G01 X-0.8127 Y1.5807  
G01 X-0.8136 Y1.5814  
G01 X-0.8147 Y1.5821  
G01 X-0.8154 Y1.5829  
G01 X-0.8162 Y1.5835  
G01 X-0.8170 Y1.5845  
G01 X-0.8179 Y1.5853  
G01 X-0.8184 Y1.5862  
G01 X-0.8191 Y1.5870  
G01 X-0.8197 Y1.5881  
G01 X-0.8204 Y1.5891  
G01 X-0.8208 Y1.5901  
G01 X-0.9667 Y1.8577  
G01 X-0.9860 Y1.8673  
G01 X-0.9863 Y1.8670  
G01 X-1.0137 Y1.8670  
G01 X-1.0330 Y1.8863  
G01 X-1.0330 Y1.9137  
G01 X-1.0137 Y1.9330  
G01 X-0.9863 Y1.9330  
G01 X-0.9670 Y1.9137  
G01 X-0.9670 Y1.9092  
G01 X-0.9415 Y1.8965  
G01 X-0.9413 Y1.8964  
G01 X-0.9395 Y1.8955  
G01 X-0.9377 Y1.8946  
G01 X-0.9375 Y1.8944  
G01 X-0.9373 Y1.8943  
G01 X-0.9357 Y1.8930  
G01 X-0.9341 Y1.8918  
G01 X-0.9340 Y1.8916  
G01 X-0.9338 Y1.8915  
G01 X-0.9325 Y1.8899  
G01 X-0.9311 Y1.8884  
G01 X-0.9310 Y1.8882  
G01 X-0.9309 Y1.8880  
G01 X-0.9299 Y1.8862  
G01 X-0.9289 Y1.8844  
G01 X-0.9288 Y1.8842  
G01 X-0.7863 Y1.6230  
G01 X-0.7642 Y1.6230  
G01 X-0.7432 Y1.6440  
G01 X-0.7068 Y1.6440  
G01 X-0.6948 Y1.6320  
G01 X-0.6552 Y1.6320  
G01 X-0.6432 Y1.6440  
G01 X-0.6068 Y1.6440  
G01 X-0.5810 Y1.6182  
G01 X-0.5810 Y1.5818  
G00 Z0.0500  
G00 X-0.9270 Y1.5477  
G01 Z-0.0030 F10    
G01 X-0.9279 Y1.5433  F20    
G01 X-0.9296 Y1.5391  
G01 X-0.9321 Y1.5353  
G01 X-0.9821 Y1.4853  
G01 X-0.9853 Y1.4821  
G01 X-0.9891 Y1.4796  
G01 X-0.9933 Y1.4779  
G01 X-0.9977 Y1.4770  
G01 X-1.0358 Y1.4770  
G01 X-1.0568 Y1.4560  
G01 X-1.0932 Y1.4560  
G01 X-1.1052 Y1.4680  
G01 X-1.1448 Y1.4680  
G01 X-1.1568 Y1.4560  
G01 X-1.1932 Y1.4560  
G01 X-1.2190 Y1.4818  
G01 X-1.2190 Y1.5182  
G01 X-1.1932 Y1.5440  
G01 X-1.1568 Y1.5440  
G01 X-1.1448 Y1.5320  
G01 X-1.1052 Y1.5320  
G01 X-1.0932 Y1.5440  
G01 X-1.0568 Y1.5440  
G01 X-1.0358 Y1.5230  
G01 X-1.0095 Y1.5230  
G01 X-0.9730 Y1.5595  
G01 X-0.9730 Y1.6186  
G01 X-1.1163 Y1.8574  
G01 X-1.1360 Y1.8673  
G01 X-1.1363 Y1.8670  
G01 X-1.1637 Y1.8670  
G01 X-1.1830 Y1.8863  
G01 X-1.1830 Y1.9137  
G01 X-1.1637 Y1.9330  
G01 X-1.1363 Y1.9330  
G01 X-1.1170 Y1.9137  
G01 X-1.1170 Y1.9092  
G01 X-1.0899 Y1.8957  
G01 X-1.0881 Y1.8948  
G01 X-1.0879 Y1.8947  
G01 X-1.0877 Y1.8946  
G01 X-1.0861 Y1.8933  
G01 X-1.0845 Y1.8921  
G01 X-1.0843 Y1.8919  
G01 X-1.0841 Y1.8918  
G01 X-1.0828 Y1.8903  
G01 X-1.0814 Y1.8888  
G01 X-1.0813 Y1.8886  
G01 X-1.0811 Y1.8884  
G01 X-1.0801 Y1.8866  
G01 X-0.9306 Y1.6373  
G01 X-0.9296 Y1.6359  
G01 X-0.9294 Y1.6354  
G01 X-0.9291 Y1.6349  
G01 X-0.9285 Y1.6333  
G01 X-0.9279 Y1.6317  
G01 X-0.9278 Y1.6312  
G01 X-0.9276 Y1.6306  
G01 X-0.9273 Y1.6289  
G01 X-0.9270 Y1.6273  
G01 X-0.9270 Y1.6267  
G01 X-0.9269 Y1.6261  
G01 X-0.9270 Y1.6244  
G01 X-0.9270 Y1.5477  
G00 Z0.0500  
G00 X-1.0310 Y1.5818  
G01 Z-0.0030 F10    
G01 X-1.0568 Y1.5560  F20    
G01 X-1.0932 Y1.5560  
G01 X-1.1052 Y1.5680  
G01 X-1.1448 Y1.5680  
G01 X-1.1568 Y1.5560  
G01 X-1.1932 Y1.5560  
G01 X-1.2142 Y1.5770  
G01 X-1.2492 Y1.5770  
G01 X-1.2506 Y1.5769  
G01 X-1.2514 Y1.5770  
G01 X-1.2523 Y1.5770  
G01 X-1.2537 Y1.5773  
G01 X-1.2551 Y1.5775  
G01 X-1.2559 Y1.5777  
G01 X-1.2567 Y1.5779  
G01 X-1.2580 Y1.5784  
G01 X-1.2594 Y1.5789  
G01 X-1.2601 Y1.5793  
G01 X-1.2609 Y1.5796  
G01 X-1.2621 Y1.5804  
G01 X-1.2634 Y1.5811  
G01 X-1.2640 Y1.5817  
G01 X-1.2647 Y1.5821  
G01 X-1.2657 Y1.5832  
G01 X-1.2668 Y1.5841  
G01 X-1.2673 Y1.5848  
G01 X-1.2679 Y1.5853  
G01 X-1.2687 Y1.5865  
G01 X-1.2696 Y1.5877  
G01 X-1.2699 Y1.5884  
G01 X-1.2704 Y1.5891  
G01 X-1.2709 Y1.5904  
G01 X-1.4092 Y1.8670  
G01 X-1.4137 Y1.8670  
G01 X-1.4330 Y1.8863  
G01 X-1.4330 Y1.9137  
G01 X-1.4137 Y1.9330  
G01 X-1.3863 Y1.9330  
G01 X-1.3670 Y1.9137  
G01 X-1.3670 Y1.8863  
G01 X-1.3673 Y1.8860  
G01 X-1.2358 Y1.6230  
G01 X-1.2142 Y1.6230  
G01 X-1.1932 Y1.6440  
G01 X-1.1568 Y1.6440  
G01 X-1.1448 Y1.6320  
G01 X-1.1052 Y1.6320  
G01 X-1.0932 Y1.6440  
G01 X-1.0568 Y1.6440  
G01 X-1.0310 Y1.6182  
G01 X-1.0310 Y1.5818  
G00 Z0.0500  
G00 X-1.3770 Y1.5986  
G01 Z-0.0030 F10    
G01 X-1.3770 Y1.5477  F20    
G01 X-1.3779 Y1.5433  
G01 X-1.3796 Y1.5391  
G01 X-1.3821 Y1.5353  
G01 X-1.4321 Y1.4853  
G01 X-1.4353 Y1.4821  
G01 X-1.4391 Y1.4796  
G01 X-1.4433 Y1.4779  
G01 X-1.4477 Y1.4770  
G01 X-1.4858 Y1.4770  
G01 X-1.5068 Y1.4560  
G01 X-1.5432 Y1.4560  
G01 X-1.5552 Y1.4680  
G01 X-1.5948 Y1.4680  
G01 X-1.6068 Y1.4560  
G01 X-1.6432 Y1.4560  
G01 X-1.6690 Y1.4818  
G01 X-1.6690 Y1.5182  
G01 X-1.6432 Y1.5440  
G01 X-1.6068 Y1.5440  
G01 X-1.5948 Y1.5320  
G01 X-1.5552 Y1.5320  
G01 X-1.5432 Y1.5440  
G01 X-1.5068 Y1.5440  
G01 X-1.4858 Y1.5230  
G01 X-1.4595 Y1.5230  
G01 X-1.4230 Y1.5595  
G01 X-1.4230 Y1.5946  
G01 X-1.5592 Y1.8670  
G01 X-1.5637 Y1.8670  
G01 X-1.5830 Y1.8863  
G01 X-1.5830 Y1.9137  
G01 X-1.5637 Y1.9330  
G01 X-1.5363 Y1.9330  
G01 X-1.5170 Y1.9137  
G01 X-1.5170 Y1.8863  
G01 X-1.5173 Y1.8860  
G01 X-1.3801 Y1.6116  
G01 X-1.3796 Y1.6109  
G01 X-1.3791 Y1.6096  
G01 X-1.3784 Y1.6083  
G01 X-1.3782 Y1.6075  
G01 X-1.3779 Y1.6067  
G01 X-1.3776 Y1.6053  
G01 X-1.3772 Y1.6039  
G01 X-1.3772 Y1.6031  
G01 X-1.3770 Y1.6023  
G01 X-1.3770 Y1.6008  
G01 X-1.3769 Y1.5994  
G01 X-1.3770 Y1.5986  
G00 Z0.0500  
G00 X-1.4810 Y1.5818  
G01 Z-0.0030 F10    
G01 X-1.5068 Y1.5560  F20    
G01 X-1.5432 Y1.5560  
G01 X-1.5552 Y1.5680  
G01 X-1.5948 Y1.5680  
G01 X-1.6068 Y1.5560  
G01 X-1.6432 Y1.5560  
G01 X-1.6690 Y1.5818  
G01 X-1.6690 Y1.5870  
G01 X-1.6696 Y1.5877  
G01 X-1.6699 Y1.5884  
G01 X-1.6704 Y1.5891  
G01 X-1.6709 Y1.5904  
G01 X-1.8092 Y1.8670  
G01 X-1.8137 Y1.8670  
G01 X-1.8330 Y1.8863  
G01 X-1.8330 Y1.9137  
G01 X-1.8137 Y1.9330  
G01 X-1.7863 Y1.9330  
G01 X-1.7670 Y1.9137  
G01 X-1.7670 Y1.8863  
G01 X-1.7673 Y1.8860  
G01 X-1.6453 Y1.6420  
G01 X-1.6432 Y1.6440  
G01 X-1.6068 Y1.6440  
G01 X-1.5948 Y1.6320  
G01 X-1.5552 Y1.6320  
G01 X-1.5432 Y1.6440  
G01 X-1.5068 Y1.6440  
G01 X-1.4810 Y1.6182  
G01 X-1.4810 Y1.5818  
G00 Z0.0500  
G00 X-1.8270 Y1.5477  
G01 Z-0.0030 F10    
G01 X-1.8279 Y1.5433  F20    
G01 X-1.8296 Y1.5391  
G01 X-1.8321 Y1.5353  
G01 X-1.8821 Y1.4853  
G01 X-1.8853 Y1.4821  
G01 X-1.8891 Y1.4796  
G01 X-1.8933 Y1.4779  
G01 X-1.8977 Y1.4770  
G01 X-1.9108 Y1.4770  
G01 X-1.9318 Y1.4560  
G01 X-1.9682 Y1.4560  
G01 X-1.9802 Y1.4680  
G01 X-2.0198 Y1.4680  
G01 X-2.0318 Y1.4560  
G01 X-2.0682 Y1.4560  
G01 X-2.0940 Y1.4818  
G01 X-2.0940 Y1.5182  
G01 X-2.0682 Y1.5440  
G01 X-2.0318 Y1.5440  
G01 X-2.0198 Y1.5320  
G01 X-1.9802 Y1.5320  
G01 X-1.9682 Y1.5440  
G01 X-1.9318 Y1.5440  
G01 X-1.9108 Y1.5230  
G01 X-1.9095 Y1.5230  
G01 X-1.8730 Y1.5595  
G01 X-1.8730 Y1.6696  
G01 X-1.9699 Y1.8634  
G01 X-1.9704 Y1.8641  
G01 X-1.9709 Y1.8654  
G01 X-1.9716 Y1.8667  
G01 X-1.9718 Y1.8675  
G01 X-1.9721 Y1.8683  
G01 X-1.9724 Y1.8697  
G01 X-1.9728 Y1.8711  
G01 X-1.9728 Y1.8719  
G01 X-1.9730 Y1.8727  
G01 X-1.9730 Y1.8742  
G01 X-1.9731 Y1.8756  
G01 X-1.9730 Y1.8763  
G01 X-1.9830 Y1.8863  
G01 X-1.9830 Y1.9137  
G01 X-1.9637 Y1.9330  
G01 X-1.9363 Y1.9330  
G01 X-1.9170 Y1.9137  
G01 X-1.9170 Y1.8863  
G01 X-1.9256 Y1.8777  
G01 X-1.8301 Y1.6866  
G01 X-1.8296 Y1.6859  
G01 X-1.8291 Y1.6846  
G01 X-1.8284 Y1.6833  
G01 X-1.8282 Y1.6825  
G01 X-1.8279 Y1.6817  
G01 X-1.8276 Y1.6803  
G01 X-1.8272 Y1.6789  
G01 X-1.8272 Y1.6781  
G01 X-1.8270 Y1.6773  
G01 X-1.8270 Y1.6758  
G01 X-1.8269 Y1.6744  
G01 X-1.8270 Y1.6736  
G01 X-1.8270 Y1.5477  
G00 Z0.0500  
G00 X-1.9060 Y1.5818  
G01 Z-0.0030 F10    
G01 X-1.9318 Y1.5560  F20    
G01 X-1.9682 Y1.5560  
G01 X-1.9802 Y1.5680  
G01 X-2.0198 Y1.5680  
G01 X-2.0318 Y1.5560  
G01 X-2.0682 Y1.5560  
G01 X-2.0940 Y1.5818  
G01 X-2.0940 Y1.6182  
G01 X-2.0879 Y1.6243  
G01 X-2.2092 Y1.8670  
G01 X-2.2137 Y1.8670  
G01 X-2.2330 Y1.8863  
G01 X-2.2330 Y1.9137  
G01 X-2.2137 Y1.9330  
G01 X-2.1863 Y1.9330  
G01 X-2.1670 Y1.9137  
G01 X-2.1670 Y1.8863  
G01 X-2.1673 Y1.8860  
G01 X-2.0463 Y1.6440  
G01 X-2.0318 Y1.6440  
G01 X-2.0198 Y1.6320  
G01 X-1.9802 Y1.6320  
G01 X-1.9682 Y1.6440  
G01 X-1.9318 Y1.6440  
G01 X-1.9060 Y1.6182  
G01 X-1.9060 Y1.5818  
G00 Z0.0500  
G00 X-2.2270 Y1.5477  
G01 Z-0.0030 F10    
G01 X-2.2279 Y1.5433  F20    
G01 X-2.2296 Y1.5391  
G01 X-2.2321 Y1.5353  
G01 X-2.2821 Y1.4853  
G01 X-2.2853 Y1.4821  
G01 X-2.2891 Y1.4796  
G01 X-2.2933 Y1.4779  
G01 X-2.2977 Y1.4770  
G01 X-2.3608 Y1.4770  
G01 X-2.3818 Y1.4560  
G01 X-2.4182 Y1.4560  
G01 X-2.4302 Y1.4680  
G01 X-2.4698 Y1.4680  
G01 X-2.4818 Y1.4560  
G01 X-2.5182 Y1.4560  
G01 X-2.5440 Y1.4818  
G01 X-2.5440 Y1.5182  
G01 X-2.5182 Y1.5440  
G01 X-2.4818 Y1.5440  
G01 X-2.4698 Y1.5320  
G01 X-2.4302 Y1.5320  
G01 X-2.4182 Y1.5440  
G01 X-2.3818 Y1.5440  
G01 X-2.3608 Y1.5230  
G01 X-2.3095 Y1.5230  
G01 X-2.2730 Y1.5595  
G01 X-2.2730 Y1.6451  
G01 X-2.3702 Y1.8639  
G01 X-2.3704 Y1.8641  
G01 X-2.3711 Y1.8659  
G01 X-2.3719 Y1.8677  
G01 X-2.3720 Y1.8680  
G01 X-2.3721 Y1.8683  
G01 X-2.3725 Y1.8702  
G01 X-2.3729 Y1.8721  
G01 X-2.3729 Y1.8724  
G01 X-2.3730 Y1.8727  
G01 X-2.3730 Y1.8747  
G01 X-2.3730 Y1.8764  
G01 X-2.3830 Y1.8863  
G01 X-2.3830 Y1.9137  
G01 X-2.3637 Y1.9330  
G01 X-2.3363 Y1.9330  
G01 X-2.3170 Y1.9137  
G01 X-2.3170 Y1.8863  
G01 X-2.3259 Y1.8774  
G01 X-2.2298 Y1.6611  
G01 X-2.2296 Y1.6609  
G01 X-2.2289 Y1.6591  
G01 X-2.2281 Y1.6573  
G01 X-2.2280 Y1.6570  
G01 X-2.2279 Y1.6567  
G01 X-2.2275 Y1.6548  
G01 X-2.2271 Y1.6529  
G01 X-2.2271 Y1.6526  
G01 X-2.2270 Y1.6523  
G01 X-2.2270 Y1.6503  
G01 X-2.2269 Y1.6483  
G01 X-2.2270 Y1.6480  
G01 X-2.2270 Y1.5477  
G00 Z0.0500  
G00 X-2.3560 Y1.5818  
G01 Z-0.0030 F10    
G01 X-2.3818 Y1.5560  F20    
G01 X-2.4182 Y1.5560  
G01 X-2.4302 Y1.5680  
G01 X-2.4698 Y1.5680  
G01 X-2.4818 Y1.5560  
G01 X-2.5182 Y1.5560  
G01 X-2.5440 Y1.5818  
G01 X-2.5440 Y1.6182  
G01 X-2.5230 Y1.6392  
G01 X-2.5230 Y1.6456  
G01 X-2.6116 Y1.8670  
G01 X-2.6137 Y1.8670  
G01 X-2.6330 Y1.8863  
G01 X-2.6330 Y1.9137  
G01 X-2.6137 Y1.9330  
G01 X-2.5863 Y1.9330  
G01 X-2.5670 Y1.9137  
G01 X-2.5670 Y1.8863  
G01 X-2.5690 Y1.8844  
G01 X-2.4787 Y1.6587  
G01 X-2.4779 Y1.6567  
G01 X-2.4779 Y1.6566  
G01 X-2.4778 Y1.6564  
G01 X-2.4774 Y1.6543  
G01 X-2.4770 Y1.6523  
G01 X-2.4770 Y1.6521  
G01 X-2.4770 Y1.6520  
G01 X-2.4770 Y1.6499  
G01 X-2.4770 Y1.6392  
G01 X-2.4698 Y1.6320  
G01 X-2.4302 Y1.6320  
G01 X-2.4182 Y1.6440  
G01 X-2.3818 Y1.6440  
G01 X-2.3560 Y1.6182  
G01 X-2.3560 Y1.5818  
G00 Z0.0500  
G00 X-2.6770 Y1.5477  
G01 Z-0.0030 F10    
G01 X-2.6779 Y1.5433  F20    
G01 X-2.6796 Y1.5391  
G01 X-2.6821 Y1.5353  
G01 X-2.7321 Y1.4853  
G01 X-2.7353 Y1.4821  
G01 X-2.7391 Y1.4796  
G01 X-2.7433 Y1.4779  
G01 X-2.7477 Y1.4770  
G01 X-2.8108 Y1.4770  
G01 X-2.8318 Y1.4560  
G01 X-2.8682 Y1.4560  
G01 X-2.8802 Y1.4680  
G01 X-2.9198 Y1.4680  
G01 X-2.9318 Y1.4560  
G01 X-2.9682 Y1.4560  
G01 X-2.9940 Y1.4818  
G01 X-2.9940 Y1.5182  
G01 X-2.9682 Y1.5440  
G01 X-2.9318 Y1.5440  
G01 X-2.9198 Y1.5320  
G01 X-2.8802 Y1.5320  
G01 X-2.8682 Y1.5440  
G01 X-2.8318 Y1.5440  
G01 X-2.8108 Y1.5230  
G01 X-2.7595 Y1.5230  
G01 X-2.7230 Y1.5595  
G01 X-2.7230 Y1.6477  
G01 X-2.7677 Y1.8710  
G01 X-2.7830 Y1.8863  
G01 X-2.7830 Y1.9137  
G01 X-2.7637 Y1.9330  
G01 X-2.7363 Y1.9330  
G01 X-2.7170 Y1.9137  
G01 X-2.7170 Y1.8863  
G01 X-2.7227 Y1.8807  
G01 X-2.6779 Y1.6567  
G01 X-2.6775 Y1.6545  
G01 X-2.6770 Y1.6523  
G01 X-2.6770 Y1.6500  
G01 X-2.6770 Y1.6478  
G01 X-2.6770 Y1.5477  
G00 Z0.0500  
G00 X-2.8060 Y1.5818  
G01 Z-0.0030 F10    
G01 X-2.8318 Y1.5560  F20    
G01 X-2.8682 Y1.5560  
G01 X-2.8802 Y1.5680  
G01 X-2.9198 Y1.5680  
G01 X-2.9318 Y1.5560  
G01 X-2.9682 Y1.5560  
G01 X-2.9940 Y1.5818  
G01 X-2.9940 Y1.6115  
G01 X-3.0179 Y1.6353  
G01 X-3.0204 Y1.6391  
G01 X-3.0221 Y1.6433  
G01 X-3.0230 Y1.6477  
G01 X-3.0230 Y1.8763  
G01 X-3.0330 Y1.8863  
G01 X-3.0330 Y1.9137  
G01 X-3.0137 Y1.9330  
G01 X-2.9863 Y1.9330  
G01 X-2.9670 Y1.9137  
G01 X-2.9670 Y1.8863  
G01 X-2.9770 Y1.8763  
G01 X-2.9770 Y1.6595  
G01 X-2.9615 Y1.6440  
G01 X-2.9318 Y1.6440  
G01 X-2.9198 Y1.6320  
G01 X-2.8802 Y1.6320  
G01 X-2.8682 Y1.6440  
G01 X-2.8318 Y1.6440  
G01 X-2.8060 Y1.6182  
G01 X-2.8060 Y1.5818  
G00 Z0.0500  
G00 X-3.2560 Y1.5818  
G01 Z-0.0030 F10    
G01 X-3.2818 Y1.5560  F20    
G01 X-3.3182 Y1.5560  
G01 X-3.3302 Y1.5680  
G01 X-3.3698 Y1.5680  
G01 X-3.3818 Y1.5560  
G01 X-3.4182 Y1.5560  
G01 X-3.4440 Y1.5818  
G01 X-3.4440 Y1.6182  
G01 X-3.4230 Y1.6392  
G01 X-3.4230 Y1.8763  
G01 X-3.4330 Y1.8863  
G01 X-3.4330 Y1.9137  
G01 X-3.4137 Y1.9330  
G01 X-3.3863 Y1.9330  
G01 X-3.3670 Y1.9137  
G01 X-3.3670 Y1.8863  
G01 X-3.3770 Y1.8763  
G01 X-3.3770 Y1.6392  
G01 X-3.3698 Y1.6320  
G01 X-3.3302 Y1.6320  
G01 X-3.3182 Y1.6440  
G01 X-3.2818 Y1.6440  
G01 X-3.2560 Y1.6182  
G01 X-3.2560 Y1.5818  
G00 Z0.0500  
G00 X-3.2818 Y1.5440  
G01 Z-0.0030 F10    
G01 X-3.2608 Y1.5230  F20    
G01 X-3.2203 Y1.5230  
G01 X-3.1758 Y1.8791  
G01 X-3.1830 Y1.8863  
G01 X-3.1830 Y1.9137  
G01 X-3.1637 Y1.9330  
G01 X-3.1363 Y1.9330  
G01 X-3.1170 Y1.9137  
G01 X-3.1170 Y1.8863  
G01 X-3.1302 Y1.8732  
G01 X-3.1770 Y1.4986  
G01 X-3.1770 Y1.4977  
G01 X-3.1773 Y1.4963  
G01 X-3.1775 Y1.4949  
G01 X-3.1777 Y1.4941  
G01 X-3.1779 Y1.4933  
G01 X-3.1784 Y1.4920  
G01 X-3.1789 Y1.4906  
G01 X-3.1793 Y1.4899  
G01 X-3.1796 Y1.4891  
G01 X-3.1804 Y1.4879  
G01 X-3.1811 Y1.4867  
G01 X-3.1817 Y1.4860  
G01 X-3.1821 Y1.4853  
G01 X-3.1832 Y1.4843  
G01 X-3.1841 Y1.4832  
G01 X-3.1847 Y1.4827  
G01 X-3.1853 Y1.4821  
G01 X-3.1865 Y1.4813  
G01 X-3.1877 Y1.4805  
G01 X-3.1884 Y1.4801  
G01 X-3.1891 Y1.4796  
G01 X-3.1904 Y1.4791  
G01 X-3.1917 Y1.4784  
G01 X-3.1925 Y1.4782  
G01 X-3.1933 Y1.4779  
G01 X-3.1947 Y1.4776  
G01 X-3.1961 Y1.4772  
G01 X-3.1969 Y1.4772  
G01 X-3.1977 Y1.4770  
G01 X-3.1992 Y1.4770  
G01 X-3.2006 Y1.4769  
G01 X-3.2014 Y1.4770  
G01 X-3.2608 Y1.4770  
G01 X-3.2818 Y1.4560  
G01 X-3.3182 Y1.4560  
G01 X-3.3302 Y1.4680  
G01 X-3.3698 Y1.4680  
G01 X-3.3818 Y1.4560  
G01 X-3.4182 Y1.4560  
G01 X-3.4440 Y1.4818  
G01 X-3.4440 Y1.5182  
G01 X-3.4182 Y1.5440  
G01 X-3.3818 Y1.5440  
G01 X-3.3698 Y1.5320  
G01 X-3.3302 Y1.5320  
G01 X-3.3182 Y1.5440  
G01 X-3.2818 Y1.5440  
G00 Z0.0500  
G00 X-3.5778 Y1.5439  
G01 Z-0.0030 F10    
G01 X-3.5779 Y1.5433  F20    
G01 X-3.5785 Y1.5418  
G01 X-3.5791 Y1.5402  
G01 X-3.5794 Y1.5397  
G01 X-3.5796 Y1.5391  
G01 X-3.5805 Y1.5377  
G01 X-3.5814 Y1.5363  
G01 X-3.5818 Y1.5359  
G01 X-3.5821 Y1.5353  
G01 X-3.5833 Y1.5342  
G01 X-3.5844 Y1.5330  
G01 X-3.5849 Y1.5326  
G01 X-3.6321 Y1.4853  
G01 X-3.6353 Y1.4821  
G01 X-3.6391 Y1.4796  
G01 X-3.6433 Y1.4779  
G01 X-3.6477 Y1.4770  
G01 X-3.6858 Y1.4770  
G01 X-3.7068 Y1.4560  
G01 X-3.7432 Y1.4560  
G01 X-3.7552 Y1.4680  
G01 X-3.7948 Y1.4680  
G01 X-3.8068 Y1.4560  
G01 X-3.8432 Y1.4560  
G01 X-3.8690 Y1.4818  
G01 X-3.8690 Y1.5182  
G01 X-3.8432 Y1.5440  
G01 X-3.8068 Y1.5440  
G01 X-3.7948 Y1.5320  
G01 X-3.7552 Y1.5320  
G01 X-3.7432 Y1.5440  
G01 X-3.7068 Y1.5440  
G01 X-3.6858 Y1.5230  
G01 X-3.6595 Y1.5230  
G01 X-3.6217 Y1.5608  
G01 X-3.5762 Y1.8795  
G01 X-3.5830 Y1.8863  
G01 X-3.5830 Y1.9137  
G01 X-3.5637 Y1.9330  
G01 X-3.5363 Y1.9330  
G01 X-3.5170 Y1.9137  
G01 X-3.5170 Y1.8863  
G01 X-3.5307 Y1.8727  
G01 X-3.5770 Y1.5484  
G01 X-3.5770 Y1.5477  
G01 X-3.5773 Y1.5461  
G01 X-3.5776 Y1.5445  
G01 X-3.5778 Y1.5439  
G00 Z0.0500  
G00 X-3.6810 Y1.5818  
G01 Z-0.0030 F10    
G01 X-3.7068 Y1.5560  F20    
G01 X-3.7432 Y1.5560  
G01 X-3.7552 Y1.5680  
G01 X-3.7948 Y1.5680  
G01 X-3.8068 Y1.5560  
G01 X-3.8432 Y1.5560  
G01 X-3.8690 Y1.5818  
G01 X-3.8690 Y1.6182  
G01 X-3.8480 Y1.6392  
G01 X-3.8480 Y1.7244  
G01 X-3.8481 Y1.7260  
G01 X-3.8480 Y1.7266  
G01 X-3.8480 Y1.7273  
G01 X-3.8477 Y1.7289  
G01 X-3.8262 Y1.8795  
G01 X-3.8330 Y1.8863  
G01 X-3.8330 Y1.9137  
G01 X-3.8137 Y1.9330  
G01 X-3.7863 Y1.9330  
G01 X-3.7670 Y1.9137  
G01 X-3.7670 Y1.8863  
G01 X-3.7807 Y1.8727  
G01 X-3.8020 Y1.7234  
G01 X-3.8020 Y1.6392  
G01 X-3.7948 Y1.6320  
G01 X-3.7552 Y1.6320  
G01 X-3.7432 Y1.6440  
G01 X-3.7068 Y1.6440  
G01 X-3.6810 Y1.6182  
G01 X-3.6810 Y1.5818  
G00 Z0.0500  
G00 X-3.6186 Y2.0303  
G01 Z-0.0030 F10    
G01 X-3.6198 Y2.0316  F20    
G01 X-3.6210 Y2.0328  
G01 X-3.6215 Y2.0336  
G01 X-3.6221 Y2.0343  
G01 X-3.6230 Y2.0358  
G01 X-3.6239 Y2.0372  
G01 X-3.6243 Y2.0381  
G01 X-3.7230 Y2.2108  
G01 X-3.7724 Y2.2850  
G01 X-3.7739 Y2.2872  
G01 X-3.7750 Y2.2897  
G01 X-3.7760 Y2.2921  
G01 X-3.7765 Y2.2947  
G01 X-3.7770 Y2.2973  
G01 X-3.7770 Y2.3000  
G01 X-3.7770 Y2.5803  
G01 X-3.7830 Y2.5863  
G01 X-3.7830 Y2.6137  
G01 X-3.7637 Y2.6330  
G01 X-3.7363 Y2.6330  
G01 X-3.7170 Y2.6137  
G01 X-3.7170 Y2.5863  
G01 X-3.7230 Y2.5803  
G01 X-3.7230 Y2.3082  
G01 X-3.6785 Y2.2414  
G01 X-3.6779 Y2.2407  
G01 X-3.6770 Y2.2392  
G01 X-3.6761 Y2.2378  
G01 X-3.6757 Y2.2369  
G01 X-3.5843 Y2.0770  
G01 X-3.2770 Y2.0770  
G01 X-3.2770 Y2.2704  
G01 X-3.2811 Y2.2745  
G01 X-3.2854 Y2.2811  
G01 X-3.2885 Y2.2883  
G01 X-3.2900 Y2.2961  
G01 X-3.2900 Y2.3039  
G01 X-3.2885 Y2.3117  
G01 X-3.2854 Y2.3189  
G01 X-3.2811 Y2.3255  
G01 X-3.2755 Y2.3311  
G01 X-3.2689 Y2.3354  
G01 X-3.2617 Y2.3385  
G01 X-3.2539 Y2.3400  
G01 X-3.2461 Y2.3400  
G01 X-3.2383 Y2.3385  
G01 X-3.2311 Y2.3354  
G01 X-3.2245 Y2.3311  
G01 X-3.2189 Y2.3255  
G01 X-3.2146 Y2.3189  
G01 X-3.2115 Y2.3117  
G01 X-3.2100 Y2.3039  
G01 X-3.2100 Y2.2961  
G01 X-3.2115 Y2.2883  
G01 X-3.2146 Y2.2811  
G01 X-3.2189 Y2.2745  
G01 X-3.2230 Y2.2704  
G01 X-3.2230 Y2.0770  
G01 X-2.8770 Y2.0770  
G01 X-2.8770 Y2.1402  
G01 X-2.9950 Y2.2818  
G01 X-2.9960 Y2.2828  
G01 X-2.9967 Y2.2838  
G01 X-2.9974 Y2.2848  
G01 X-2.9981 Y2.2860  
G01 X-2.9989 Y2.2872  
G01 X-2.9994 Y2.2883  
G01 X-3.0000 Y2.2894  
G01 X-3.0004 Y2.2908  
G01 X-3.0010 Y2.2921  
G01 X-3.0012 Y2.2933  
G01 X-3.0016 Y2.2945  
G01 X-3.0017 Y2.2959  
G01 X-3.0020 Y2.2973  
G01 X-3.0020 Y2.2986  
G01 X-3.0021 Y2.2998  
G01 X-3.0020 Y2.3012  
G01 X-3.0020 Y2.5803  
G01 X-3.0080 Y2.5863  
G01 X-3.0080 Y2.6137  
G01 X-2.9887 Y2.6330  
G01 X-2.9613 Y2.6330  
G01 X-2.9420 Y2.6137  
G01 X-2.9420 Y2.5863  
G01 X-2.9480 Y2.5803  
G01 X-2.9480 Y2.3098  
G01 X-2.8300 Y2.1682  
G01 X-2.8290 Y2.1672  
G01 X-2.8283 Y2.1662  
G01 X-2.8276 Y2.1652  
G01 X-2.8269 Y2.1640  
G01 X-2.8261 Y2.1628  
G01 X-2.8256 Y2.1617  
G01 X-2.8250 Y2.1606  
G01 X-2.8246 Y2.1592  
G01 X-2.8240 Y2.1579  
G01 X-2.8238 Y2.1567  
G01 X-2.8234 Y2.1555  
G01 X-2.8233 Y2.1541  
G01 X-2.8230 Y2.1527  
G01 X-2.8230 Y2.1514  
G01 X-2.8229 Y2.1502  
G01 X-2.8230 Y2.1488  
G01 X-2.8230 Y2.0770  
G01 X-2.5020 Y2.0770  
G01 X-2.5020 Y2.2704  
G01 X-2.5061 Y2.2745  
G01 X-2.5104 Y2.2811  
G01 X-2.5135 Y2.2883  
G01 X-2.5150 Y2.2961  
G01 X-2.5150 Y2.3039  
G01 X-2.5135 Y2.3117  
G01 X-2.5104 Y2.3189  
G01 X-2.5061 Y2.3255  
G01 X-2.5005 Y2.3311  
G01 X-2.4939 Y2.3354  
G01 X-2.4867 Y2.3385  
G01 X-2.4789 Y2.3400  
G01 X-2.4711 Y2.3400  
G01 X-2.4633 Y2.3385  
G01 X-2.4561 Y2.3354  
G01 X-2.4495 Y2.3311  
G01 X-2.4439 Y2.3255  
G01 X-2.4396 Y2.3189  
G01 X-2.4365 Y2.3117  
G01 X-2.4350 Y2.3039  
G01 X-2.4350 Y2.2961  
G01 X-2.4365 Y2.2883  
G01 X-2.4396 Y2.2811  
G01 X-2.4439 Y2.2745  
G01 X-2.4480 Y2.2704  
G01 X-2.4480 Y2.0862  
G01 X-2.4388 Y2.0770  
G01 X-2.1270 Y2.0770  
G01 X-2.1270 Y2.1910  
G01 X-2.1954 Y2.2823  
G01 X-2.1960 Y2.2828  
G01 X-2.1970 Y2.2844  
G01 X-2.1982 Y2.2859  
G01 X-2.1985 Y2.2866  
G01 X-2.1989 Y2.2872  
G01 X-2.1997 Y2.2890  
G01 X-2.2005 Y2.2907  
G01 X-2.2007 Y2.2914  
G01 X-2.2010 Y2.2921  
G01 X-2.2013 Y2.2940  
G01 X-2.2018 Y2.2959  
G01 X-2.2019 Y2.2966  
G01 X-2.2020 Y2.2973  
G01 X-2.2020 Y2.2993  
G01 X-2.2021 Y2.3012  
G01 X-2.2020 Y2.3019  
G01 X-2.2020 Y2.5803  
G01 X-2.2080 Y2.5863  
G01 X-2.2080 Y2.6137  
G01 X-2.1887 Y2.6330  
G01 X-2.1613 Y2.6330  
G01 X-2.1420 Y2.6137  
G01 X-2.1420 Y2.5863  
G01 X-2.1480 Y2.5803  
G01 X-2.1480 Y2.3090  
G01 X-2.0796 Y2.2177  
G01 X-2.0790 Y2.2172  
G01 X-2.0780 Y2.2156  
G01 X-2.0768 Y2.2141  
G01 X-2.0765 Y2.2134  
G01 X-2.0761 Y2.2128  
G01 X-2.0753 Y2.2110  
G01 X-2.0745 Y2.2093  
G01 X-2.0743 Y2.2086  
G01 X-2.0740 Y2.2079  
G01 X-2.0737 Y2.2060  
G01 X-2.0732 Y2.2041  
G01 X-2.0731 Y2.2034  
G01 X-2.0730 Y2.2027  
G01 X-2.0730 Y2.2007  
G01 X-2.0729 Y2.1988  
G01 X-2.0730 Y2.1981  
G01 X-2.0730 Y2.0770  
G01 X-1.7112 Y2.0770  
G01 X-1.7020 Y2.0862  
G01 X-1.7020 Y2.2704  
G01 X-1.7061 Y2.2745  
G01 X-1.7104 Y2.2811  
G01 X-1.7135 Y2.2883  
G01 X-1.7150 Y2.2961  
G01 X-1.7150 Y2.3039  
G01 X-1.7135 Y2.3117  
G01 X-1.7104 Y2.3189  
G01 X-1.7061 Y2.3255  
G01 X-1.7005 Y2.3311  
G01 X-1.6939 Y2.3354  
G01 X-1.6867 Y2.3385  
G01 X-1.6789 Y2.3400  
G01 X-1.6711 Y2.3400  
G01 X-1.6633 Y2.3385  
G01 X-1.6561 Y2.3354  
G01 X-1.6495 Y2.3311  
G01 X-1.6439 Y2.3255  
G01 X-1.6396 Y2.3189  
G01 X-1.6365 Y2.3117  
G01 X-1.6350 Y2.3039  
G01 X-1.6350 Y2.2961  
G01 X-1.6365 Y2.2883  
G01 X-1.6396 Y2.2811  
G01 X-1.6439 Y2.2745  
G01 X-1.6480 Y2.2704  
G01 X-1.6480 Y2.0770  
G01 X-1.3270 Y2.0770  
G01 X-1.3270 Y2.5803  
G01 X-1.3330 Y2.5863  
G01 X-1.3330 Y2.6137  
G01 X-1.3137 Y2.6330  
G01 X-1.2863 Y2.6330  
G01 X-1.2670 Y2.6137  
G01 X-1.2670 Y2.5863  
G01 X-1.2730 Y2.5803  
G01 X-1.2730 Y2.0770  
G01 X-0.9020 Y2.0770  
G01 X-0.9020 Y2.2474  
G01 X-0.9020 Y2.2500  
G01 X-0.9020 Y2.2527  
G01 X-0.9015 Y2.2553  
G01 X-0.9010 Y2.2579  
G01 X-0.8999 Y2.2604  
G01 X-0.8989 Y2.2628  
G01 X-0.8974 Y2.2650  
G01 X-0.8960 Y2.2672  
G01 X-0.8941 Y2.2691  
G01 X-0.8922 Y2.2710  
G01 X-0.8900 Y2.2725  
G01 X-0.8878 Y2.2739  
G01 X-0.8396 Y2.3061  
G01 X-0.8385 Y2.3117  
G01 X-0.8354 Y2.3189  
G01 X-0.8311 Y2.3255  
G01 X-0.8255 Y2.3311  
G01 X-0.8189 Y2.3354  
G01 X-0.8117 Y2.3385  
G01 X-0.8039 Y2.3400  
G01 X-0.7961 Y2.3400  
G01 X-0.7883 Y2.3385  
G01 X-0.7811 Y2.3354  
G01 X-0.7745 Y2.3311  
G01 X-0.7689 Y2.3255  
G01 X-0.7646 Y2.3189  
G01 X-0.7615 Y2.3117  
G01 X-0.7600 Y2.3039  
G01 X-0.7600 Y2.2961  
G01 X-0.7615 Y2.2883  
G01 X-0.7646 Y2.2811  
G01 X-0.7689 Y2.2745  
G01 X-0.7745 Y2.2689  
G01 X-0.7811 Y2.2646  
G01 X-0.7883 Y2.2615  
G01 X-0.7961 Y2.2600  
G01 X-0.8039 Y2.2600  
G01 X-0.8096 Y2.2611  
G01 X-0.8480 Y2.2356  
G01 X-0.8480 Y2.0770  
G01 X-0.7167 Y2.0770  
G01 X-0.7010 Y2.1084  
G01 X-0.6520 Y2.4023  
G01 X-0.6520 Y2.4028  
G01 X-0.6516 Y2.4049  
G01 X-0.6512 Y2.4071  
G01 X-0.6510 Y2.4075  
G01 X-0.6509 Y2.4080  
G01 X-0.6501 Y2.4100  
G01 X-0.6493 Y2.4120  
G01 X-0.6490 Y2.4125  
G01 X-0.6488 Y2.4129  
G01 X-0.6476 Y2.4147  
G01 X-0.6465 Y2.4165  
G01 X-0.6462 Y2.4169  
G01 X-0.6459 Y2.4173  
G01 X-0.6443 Y2.4189  
G01 X-0.6429 Y2.4204  
G01 X-0.6424 Y2.4207  
G01 X-0.6421 Y2.4211  
G01 X-0.6403 Y2.4223  
G01 X-0.6385 Y2.4235  
G01 X-0.6381 Y2.4237  
G01 X-0.5665 Y2.4709  
G01 X-0.5644 Y2.4724  
G01 X-0.5642 Y2.4724  
G01 X-0.5618 Y2.4734  
G01 X-0.5595 Y2.4744  
G01 X-0.5593 Y2.4744  
G01 X-0.5568 Y2.4749  
G01 X-0.5542 Y2.4754  
G01 X-0.5541 Y2.4754  
G01 X-0.5515 Y2.4754  
G01 X-0.5110 Y2.4754  
G01 X-0.5093 Y2.4777  
G01 X-0.5070 Y2.4801  
G01 X-0.5070 Y2.6232  
G01 X-0.5070 Y2.6260  
G01 X-0.5070 Y2.6263  
G01 X-0.5070 Y2.6266  
G01 X-0.5064 Y2.6294  
G01 X-0.5059 Y2.6323  
G01 X-0.5058 Y2.6325  
G01 X-0.5058 Y2.6328  
G01 X-0.5047 Y2.6354  
G01 X-0.4580 Y2.7536  
G01 X-0.4580 Y2.7627  
G01 X-0.5075 Y2.8122  
G01 X-0.5112 Y2.8130  
G01 X-0.5182 Y2.8159  
G01 X-0.5245 Y2.8201  
G01 X-0.5299 Y2.8255  
G01 X-0.5341 Y2.8318  
G01 X-0.5370 Y2.8388  
G01 X-0.5385 Y2.8462  
G01 X-0.5385 Y2.8538  
G01 X-0.5370 Y2.8612  
G01 X-0.5341 Y2.8682  
G01 X-0.5299 Y2.8745  
G01 X-0.5245 Y2.8799  
G01 X-0.5182 Y2.8841  
G01 X-0.5112 Y2.8870  
G01 X-0.5038 Y2.8885  
G01 X-0.4962 Y2.8885  
G01 X-0.4888 Y2.8870  
G01 X-0.4818 Y2.8841  
G01 X-0.4755 Y2.8799  
G01 X-0.4701 Y2.8745  
G01 X-0.4659 Y2.8682  
G01 X-0.4630 Y2.8612  
G01 X-0.4622 Y2.8575  
G01 X-0.4001 Y2.7954  
G01 X-0.3966 Y2.7902  
G01 X-0.3942 Y2.7843  
G01 X-0.3930 Y2.7782  
G01 X-0.3930 Y2.7718  
G01 X-0.3942 Y2.7659  
G01 X-0.3920 Y2.7637  
G01 X-0.3920 Y2.7363  
G01 X-0.3986 Y2.7297  
G01 X-0.4430 Y2.6173  
G01 X-0.4430 Y2.4801  
G01 X-0.4407 Y2.4777  
G01 X-0.4365 Y2.4720  
G01 X-0.4333 Y2.4657  
G01 X-0.4311 Y2.4590  
G01 X-0.4300 Y2.4520  
G01 X-0.4300 Y2.4449  
G01 X-0.4311 Y2.4379  
G01 X-0.4333 Y2.4312  
G01 X-0.4365 Y2.4248  
G01 X-0.4407 Y2.4191  
G01 X-0.4457 Y2.4141  
G01 X-0.4514 Y2.4099  
G01 X-0.4577 Y2.4067  
G01 X-0.4645 Y2.4045  
G01 X-0.4715 Y2.4034  
G01 X-0.4785 Y2.4034  
G01 X-0.4855 Y2.4045  
G01 X-0.4923 Y2.4067  
G01 X-0.4986 Y2.4099  
G01 X-0.5043 Y2.4141  
G01 X-0.5093 Y2.4191  
G01 X-0.5110 Y2.4214  
G01 X-0.5435 Y2.4214  
G01 X-0.6003 Y2.3839  
G01 X-0.6482 Y2.0968  
G01 X-0.6483 Y2.0954  
G01 X-0.6486 Y2.0942  
G01 X-0.6488 Y2.0929  
G01 X-0.6493 Y2.0916  
G01 X-0.6497 Y2.0903  
G01 X-0.6502 Y2.0892  
G01 X-0.6507 Y2.0880  
G01 X-0.6514 Y2.0868  
G01 X-0.6754 Y2.0388  
G01 X-0.6761 Y2.0372  
G01 X-0.6766 Y2.0364  
G01 X-0.6770 Y2.0355  
G01 X-0.6781 Y2.0342  
G01 X-0.6790 Y2.0328  
G01 X-0.6797 Y2.0321  
G01 X-0.6803 Y2.0313  
G01 X-0.6816 Y2.0302  
G01 X-0.6828 Y2.0290  
G01 X-0.6836 Y2.0285  
G01 X-0.6843 Y2.0279  
G01 X-0.6858 Y2.0270  
G01 X-0.6872 Y2.0261  
G01 X-0.6881 Y2.0257  
G01 X-0.6889 Y2.0252  
G01 X-0.6906 Y2.0247  
G01 X-0.6921 Y2.0240  
G01 X-0.6931 Y2.0238  
G01 X-0.6940 Y2.0235  
G01 X-0.6957 Y2.0233  
G01 X-0.6973 Y2.0230  
G01 X-0.6983 Y2.0230  
G01 X-0.6993 Y2.0229  
G01 X-0.7010 Y2.0230  
G01 X-3.5983 Y2.0230  
G01 X-3.5992 Y2.0229  
G01 X-3.6009 Y2.0230  
G01 X-3.6027 Y2.0230  
G01 X-3.6036 Y2.0232  
G01 X-3.6045 Y2.0233  
G01 X-3.6062 Y2.0237  
G01 X-3.6079 Y2.0240  
G01 X-3.6088 Y2.0244  
G01 X-3.6097 Y2.0247  
G01 X-3.6112 Y2.0254  
G01 X-3.6128 Y2.0261  
G01 X-3.6136 Y2.0266  
G01 X-3.6144 Y2.0270  
G01 X-3.6158 Y2.0281  
G01 X-3.6172 Y2.0290  
G01 X-3.6179 Y2.0297  
G01 X-3.6186 Y2.0303  
G00 Z0.0500  
G00 X-3.5637 Y2.1670  
G01 Z-0.0030 F10    
G01 X-3.5830 Y2.1863  F20    
G01 X-3.5830 Y2.2137  
G01 X-3.5730 Y2.2237  
G01 X-3.5730 Y2.2600  
G01 X-3.5844 Y2.2600  
G01 X-3.5870 Y2.2611  
G01 X-3.5889 Y2.2630  
G01 X-3.5900 Y2.2656  
G01 X-3.5900 Y2.2770  
G01 X-3.6263 Y2.2770  
G01 X-3.6363 Y2.2670  
G01 X-3.6637 Y2.2670  
G01 X-3.6830 Y2.2863  
G01 X-3.6830 Y2.3137  
G01 X-3.6637 Y2.3330  
G01 X-3.6363 Y2.3330  
G01 X-3.6263 Y2.3230  
G01 X-3.5900 Y2.3230  
G01 X-3.5900 Y2.3344  
G01 X-3.5889 Y2.3370  
G01 X-3.5870 Y2.3389  
G01 X-3.5844 Y2.3400  
G01 X-3.5156 Y2.3400  
G01 X-3.5130 Y2.3389  
G01 X-3.5111 Y2.3370  
G01 X-3.5100 Y2.3344  
G01 X-3.5100 Y2.2656  
G01 X-3.5111 Y2.2630  
G01 X-3.5130 Y2.2611  
G01 X-3.5156 Y2.2600  
G01 X-3.5270 Y2.2600  
G01 X-3.5270 Y2.2237  
G01 X-3.5170 Y2.2137  
G01 X-3.5170 Y2.1863  
G01 X-3.5363 Y2.1670  
G01 X-3.5637 Y2.1670  
G00 Z0.0500  
G00 X-3.4137 Y2.1670  
G01 Z-0.0030 F10    
G01 X-3.4330 Y2.1863  F20    
G01 X-3.4330 Y2.2137  
G01 X-3.4230 Y2.2237  
G01 X-3.4230 Y2.7977  
G01 X-3.4230 Y2.8000  
G01 X-3.4230 Y2.8023  
G01 X-3.4225 Y2.8045  
G01 X-3.4221 Y2.8067  
G01 X-3.4213 Y2.8088  
G01 X-3.4204 Y2.8109  
G01 X-3.4191 Y2.8128  
G01 X-3.4179 Y2.8147  
G01 X-3.4162 Y2.8163  
G01 X-3.4147 Y2.8179  
G01 X-3.4128 Y2.8191  
G01 X-3.4109 Y2.8204  
G01 X-3.3384 Y2.8687  
G01 X-3.3373 Y2.8696  
G01 X-3.3366 Y2.8699  
G01 X-3.3359 Y2.8704  
G01 X-3.3345 Y2.8709  
G01 X-3.2901 Y2.8931  
G01 X-3.2300 Y2.9733  
G01 X-3.2328 Y2.9775  
G01 X-3.2356 Y2.9842  
G01 X-3.2370 Y2.9914  
G01 X-3.2370 Y3.0586  
G01 X-3.2356 Y3.0658  
G01 X-3.2328 Y3.0725  
G01 X-3.2287 Y3.0786  
G01 X-3.2236 Y3.0837  
G01 X-3.2175 Y3.0878  
G01 X-3.2108 Y3.0906  
G01 X-3.2036 Y3.0920  
G01 X-3.1964 Y3.0920  
G01 X-3.1892 Y3.0906  
G01 X-3.1825 Y3.0878  
G01 X-3.1764 Y3.0837  
G01 X-3.1713 Y3.0786  
G01 X-3.1672 Y3.0725  
G01 X-3.1644 Y3.0658  
G01 X-3.1630 Y3.0586  
G01 X-3.1630 Y2.9914  
G01 X-3.1644 Y2.9842  
G01 X-3.1672 Y2.9775  
G01 X-3.1713 Y2.9714  
G01 X-3.1764 Y2.9663  
G01 X-3.1796 Y2.9641  
G01 X-3.1800 Y2.9636  
G01 X-3.1802 Y2.9630  
G01 X-3.1812 Y2.9617  
G01 X-3.1821 Y2.9603  
G01 X-3.1826 Y2.9599  
G01 X-3.2557 Y2.8624  
G01 X-3.2561 Y2.8616  
G01 X-3.2571 Y2.8605  
G01 X-3.2580 Y2.8594  
G01 X-3.2586 Y2.8588  
G01 X-3.2591 Y2.8582  
G01 X-3.2603 Y2.8573  
G01 X-3.2613 Y2.8564  
G01 X-3.2620 Y2.8559  
G01 X-3.2627 Y2.8554  
G01 X-3.2640 Y2.8548  
G01 X-3.2652 Y2.8541  
G01 X-3.2660 Y2.8538  
G01 X-3.3134 Y2.8301  
G01 X-3.3770 Y2.7877  
G01 X-3.3770 Y2.2237  
G01 X-3.3670 Y2.2137  
G01 X-3.3670 Y2.1863  
G01 X-3.3863 Y2.1670  
G01 X-3.4137 Y2.1670  
G00 Z0.0500  
G00 X-3.1637 Y2.1670  
G01 Z-0.0030 F10    
G01 X-3.1830 Y2.1863  F20    
G01 X-3.1830 Y2.2137  
G01 X-3.1730 Y2.2237  
G01 X-3.1730 Y2.3763  
G01 X-3.1737 Y2.3770  
G01 X-3.2173 Y2.3770  
G01 X-3.2189 Y2.3745  
G01 X-3.2245 Y2.3689  
G01 X-3.2311 Y2.3646  
G01 X-3.2383 Y2.3615  
G01 X-3.2461 Y2.3600  
G01 X-3.2539 Y2.3600  
G01 X-3.2617 Y2.3615  
G01 X-3.2689 Y2.3646  
G01 X-3.2755 Y2.3689  
G01 X-3.2811 Y2.3745  
G01 X-3.2854 Y2.3811  
G01 X-3.2885 Y2.3883  
G01 X-3.2900 Y2.3961  
G01 X-3.2900 Y2.4039  
G01 X-3.2885 Y2.4117  
G01 X-3.2854 Y2.4189  
G01 X-3.2811 Y2.4255  
G01 X-3.2755 Y2.4311  
G01 X-3.2689 Y2.4354  
G01 X-3.2617 Y2.4385  
G01 X-3.2539 Y2.4400  
G01 X-3.2461 Y2.4400  
G01 X-3.2383 Y2.4385  
G01 X-3.2311 Y2.4354  
G01 X-3.2245 Y2.4311  
G01 X-3.2189 Y2.4255  
G01 X-3.2173 Y2.4230  
G01 X-3.1737 Y2.4230  
G01 X-3.1637 Y2.4330  
G01 X-3.1363 Y2.4330  
G01 X-3.1170 Y2.4137  
G01 X-3.1170 Y2.3863  
G01 X-3.1270 Y2.3763  
G01 X-3.1270 Y2.2237  
G01 X-3.1170 Y2.2137  
G01 X-3.1170 Y2.1863  
G01 X-3.1363 Y2.1670  
G01 X-3.1637 Y2.1670  
G00 Z0.0500  
G00 X-3.0330 Y2.1863  
G01 Z-0.0030 F10    
G01 X-3.0330 Y2.2005  F20    
G01 X-3.0679 Y2.2353  
G01 X-3.0704 Y2.2391  
G01 X-3.0721 Y2.2433  
G01 X-3.0730 Y2.2477  
G01 X-3.0730 Y2.9000  
G01 X-3.0730 Y2.9022  
G01 X-3.0726 Y2.9045  
G01 X-3.0721 Y2.9067  
G01 X-3.0712 Y2.9088  
G01 X-3.0704 Y2.9109  
G01 X-3.0691 Y2.9128  
G01 X-3.0294 Y2.9724  
G01 X-3.0328 Y2.9775  
G01 X-3.0356 Y2.9842  
G01 X-3.0370 Y2.9914  
G01 X-3.0370 Y3.0586  
G01 X-3.0356 Y3.0658  
G01 X-3.0328 Y3.0725  
G01 X-3.0287 Y3.0786  
G01 X-3.0236 Y3.0837  
G01 X-3.0175 Y3.0878  
G01 X-3.0108 Y3.0906  
G01 X-3.0036 Y3.0920  
G01 X-2.9964 Y3.0920  
G01 X-2.9892 Y3.0906  
G01 X-2.9825 Y3.0878  
G01 X-2.9764 Y3.0837  
G01 X-2.9713 Y3.0786  
G01 X-2.9672 Y3.0725  
G01 X-2.9644 Y3.0658  
G01 X-2.9630 Y3.0586  
G01 X-2.9630 Y2.9914  
G01 X-2.9644 Y2.9842  
G01 X-2.9672 Y2.9775  
G01 X-2.9713 Y2.9714  
G01 X-2.9764 Y2.9663  
G01 X-2.9796 Y2.9641  
G01 X-2.9809 Y2.9622  
G01 X-3.0270 Y2.8930  
G01 X-3.0270 Y2.2595  
G01 X-3.0005 Y2.2330  
G01 X-2.9863 Y2.2330  
G01 X-2.9670 Y2.2137  
G01 X-2.9670 Y2.1863  
G01 X-2.9863 Y2.1670  
G01 X-3.0137 Y2.1670  
G01 X-3.0330 Y2.1863  
G00 Z0.0500  
G00 X-2.9080 Y2.2863  
G01 Z-0.0030 F10    
G01 X-2.9080 Y2.3137  F20    
G01 X-2.8887 Y2.3330  
G01 X-2.8613 Y2.3330  
G01 X-2.8513 Y2.3230  
G01 X-2.8150 Y2.3230  
G01 X-2.8150 Y2.3344  
G01 X-2.8139 Y2.3370  
G01 X-2.8120 Y2.3389  
G01 X-2.8094 Y2.3400  
G01 X-2.7406 Y2.3400  
G01 X-2.7380 Y2.3389  
G01 X-2.7361 Y2.3370  
G01 X-2.7350 Y2.3344  
G01 X-2.7350 Y2.2656  
G01 X-2.7361 Y2.2630  
G01 X-2.7380 Y2.2611  
G01 X-2.7406 Y2.2600  
G01 X-2.7520 Y2.2600  
G01 X-2.7520 Y2.2554  
G01 X-2.7408 Y2.2330  
G01 X-2.7363 Y2.2330  
G01 X-2.7170 Y2.2137  
G01 X-2.7170 Y2.1863  
G01 X-2.7363 Y2.1670  
G01 X-2.7637 Y2.1670  
G01 X-2.7830 Y2.1863  
G01 X-2.7830 Y2.2137  
G01 X-2.7827 Y2.2140  
G01 X-2.7949 Y2.2384  
G01 X-2.7954 Y2.2391  
G01 X-2.7959 Y2.2404  
G01 X-2.7966 Y2.2417  
G01 X-2.7968 Y2.2425  
G01 X-2.7971 Y2.2433  
G01 X-2.7974 Y2.2447  
G01 X-2.7978 Y2.2461  
G01 X-2.7978 Y2.2469  
G01 X-2.7980 Y2.2477  
G01 X-2.7980 Y2.2492  
G01 X-2.7981 Y2.2506  
G01 X-2.7980 Y2.2514  
G01 X-2.7980 Y2.2600  
G01 X-2.8094 Y2.2600  
G01 X-2.8120 Y2.2611  
G01 X-2.8139 Y2.2630  
G01 X-2.8150 Y2.2656  
G01 X-2.8150 Y2.2770  
G01 X-2.8513 Y2.2770  
G01 X-2.8613 Y2.2670  
G01 X-2.8887 Y2.2670  
G01 X-2.9080 Y2.2863  
G00 Z0.0500  
G00 X-2.8887 Y2.3670  
G01 Z-0.0030 F10    
G01 X-2.9080 Y2.3863  F20    
G01 X-2.9080 Y2.4137  
G01 X-2.8980 Y2.4237  
G01 X-2.8980 Y2.4513  
G01 X-2.9080 Y2.4613  
G01 X-2.9080 Y2.4887  
G01 X-2.8887 Y2.5080  
G01 X-2.8613 Y2.5080  
G01 X-2.8420 Y2.4887  
G01 X-2.8420 Y2.4613  
G01 X-2.8520 Y2.4513  
G01 X-2.8520 Y2.4237  
G01 X-2.8513 Y2.4230  
G01 X-2.8077 Y2.4230  
G01 X-2.8061 Y2.4255  
G01 X-2.8005 Y2.4311  
G01 X-2.7939 Y2.4354  
G01 X-2.7867 Y2.4385  
G01 X-2.7789 Y2.4400  
G01 X-2.7711 Y2.4400  
G01 X-2.7633 Y2.4385  
G01 X-2.7561 Y2.4354  
G01 X-2.7495 Y2.4311  
G01 X-2.7439 Y2.4255  
G01 X-2.7396 Y2.4189  
G01 X-2.7365 Y2.4117  
G01 X-2.7350 Y2.4039  
G01 X-2.7350 Y2.3961  
G01 X-2.7365 Y2.3883  
G01 X-2.7396 Y2.3811  
G01 X-2.7439 Y2.3745  
G01 X-2.7495 Y2.3689  
G01 X-2.7561 Y2.3646  
G01 X-2.7633 Y2.3615  
G01 X-2.7711 Y2.3600  
G01 X-2.7789 Y2.3600  
G01 X-2.7867 Y2.3615  
G01 X-2.7939 Y2.3646  
G01 X-2.8005 Y2.3689  
G01 X-2.8061 Y2.3745  
G01 X-2.8077 Y2.3770  
G01 X-2.8513 Y2.3770  
G01 X-2.8613 Y2.3670  
G01 X-2.8887 Y2.3670  
G00 Z0.0500  
G00 X-2.8005 Y2.4689  
G01 Z-0.0030 F10    
G01 X-2.8061 Y2.4745  F20    
G01 X-2.8104 Y2.4811  
G01 X-2.8135 Y2.4883  
G01 X-2.8150 Y2.4961  
G01 X-2.8150 Y2.5039  
G01 X-2.8135 Y2.5117  
G01 X-2.8104 Y2.5189  
G01 X-2.8061 Y2.5255  
G01 X-2.8005 Y2.5311  
G01 X-2.7939 Y2.5354  
G01 X-2.7867 Y2.5385  
G01 X-2.7789 Y2.5400  
G01 X-2.7711 Y2.5400  
G01 X-2.7633 Y2.5385  
G01 X-2.7561 Y2.5354  
G01 X-2.7507 Y2.5319  
G01 X-2.7230 Y2.5595  
G01 X-2.7230 Y2.7858  
G01 X-2.8087 Y2.8286  
G01 X-2.8091 Y2.8288  
G01 X-2.8107 Y2.8296  
G01 X-2.8123 Y2.8304  
G01 X-2.8127 Y2.8307  
G01 X-2.8131 Y2.8309  
G01 X-2.8145 Y2.8321  
G01 X-2.8159 Y2.8332  
G01 X-2.8162 Y2.8336  
G01 X-2.8165 Y2.8339  
G01 X-2.8177 Y2.8353  
G01 X-2.8189 Y2.8366  
G01 X-2.8191 Y2.8370  
G01 X-2.9172 Y2.9596  
G01 X-2.9179 Y2.9603  
G01 X-2.9186 Y2.9614  
G01 X-2.9194 Y2.9624  
G01 X-2.9198 Y2.9633  
G01 X-2.9204 Y2.9641  
G01 X-2.9236 Y2.9663  
G01 X-2.9287 Y2.9714  
G01 X-2.9328 Y2.9775  
G01 X-2.9356 Y2.9842  
G01 X-2.9370 Y2.9914  
G01 X-2.9370 Y3.0586  
G01 X-2.9356 Y3.0658  
G01 X-2.9328 Y3.0725  
G01 X-2.9287 Y3.0786  
G01 X-2.9236 Y3.0837  
G01 X-2.9175 Y3.0878  
G01 X-2.9108 Y3.0906  
G01 X-2.9036 Y3.0920  
G01 X-2.8964 Y3.0920  
G01 X-2.8892 Y3.0906  
G01 X-2.8825 Y3.0878  
G01 X-2.8764 Y3.0837  
G01 X-2.8713 Y3.0786  
G01 X-2.8672 Y3.0725  
G01 X-2.8644 Y3.0658  
G01 X-2.8630 Y3.0586  
G01 X-2.8630 Y2.9914  
G01 X-2.8644 Y2.9842  
G01 X-2.8672 Y2.9775  
G01 X-2.8696 Y2.9739  
G01 X-2.7852 Y2.8683  
G01 X-2.6904 Y2.8209  
G01 X-2.6891 Y2.8204  
G01 X-2.6884 Y2.8199  
G01 X-2.6877 Y2.8196  
G01 X-2.6865 Y2.8187  
G01 X-2.6853 Y2.8179  
G01 X-2.6848 Y2.8173  
G01 X-2.6841 Y2.8168  
G01 X-2.6832 Y2.8157  
G01 X-2.6821 Y2.8147  
G01 X-2.6817 Y2.8140  
G01 X-2.6811 Y2.8134  
G01 X-2.6804 Y2.8121  
G01 X-2.6796 Y2.8109  
G01 X-2.6793 Y2.8101  
G01 X-2.6789 Y2.8094  
G01 X-2.6784 Y2.8080  
G01 X-2.6779 Y2.8067  
G01 X-2.6777 Y2.8059  
G01 X-2.6775 Y2.8051  
G01 X-2.6773 Y2.8037  
G01 X-2.6770 Y2.8023  
G01 X-2.6770 Y2.8014  
G01 X-2.6769 Y2.8006  
G01 X-2.6770 Y2.7992  
G01 X-2.6770 Y2.5477  
G01 X-2.6779 Y2.5433  
G01 X-2.6796 Y2.5391  
G01 X-2.6821 Y2.5353  
G01 X-2.7321 Y2.4853  
G01 X-2.7353 Y2.4821  
G01 X-2.7391 Y2.4796  
G01 X-2.7410 Y2.4788  
G01 X-2.7439 Y2.4745  
G01 X-2.7495 Y2.4689  
G01 X-2.7561 Y2.4646  
G01 X-2.7633 Y2.4615  
G01 X-2.7711 Y2.4600  
G01 X-2.7789 Y2.4600  
G01 X-2.7867 Y2.4615  
G01 X-2.7939 Y2.4646  
G01 X-2.8005 Y2.4689  
G00 Z0.0500  
G00 X-2.8005 Y2.5689  
G01 Z-0.0030 F10    
G01 X-2.8061 Y2.5745  F20    
G01 X-2.8104 Y2.5811  
G01 X-2.8135 Y2.5883  
G01 X-2.8150 Y2.5961  
G01 X-2.8150 Y2.6039  
G01 X-2.8135 Y2.6117  
G01 X-2.8104 Y2.6189  
G01 X-2.8061 Y2.6255  
G01 X-2.8005 Y2.6311  
G01 X-2.7980 Y2.6327  
G01 X-2.7980 Y2.6763  
G01 X-2.7987 Y2.6770  
G01 X-2.8227 Y2.6770  
G01 X-2.8250 Y2.6770  
G01 X-2.8273 Y2.6770  
G01 X-2.8295 Y2.6775  
G01 X-2.8317 Y2.6779  
G01 X-2.8338 Y2.6788  
G01 X-2.8359 Y2.6796  
G01 X-2.8378 Y2.6809  
G01 X-2.8397 Y2.6821  
G01 X-2.8413 Y2.6838  
G01 X-2.8429 Y2.6853  
G01 X-2.8441 Y2.6872  
G01 X-2.8454 Y2.6891  
G01 X-2.8806 Y2.7420  
G01 X-2.8887 Y2.7420  
G01 X-2.8917 Y2.7451  
G01 X-2.9420 Y2.6948  
G01 X-2.9420 Y2.6863  
G01 X-2.9613 Y2.6670  
G01 X-2.9887 Y2.6670  
G01 X-3.0080 Y2.6863  
G01 X-3.0080 Y2.7137  
G01 X-2.9887 Y2.7330  
G01 X-2.9802 Y2.7330  
G01 X-2.9172 Y2.7960  
G01 X-2.9160 Y2.7968  
G01 X-2.9231 Y2.8180  
G01 X-2.9782 Y2.8180  
G01 X-2.9843 Y2.8192  
G01 X-3.0001 Y2.8193  
G01 X-3.0027 Y2.8203  
G01 X-3.0047 Y2.8223  
G01 X-3.0057 Y2.8249  
G01 X-3.0057 Y2.8406  
G01 X-3.0070 Y2.8468  
G01 X-3.0070 Y2.8532  
G01 X-3.0058 Y2.8593  
G01 X-3.0057 Y2.8751  
G01 X-3.0047 Y2.8777  
G01 X-3.0027 Y2.8797  
G01 X-3.0001 Y2.8807  
G01 X-2.9844 Y2.8807  
G01 X-2.9782 Y2.8820  
G01 X-2.9020 Y2.8820  
G01 X-2.9009 Y2.8821  
G01 X-2.8989 Y2.8820  
G01 X-2.8968 Y2.8820  
G01 X-2.8957 Y2.8818  
G01 X-2.8946 Y2.8817  
G01 X-2.8926 Y2.8812  
G01 X-2.8907 Y2.8808  
G01 X-2.8749 Y2.8807  
G01 X-2.8723 Y2.8797  
G01 X-2.8703 Y2.8777  
G01 X-2.8693 Y2.8751  
G01 X-2.8693 Y2.8594  
G01 X-2.8690 Y2.8582  
G01 X-2.8477 Y2.7944  
G01 X-2.8420 Y2.7887  
G01 X-2.8420 Y2.7670  
G01 X-2.8127 Y2.7230  
G01 X-2.7987 Y2.7230  
G01 X-2.7887 Y2.7330  
G01 X-2.7613 Y2.7330  
G01 X-2.7420 Y2.7137  
G01 X-2.7420 Y2.6863  
G01 X-2.7520 Y2.6763  
G01 X-2.7520 Y2.6327  
G01 X-2.7495 Y2.6311  
G01 X-2.7439 Y2.6255  
G01 X-2.7396 Y2.6189  
G01 X-2.7365 Y2.6117  
G01 X-2.7350 Y2.6039  
G01 X-2.7350 Y2.5961  
G01 X-2.7365 Y2.5883  
G01 X-2.7396 Y2.5811  
G01 X-2.7439 Y2.5745  
G01 X-2.7495 Y2.5689  
G01 X-2.7561 Y2.5646  
G01 X-2.7633 Y2.5615  
G01 X-2.7711 Y2.5600  
G01 X-2.7789 Y2.5600  
G01 X-2.7867 Y2.5615  
G01 X-2.7939 Y2.5646  
G01 X-2.8005 Y2.5689  
G00 Z0.0500  
G00 X-2.6480 Y2.5014  
G01 Z-0.0030 F10    
G01 X-2.6480 Y2.8155  F20    
G01 X-2.6886 Y2.8561  
G01 X-2.7346 Y2.8791  
G01 X-2.7359 Y2.8796  
G01 X-2.7366 Y2.8801  
G01 X-2.7373 Y2.8804  
G01 X-2.7385 Y2.8813  
G01 X-2.7397 Y2.8821  
G01 X-2.7402 Y2.8827  
G01 X-2.7409 Y2.8832  
G01 X-2.7418 Y2.8843  
G01 X-2.8179 Y2.9603  
G01 X-2.8204 Y2.9641  
G01 X-2.8236 Y2.9663  
G01 X-2.8287 Y2.9714  
G01 X-2.8328 Y2.9775  
G01 X-2.8356 Y2.9842  
G01 X-2.8370 Y2.9914  
G01 X-2.8370 Y3.0586  
G01 X-2.8356 Y3.0658  
G01 X-2.8328 Y3.0725  
G01 X-2.8287 Y3.0786  
G01 X-2.8236 Y3.0837  
G01 X-2.8175 Y3.0878  
G01 X-2.8108 Y3.0906  
G01 X-2.8036 Y3.0920  
G01 X-2.7964 Y3.0920  
G01 X-2.7892 Y3.0906  
G01 X-2.7825 Y3.0878  
G01 X-2.7764 Y3.0837  
G01 X-2.7713 Y3.0786  
G01 X-2.7672 Y3.0725  
G01 X-2.7644 Y3.0658  
G01 X-2.7630 Y3.0586  
G01 X-2.7630 Y2.9914  
G01 X-2.7644 Y2.9842  
G01 X-2.7672 Y2.9775  
G01 X-2.7683 Y2.9758  
G01 X-2.7114 Y2.9189  
G01 X-2.6654 Y2.8959  
G01 X-2.6641 Y2.8954  
G01 X-2.6634 Y2.8949  
G01 X-2.6627 Y2.8946  
G01 X-2.6615 Y2.8937  
G01 X-2.6603 Y2.8929  
G01 X-2.6598 Y2.8923  
G01 X-2.6591 Y2.8918  
G01 X-2.6582 Y2.8907  
G01 X-2.6103 Y2.8429  
G01 X-2.6071 Y2.8397  
G01 X-2.6046 Y2.8359  
G01 X-2.6029 Y2.8317  
G01 X-2.6020 Y2.8273  
G01 X-2.6020 Y2.5054  
G01 X-2.5801 Y2.4616  
G01 X-2.5796 Y2.4609  
G01 X-2.5791 Y2.4596  
G01 X-2.5784 Y2.4583  
G01 X-2.5782 Y2.4575  
G01 X-2.5779 Y2.4567  
G01 X-2.5776 Y2.4553  
G01 X-2.5772 Y2.4539  
G01 X-2.5772 Y2.4531  
G01 X-2.5770 Y2.4523  
G01 X-2.5770 Y2.4508  
G01 X-2.5769 Y2.4494  
G01 X-2.5770 Y2.4486  
G01 X-2.5770 Y2.2237  
G01 X-2.5670 Y2.2137  
G01 X-2.5670 Y2.1863  
G01 X-2.5863 Y2.1670  
G01 X-2.6137 Y2.1670  
G01 X-2.6330 Y2.1863  
G01 X-2.6330 Y2.2137  
G01 X-2.6230 Y2.2237  
G01 X-2.6230 Y2.4446  
G01 X-2.6449 Y2.4884  
G01 X-2.6454 Y2.4891  
G01 X-2.6459 Y2.4904  
G01 X-2.6466 Y2.4917  
G01 X-2.6468 Y2.4925  
G01 X-2.6471 Y2.4933  
G01 X-2.6474 Y2.4947  
G01 X-2.6478 Y2.4961  
G01 X-2.6478 Y2.4969  
G01 X-2.6480 Y2.4977  
G01 X-2.6480 Y2.4992  
G01 X-2.6481 Y2.5006  
G01 X-2.6480 Y2.5014  
G00 Z0.0500  
G00 X-2.5150 Y2.5039  
G01 Z-0.0030 F10    
G01 X-2.5135 Y2.5117  F20    
G01 X-2.5104 Y2.5189  
G01 X-2.5061 Y2.5255  
G01 X-2.5005 Y2.5311  
G01 X-2.4939 Y2.5354  
G01 X-2.4867 Y2.5385  
G01 X-2.4789 Y2.5400  
G01 X-2.4711 Y2.5400  
G01 X-2.4633 Y2.5385  
G01 X-2.4561 Y2.5354  
G01 X-2.4495 Y2.5311  
G01 X-2.4439 Y2.5255  
G01 X-2.4423 Y2.5230  
G01 X-2.3987 Y2.5230  
G01 X-2.3980 Y2.5237  
G01 X-2.3980 Y2.6377  
G01 X-2.4536 Y2.6747  
G01 X-2.4613 Y2.6670  
G01 X-2.4887 Y2.6670  
G01 X-2.5080 Y2.6863  
G01 X-2.5080 Y2.7137  
G01 X-2.4887 Y2.7330  
G01 X-2.4613 Y2.7330  
G01 X-2.4513 Y2.7230  
G01 X-2.4500 Y2.7230  
G01 X-2.4478 Y2.7230  
G01 X-2.4455 Y2.7226  
G01 X-2.4433 Y2.7221  
G01 X-2.4411 Y2.7212  
G01 X-2.4391 Y2.7204  
G01 X-2.4371 Y2.7191  
G01 X-2.3641 Y2.6704  
G01 X-2.3622 Y2.6691  
G01 X-2.3604 Y2.6679  
G01 X-2.3588 Y2.6663  
G01 X-2.3572 Y2.6647  
G01 X-2.3559 Y2.6628  
G01 X-2.3546 Y2.6609  
G01 X-2.3537 Y2.6588  
G01 X-2.3529 Y2.6567  
G01 X-2.3525 Y2.6545  
G01 X-2.3520 Y2.6523  
G01 X-2.3520 Y2.6500  
G01 X-2.3520 Y2.6478  
G01 X-2.3520 Y2.5237  
G01 X-2.3420 Y2.5137  
G01 X-2.3420 Y2.4863  
G01 X-2.3613 Y2.4670  
G01 X-2.3887 Y2.4670  
G01 X-2.3987 Y2.4770  
G01 X-2.4423 Y2.4770  
G01 X-2.4439 Y2.4745  
G01 X-2.4495 Y2.4689  
G01 X-2.4561 Y2.4646  
G01 X-2.4633 Y2.4615  
G01 X-2.4711 Y2.4600  
G01 X-2.4789 Y2.4600  
G01 X-2.4867 Y2.4615  
G01 X-2.4939 Y2.4646  
G01 X-2.5005 Y2.4689  
G01 X-2.5061 Y2.4745  
G01 X-2.5104 Y2.4811  
G01 X-2.5135 Y2.4883  
G01 X-2.5150 Y2.4961  
G01 X-2.5150 Y2.5039  
G00 Z0.0500  
G00 X-2.5005 Y2.5689  
G01 Z-0.0030 F10    
G01 X-2.5061 Y2.5745  F20    
G01 X-2.5104 Y2.5811  
G01 X-2.5135 Y2.5883  
G01 X-2.5150 Y2.5961  
G01 X-2.5150 Y2.5990  
G01 X-2.5609 Y2.6296  
G01 X-2.5628 Y2.6309  
G01 X-2.5646 Y2.6321  
G01 X-2.5662 Y2.6337  
G01 X-2.5678 Y2.6353  
G01 X-2.5691 Y2.6372  
G01 X-2.5704 Y2.6391  
G01 X-2.5713 Y2.6412  
G01 X-2.5721 Y2.6433  
G01 X-2.5725 Y2.6455  
G01 X-2.5730 Y2.6477  
G01 X-2.5730 Y2.6500  
G01 X-2.5730 Y2.6522  
G01 X-2.5730 Y2.8905  
G01 X-2.6636 Y2.9811  
G01 X-2.6654 Y2.9820  
G01 X-2.6672 Y2.9775  
G01 X-2.6713 Y2.9714  
G01 X-2.6764 Y2.9663  
G01 X-2.6825 Y2.9622  
G01 X-2.6892 Y2.9594  
G01 X-2.6964 Y2.9580  
G01 X-2.7036 Y2.9580  
G01 X-2.7108 Y2.9594  
G01 X-2.7175 Y2.9622  
G01 X-2.7236 Y2.9663  
G01 X-2.7287 Y2.9714  
G01 X-2.7328 Y2.9775  
G01 X-2.7356 Y2.9842  
G01 X-2.7370 Y2.9914  
G01 X-2.7370 Y3.0586  
G01 X-2.7356 Y3.0658  
G01 X-2.7328 Y3.0725  
G01 X-2.7287 Y3.0786  
G01 X-2.7236 Y3.0837  
G01 X-2.7175 Y3.0878  
G01 X-2.7108 Y3.0906  
G01 X-2.7036 Y3.0920  
G01 X-2.6964 Y3.0920  
G01 X-2.6892 Y3.0906  
G01 X-2.6825 Y3.0878  
G01 X-2.6764 Y3.0837  
G01 X-2.6713 Y3.0786  
G01 X-2.6672 Y3.0725  
G01 X-2.6644 Y3.0658  
G01 X-2.6630 Y3.0586  
G01 X-2.6630 Y3.0322  
G01 X-2.6404 Y3.0209  
G01 X-2.6391 Y3.0204  
G01 X-2.6384 Y3.0199  
G01 X-2.6377 Y3.0196  
G01 X-2.6365 Y3.0187  
G01 X-2.6353 Y3.0179  
G01 X-2.6348 Y3.0173  
G01 X-2.6341 Y3.0168  
G01 X-2.6332 Y3.0157  
G01 X-2.5321 Y2.9147  
G01 X-2.5296 Y2.9109  
G01 X-2.5279 Y2.9067  
G01 X-2.5270 Y2.9023  
G01 X-2.5270 Y2.6623  
G01 X-2.4895 Y2.6373  
G01 X-2.4867 Y2.6385  
G01 X-2.4789 Y2.6400  
G01 X-2.4711 Y2.6400  
G01 X-2.4633 Y2.6385  
G01 X-2.4561 Y2.6354  
G01 X-2.4495 Y2.6311  
G01 X-2.4439 Y2.6255  
G01 X-2.4396 Y2.6189  
G01 X-2.4365 Y2.6117  
G01 X-2.4350 Y2.6039  
G01 X-2.4350 Y2.5961  
G01 X-2.4365 Y2.5883  
G01 X-2.4396 Y2.5811  
G01 X-2.4439 Y2.5745  
G01 X-2.4495 Y2.5689  
G01 X-2.4561 Y2.5646  
G01 X-2.4633 Y2.5615  
G01 X-2.4711 Y2.5600  
G01 X-2.4789 Y2.5600  
G01 X-2.4867 Y2.5615  
G01 X-2.4939 Y2.5646  
G01 X-2.5005 Y2.5689  
G00 Z0.0500  
G00 X-2.5005 Y2.4311  
G01 Z-0.0030 F10    
G01 X-2.4939 Y2.4354  F20    
G01 X-2.4867 Y2.4385  
G01 X-2.4789 Y2.4400  
G01 X-2.4711 Y2.4400  
G01 X-2.4633 Y2.4385  
G01 X-2.4561 Y2.4354  
G01 X-2.4495 Y2.4311  
G01 X-2.4439 Y2.4255  
G01 X-2.4423 Y2.4230  
G01 X-2.3987 Y2.4230  
G01 X-2.3887 Y2.4330  
G01 X-2.3613 Y2.4330  
G01 X-2.3420 Y2.4137  
G01 X-2.3420 Y2.3863  
G01 X-2.3492 Y2.3791  
G01 X-2.3302 Y2.2268  
G01 X-2.3170 Y2.2137  
G01 X-2.3170 Y2.1863  
G01 X-2.3363 Y2.1670  
G01 X-2.3637 Y2.1670  
G01 X-2.3830 Y2.1863  
G01 X-2.3830 Y2.2137  
G01 X-2.3758 Y2.2209  
G01 X-2.3948 Y2.3732  
G01 X-2.3987 Y2.3770  
G01 X-2.4423 Y2.3770  
G01 X-2.4439 Y2.3745  
G01 X-2.4495 Y2.3689  
G01 X-2.4561 Y2.3646  
G01 X-2.4633 Y2.3615  
G01 X-2.4711 Y2.3600  
G01 X-2.4789 Y2.3600  
G01 X-2.4867 Y2.3615  
G01 X-2.4939 Y2.3646  
G01 X-2.5005 Y2.3689  
G01 X-2.5061 Y2.3745  
G01 X-2.5104 Y2.3811  
G01 X-2.5135 Y2.3883  
G01 X-2.5150 Y2.3961  
G01 X-2.5150 Y2.4039  
G01 X-2.5135 Y2.4117  
G01 X-2.5104 Y2.4189  
G01 X-2.5061 Y2.4255  
G01 X-2.5005 Y2.4311  
G00 Z0.0500  
G00 X-2.2980 Y2.3016  
G01 Z-0.0030 F10    
G01 X-2.2980 Y2.9247  F20    
G01 X-2.2980 Y2.9268  
G01 X-2.2980 Y2.9270  
G01 X-2.2980 Y2.9273  
G01 X-2.2976 Y2.9292  
G01 X-2.2973 Y2.9312  
G01 X-2.2972 Y2.9315  
G01 X-2.2971 Y2.9317  
G01 X-2.2963 Y2.9336  
G01 X-2.2956 Y2.9354  
G01 X-2.2955 Y2.9357  
G01 X-2.2954 Y2.9359  
G01 X-2.2943 Y2.9376  
G01 X-2.2932 Y2.9393  
G01 X-2.2930 Y2.9394  
G01 X-2.2929 Y2.9397  
G01 X-2.2914 Y2.9411  
G01 X-2.2901 Y2.9425  
G01 X-2.2898 Y2.9427  
G01 X-2.2897 Y2.9429  
G01 X-2.2880 Y2.9440  
G01 X-2.2863 Y2.9451  
G01 X-2.2861 Y2.9452  
G01 X-2.2859 Y2.9454  
G01 X-2.2840 Y2.9462  
G01 X-2.2822 Y2.9470  
G01 X-2.2819 Y2.9470  
G01 X-2.2817 Y2.9471  
G01 X-2.2797 Y2.9475  
G01 X-1.8620 Y3.0403  
G01 X-1.8620 Y3.0586  
G01 X-1.8606 Y3.0658  
G01 X-1.8578 Y3.0725  
G01 X-1.8537 Y3.0786  
G01 X-1.8486 Y3.0837  
G01 X-1.8425 Y3.0878  
G01 X-1.8358 Y3.0906  
G01 X-1.8286 Y3.0920  
G01 X-1.8214 Y3.0920  
G01 X-1.8142 Y3.0906  
G01 X-1.8075 Y3.0878  
G01 X-1.8014 Y3.0837  
G01 X-1.7963 Y3.0786  
G01 X-1.7922 Y3.0725  
G01 X-1.7894 Y3.0658  
G01 X-1.7880 Y3.0586  
G01 X-1.7880 Y2.9914  
G01 X-1.7894 Y2.9842  
G01 X-1.7922 Y2.9775  
G01 X-1.7963 Y2.9714  
G01 X-1.8014 Y2.9663  
G01 X-1.8075 Y2.9622  
G01 X-1.8142 Y2.9594  
G01 X-1.8214 Y2.9580  
G01 X-1.8286 Y2.9580  
G01 X-1.8358 Y2.9594  
G01 X-1.8425 Y2.9622  
G01 X-1.8486 Y2.9663  
G01 X-1.8537 Y2.9714  
G01 X-1.8578 Y2.9775  
G01 X-1.8606 Y2.9842  
G01 X-1.8620 Y2.9914  
G01 X-1.8620 Y2.9932  
G01 X-2.2520 Y2.9066  
G01 X-2.2520 Y2.3077  
G01 X-2.1960 Y2.2330  
G01 X-2.1863 Y2.2330  
G01 X-2.1670 Y2.2137  
G01 X-2.1670 Y2.1863  
G01 X-2.1863 Y2.1670  
G01 X-2.2137 Y2.1670  
G01 X-2.2330 Y2.1863  
G01 X-2.2330 Y2.2057  
G01 X-2.2924 Y2.2849  
G01 X-2.2929 Y2.2853  
G01 X-2.2938 Y2.2867  
G01 X-2.2948 Y2.2880  
G01 X-2.2950 Y2.2886  
G01 X-2.2954 Y2.2891  
G01 X-2.2960 Y2.2906  
G01 X-2.2967 Y2.2921  
G01 X-2.2969 Y2.2927  
G01 X-2.2971 Y2.2933  
G01 X-2.2974 Y2.2949  
G01 X-2.2978 Y2.2965  
G01 X-2.2979 Y2.2971  
G01 X-2.2980 Y2.2977  
G01 X-2.2980 Y2.2994  
G01 X-2.2981 Y2.3010  
G01 X-2.2980 Y2.3016  
G00 Z0.0500  
G00 X-2.1080 Y2.3137  
G01 Z-0.0030 F10    
G01 X-2.0887 Y2.3330  F20    
G01 X-2.0613 Y2.3330  
G01 X-2.0513 Y2.3230  
G01 X-2.0150 Y2.3230  
G01 X-2.0150 Y2.3344  
G01 X-2.0139 Y2.3370  
G01 X-2.0120 Y2.3389  
G01 X-2.0094 Y2.3400  
G01 X-1.9406 Y2.3400  
G01 X-1.9380 Y2.3389  
G01 X-1.9361 Y2.3370  
G01 X-1.9350 Y2.3344  
G01 X-1.9350 Y2.2714  
G01 X-1.9301 Y2.2616  
G01 X-1.9296 Y2.2609  
G01 X-1.9291 Y2.2596  
G01 X-1.9284 Y2.2583  
G01 X-1.9282 Y2.2575  
G01 X-1.9279 Y2.2567  
G01 X-1.9276 Y2.2553  
G01 X-1.9272 Y2.2539  
G01 X-1.9272 Y2.2531  
G01 X-1.9270 Y2.2523  
G01 X-1.9270 Y2.2508  
G01 X-1.9269 Y2.2494  
G01 X-1.9270 Y2.2486  
G01 X-1.9270 Y2.2237  
G01 X-1.9170 Y2.2137  
G01 X-1.9170 Y2.1863  
G01 X-1.9363 Y2.1670  
G01 X-1.9637 Y2.1670  
G01 X-1.9830 Y2.1863  
G01 X-1.9830 Y2.2137  
G01 X-1.9730 Y2.2237  
G01 X-1.9730 Y2.2446  
G01 X-1.9807 Y2.2600  
G01 X-2.0094 Y2.2600  
G01 X-2.0120 Y2.2611  
G01 X-2.0139 Y2.2630  
G01 X-2.0150 Y2.2656  
G01 X-2.0150 Y2.2770  
G01 X-2.0513 Y2.2770  
G01 X-2.0613 Y2.2670  
G01 X-2.0887 Y2.2670  
G01 X-2.1080 Y2.2863  
G01 X-2.1080 Y2.3137  
G00 Z0.0500  
G00 X-2.0887 Y2.3670  
G01 Z-0.0030 F10    
G01 X-2.1080 Y2.3863  F20    
G01 X-2.1080 Y2.4137  
G01 X-2.0980 Y2.4237  
G01 X-2.0980 Y2.4513  
G01 X-2.1080 Y2.4613  
G01 X-2.1080 Y2.4887  
G01 X-2.0887 Y2.5080  
G01 X-2.0613 Y2.5080  
G01 X-2.0420 Y2.4887  
G01 X-2.0420 Y2.4613  
G01 X-2.0520 Y2.4513  
G01 X-2.0520 Y2.4237  
G01 X-2.0513 Y2.4230  
G01 X-2.0077 Y2.4230  
G01 X-2.0061 Y2.4255  
G01 X-2.0005 Y2.4311  
G01 X-1.9939 Y2.4354  
G01 X-1.9867 Y2.4385  
G01 X-1.9789 Y2.4400  
G01 X-1.9711 Y2.4400  
G01 X-1.9633 Y2.4385  
G01 X-1.9561 Y2.4354  
G01 X-1.9495 Y2.4311  
G01 X-1.9439 Y2.4255  
G01 X-1.9396 Y2.4189  
G01 X-1.9365 Y2.4117  
G01 X-1.9350 Y2.4039  
G01 X-1.9350 Y2.3961  
G01 X-1.9365 Y2.3883  
G01 X-1.9396 Y2.3811  
G01 X-1.9439 Y2.3745  
G01 X-1.9495 Y2.3689  
G01 X-1.9561 Y2.3646  
G01 X-1.9633 Y2.3615  
G01 X-1.9711 Y2.3600  
G01 X-1.9789 Y2.3600  
G01 X-1.9867 Y2.3615  
G01 X-1.9939 Y2.3646  
G01 X-2.0005 Y2.3689  
G01 X-2.0061 Y2.3745  
G01 X-2.0077 Y2.3770  
G01 X-2.0513 Y2.3770  
G01 X-2.0613 Y2.3670  
G01 X-2.0887 Y2.3670  
G00 Z0.0500  
G00 X-2.0005 Y2.4689  
G01 Z-0.0030 F10    
G01 X-2.0061 Y2.4745  F20    
G01 X-2.0104 Y2.4811  
G01 X-2.0135 Y2.4883  
G01 X-2.0150 Y2.4961  
G01 X-2.0150 Y2.5039  
G01 X-2.0135 Y2.5117  
G01 X-2.0104 Y2.5189  
G01 X-2.0061 Y2.5255  
G01 X-2.0005 Y2.5311  
G01 X-1.9939 Y2.5354  
G01 X-1.9867 Y2.5385  
G01 X-1.9789 Y2.5400  
G01 X-1.9711 Y2.5400  
G01 X-1.9633 Y2.5385  
G01 X-1.9561 Y2.5354  
G01 X-1.9507 Y2.5319  
G01 X-1.9230 Y2.5595  
G01 X-1.9230 Y2.8492  
G01 X-1.9231 Y2.8506  
G01 X-1.9230 Y2.8514  
G01 X-1.9230 Y2.8523  
G01 X-1.9227 Y2.8537  
G01 X-1.9225 Y2.8551  
G01 X-1.9223 Y2.8559  
G01 X-1.9221 Y2.8567  
G01 X-1.9216 Y2.8580  
G01 X-1.9211 Y2.8594  
G01 X-1.9207 Y2.8601  
G01 X-1.9204 Y2.8609  
G01 X-1.9196 Y2.8621  
G01 X-1.9189 Y2.8634  
G01 X-1.9183 Y2.8640  
G01 X-1.9179 Y2.8647  
G01 X-1.9168 Y2.8657  
G01 X-1.9159 Y2.8668  
G01 X-1.9152 Y2.8673  
G01 X-1.9147 Y2.8679  
G01 X-1.9135 Y2.8687  
G01 X-1.9123 Y2.8696  
G01 X-1.9116 Y2.8699  
G01 X-1.9109 Y2.8704  
G01 X-1.9096 Y2.8709  
G01 X-1.7697 Y2.9408  
G01 X-1.7595 Y2.9817  
G01 X-1.7606 Y2.9842  
G01 X-1.7620 Y2.9914  
G01 X-1.7620 Y3.0586  
G01 X-1.7606 Y3.0658  
G01 X-1.7578 Y3.0725  
G01 X-1.7537 Y3.0786  
G01 X-1.7486 Y3.0837  
G01 X-1.7425 Y3.0878  
G01 X-1.7358 Y3.0906  
G01 X-1.7286 Y3.0920  
G01 X-1.7214 Y3.0920  
G01 X-1.7142 Y3.0906  
G01 X-1.7075 Y3.0878  
G01 X-1.7014 Y3.0837  
G01 X-1.6963 Y3.0786  
G01 X-1.6922 Y3.0725  
G01 X-1.6894 Y3.0658  
G01 X-1.6880 Y3.0586  
G01 X-1.6880 Y2.9914  
G01 X-1.6894 Y2.9842  
G01 X-1.6922 Y2.9775  
G01 X-1.6963 Y2.9714  
G01 X-1.7014 Y2.9663  
G01 X-1.7075 Y2.9622  
G01 X-1.7142 Y2.9594  
G01 X-1.7179 Y2.9587  
G01 X-1.7274 Y2.9208  
G01 X-1.7275 Y2.9199  
G01 X-1.7279 Y2.9186  
G01 X-1.7282 Y2.9172  
G01 X-1.7286 Y2.9164  
G01 X-1.7289 Y2.9156  
G01 X-1.7296 Y2.9144  
G01 X-1.7302 Y2.9131  
G01 X-1.7307 Y2.9124  
G01 X-1.7311 Y2.9116  
G01 X-1.7320 Y2.9106  
G01 X-1.7329 Y2.9095  
G01 X-1.7335 Y2.9089  
G01 X-1.7341 Y2.9082  
G01 X-1.7352 Y2.9074  
G01 X-1.7362 Y2.9064  
G01 X-1.7370 Y2.9060  
G01 X-1.7377 Y2.9054  
G01 X-1.7389 Y2.9048  
G01 X-1.7401 Y2.9041  
G01 X-1.7409 Y2.9038  
G01 X-1.8770 Y2.8358  
G01 X-1.8770 Y2.5477  
G01 X-1.8779 Y2.5433  
G01 X-1.8796 Y2.5391  
G01 X-1.8821 Y2.5353  
G01 X-1.9321 Y2.4853  
G01 X-1.9353 Y2.4821  
G01 X-1.9391 Y2.4796  
G01 X-1.9410 Y2.4788  
G01 X-1.9439 Y2.4745  
G01 X-1.9495 Y2.4689  
G01 X-1.9561 Y2.4646  
G01 X-1.9633 Y2.4615  
G01 X-1.9711 Y2.4600  
G01 X-1.9789 Y2.4600  
G01 X-1.9867 Y2.4615  
G01 X-1.9939 Y2.4646  
G01 X-2.0005 Y2.4689  
G00 Z0.0500  
G00 X-2.0005 Y2.5689  
G01 Z-0.0030 F10    
G01 X-2.0061 Y2.5745  F20    
G01 X-2.0104 Y2.5811  
G01 X-2.0135 Y2.5883  
G01 X-2.0150 Y2.5961  
G01 X-2.0150 Y2.6039  
G01 X-2.0135 Y2.6117  
G01 X-2.0104 Y2.6189  
G01 X-2.0061 Y2.6255  
G01 X-2.0005 Y2.6311  
G01 X-1.9980 Y2.6327  
G01 X-1.9980 Y2.6763  
G01 X-2.0017 Y2.6800  
G01 X-2.0843 Y2.7420  
G01 X-2.0877 Y2.7420  
G01 X-2.1420 Y2.6877  
G01 X-2.1420 Y2.6863  
G01 X-2.1613 Y2.6670  
G01 X-2.1887 Y2.6670  
G01 X-2.2080 Y2.6863  
G01 X-2.2080 Y2.7137  
G01 X-2.1887 Y2.7330  
G01 X-2.1873 Y2.7330  
G01 X-2.1204 Y2.7999  
G01 X-2.1152 Y2.8034  
G01 X-2.1093 Y2.8058  
G01 X-2.1032 Y2.8070  
G01 X-2.0968 Y2.8070  
G01 X-2.0927 Y2.8062  
G01 X-2.0848 Y2.8180  
G01 X-2.1782 Y2.8180  
G01 X-2.1843 Y2.8192  
G01 X-2.2001 Y2.8193  
G01 X-2.2027 Y2.8203  
G01 X-2.2047 Y2.8223  
G01 X-2.2057 Y2.8249  
G01 X-2.2057 Y2.8406  
G01 X-2.2070 Y2.8468  
G01 X-2.2070 Y2.8532  
G01 X-2.2058 Y2.8593  
G01 X-2.2057 Y2.8751  
G01 X-2.2047 Y2.8777  
G01 X-2.2027 Y2.8797  
G01 X-2.2001 Y2.8807  
G01 X-2.1844 Y2.8807  
G01 X-2.1782 Y2.8820  
G01 X-2.0251 Y2.8820  
G01 X-2.0219 Y2.8820  
G01 X-2.0188 Y2.8814  
G01 X-2.0157 Y2.8808  
G01 X-1.9999 Y2.8807  
G01 X-1.9973 Y2.8797  
G01 X-1.9953 Y2.8777  
G01 X-1.9943 Y2.8751  
G01 X-1.9943 Y2.8594  
G01 X-1.9936 Y2.8563  
G01 X-1.9930 Y2.8532  
G01 X-1.9930 Y2.8501  
G01 X-1.9930 Y2.8469  
G01 X-1.9936 Y2.8438  
G01 X-1.9942 Y2.8407  
G01 X-1.9943 Y2.8249  
G01 X-1.9953 Y2.8223  
G01 X-1.9973 Y2.8203  
G01 X-1.9999 Y2.8193  
G01 X-2.0070 Y2.8193  
G01 X-2.0316 Y2.7824  
G01 X-1.9657 Y2.7330  
G01 X-1.9613 Y2.7330  
G01 X-1.9420 Y2.7137  
G01 X-1.9420 Y2.6863  
G01 X-1.9520 Y2.6763  
G01 X-1.9520 Y2.6327  
G01 X-1.9495 Y2.6311  
G01 X-1.9439 Y2.6255  
G01 X-1.9396 Y2.6189  
G01 X-1.9365 Y2.6117  
G01 X-1.9350 Y2.6039  
G01 X-1.9350 Y2.5961  
G01 X-1.9365 Y2.5883  
G01 X-1.9396 Y2.5811  
G01 X-1.9439 Y2.5745  
G01 X-1.9495 Y2.5689  
G01 X-1.9561 Y2.5646  
G01 X-1.9633 Y2.5615  
G01 X-1.9711 Y2.5600  
G01 X-1.9789 Y2.5600  
G01 X-1.9867 Y2.5615  
G01 X-1.9939 Y2.5646  
G01 X-2.0005 Y2.5689  
G00 Z0.0500  
G00 X-1.8480 Y2.5514  
G01 Z-0.0030 F10    
G01 X-1.8480 Y2.8023  F20    
G01 X-1.8471 Y2.8067  
G01 X-1.8454 Y2.8109  
G01 X-1.8429 Y2.8147  
G01 X-1.8397 Y2.8179  
G01 X-1.8163 Y2.8412  
G01 X-1.8147 Y2.8428  
G01 X-1.8128 Y2.8441  
G01 X-1.8109 Y2.8454  
G01 X-1.8088 Y2.8463  
G01 X-1.8067 Y2.8471  
G01 X-1.8045 Y2.8476  
G01 X-1.6889 Y2.8707  
G01 X-1.6480 Y2.9320  
G01 X-1.6480 Y2.9659  
G01 X-1.6486 Y2.9663  
G01 X-1.6537 Y2.9714  
G01 X-1.6578 Y2.9775  
G01 X-1.6606 Y2.9842  
G01 X-1.6620 Y2.9914  
G01 X-1.6620 Y3.0586  
G01 X-1.6606 Y3.0658  
G01 X-1.6578 Y3.0725  
G01 X-1.6537 Y3.0786  
G01 X-1.6486 Y3.0837  
G01 X-1.6425 Y3.0878  
G01 X-1.6358 Y3.0906  
G01 X-1.6286 Y3.0920  
G01 X-1.6214 Y3.0920  
G01 X-1.6142 Y3.0906  
G01 X-1.6075 Y3.0878  
G01 X-1.6014 Y3.0837  
G01 X-1.5963 Y3.0786  
G01 X-1.5922 Y3.0725  
G01 X-1.5894 Y3.0658  
G01 X-1.5880 Y3.0586  
G01 X-1.5880 Y2.9914  
G01 X-1.5894 Y2.9842  
G01 X-1.5922 Y2.9775  
G01 X-1.5963 Y2.9714  
G01 X-1.6014 Y2.9663  
G01 X-1.6020 Y2.9659  
G01 X-1.6020 Y2.9250  
G01 X-1.6020 Y2.9228  
G01 X-1.6024 Y2.9205  
G01 X-1.6029 Y2.9183  
G01 X-1.6038 Y2.9162  
G01 X-1.6046 Y2.9141  
G01 X-1.6059 Y2.9122  
G01 X-1.6571 Y2.8354  
G01 X-1.6603 Y2.8322  
G01 X-1.6641 Y2.8296  
G01 X-1.6683 Y2.8279  
G01 X-1.6685 Y2.8278  
G01 X-1.6727 Y2.8270  
G01 X-1.7887 Y2.8038  
G01 X-1.8020 Y2.7905  
G01 X-1.8020 Y2.5554  
G01 X-1.7801 Y2.5116  
G01 X-1.7796 Y2.5109  
G01 X-1.7791 Y2.5096  
G01 X-1.7784 Y2.5083  
G01 X-1.7782 Y2.5075  
G01 X-1.7779 Y2.5067  
G01 X-1.7776 Y2.5053  
G01 X-1.7772 Y2.5039  
G01 X-1.7772 Y2.5031  
G01 X-1.7770 Y2.5023  
G01 X-1.7770 Y2.5008  
G01 X-1.7769 Y2.4994  
G01 X-1.7770 Y2.4986  
G01 X-1.7770 Y2.2237  
G01 X-1.7670 Y2.2137  
G01 X-1.7670 Y2.1863  
G01 X-1.7863 Y2.1670  
G01 X-1.8137 Y2.1670  
G01 X-1.8330 Y2.1863  
G01 X-1.8330 Y2.2137  
G01 X-1.8230 Y2.2237  
G01 X-1.8230 Y2.4946  
G01 X-1.8449 Y2.5384  
G01 X-1.8454 Y2.5391  
G01 X-1.8459 Y2.5404  
G01 X-1.8466 Y2.5417  
G01 X-1.8468 Y2.5425  
G01 X-1.8471 Y2.5433  
G01 X-1.8474 Y2.5447  
G01 X-1.8478 Y2.5461  
G01 X-1.8478 Y2.5469  
G01 X-1.8480 Y2.5477  
G01 X-1.8480 Y2.5492  
G01 X-1.8481 Y2.5506  
G01 X-1.8480 Y2.5514  
G00 Z0.0500  
G00 X-1.7678 Y2.6353  
G01 Z-0.0030 F10    
G01 X-1.7679 Y2.6353  F20    
G01 X-1.7691 Y2.6372  
G01 X-1.7704 Y2.6391  
G01 X-1.7712 Y2.6412  
G01 X-1.7721 Y2.6433  
G01 X-1.7725 Y2.6455  
G01 X-1.7730 Y2.6477  
G01 X-1.7730 Y2.6500  
G01 X-1.7730 Y2.6522  
G01 X-1.7730 Y2.7773  
G01 X-1.7721 Y2.7817  
G01 X-1.7704 Y2.7859  
G01 X-1.7679 Y2.7897  
G01 X-1.7647 Y2.7929  
G01 X-1.7609 Y2.7954  
G01 X-1.7567 Y2.7971  
G01 X-1.7523 Y2.7980  
G01 X-1.6554 Y2.7980  
G01 X-1.5713 Y2.8401  
G01 X-1.5547 Y2.9728  
G01 X-1.5578 Y2.9775  
G01 X-1.5606 Y2.9842  
G01 X-1.5620 Y2.9914  
G01 X-1.5620 Y3.0586  
G01 X-1.5606 Y3.0658  
G01 X-1.5578 Y3.0725  
G01 X-1.5537 Y3.0786  
G01 X-1.5486 Y3.0837  
G01 X-1.5425 Y3.0878  
G01 X-1.5358 Y3.0906  
G01 X-1.5286 Y3.0920  
G01 X-1.5214 Y3.0920  
G01 X-1.5142 Y3.0906  
G01 X-1.5075 Y3.0878  
G01 X-1.5014 Y3.0837  
G01 X-1.4963 Y3.0786  
G01 X-1.4922 Y3.0725  
G01 X-1.4894 Y3.0658  
G01 X-1.4880 Y3.0586  
G01 X-1.4880 Y2.9914  
G01 X-1.4894 Y2.9842  
G01 X-1.4922 Y2.9775  
G01 X-1.4963 Y2.9714  
G01 X-1.5014 Y2.9663  
G01 X-1.5075 Y2.9622  
G01 X-1.5098 Y2.9613  
G01 X-1.5269 Y2.8244  
G01 X-1.5272 Y2.8222  
G01 X-1.5275 Y2.8199  
G01 X-1.5282 Y2.8178  
G01 X-1.5289 Y2.8156  
G01 X-1.5300 Y2.8136  
G01 X-1.5311 Y2.8117  
G01 X-1.5326 Y2.8099  
G01 X-1.5341 Y2.8082  
G01 X-1.5359 Y2.8068  
G01 X-1.5377 Y2.8055  
G01 X-1.5397 Y2.8044  
G01 X-1.5417 Y2.8034  
G01 X-1.6384 Y2.7551  
G01 X-1.6391 Y2.7546  
G01 X-1.6404 Y2.7541  
G01 X-1.6417 Y2.7534  
G01 X-1.6425 Y2.7532  
G01 X-1.6433 Y2.7529  
G01 X-1.6447 Y2.7526  
G01 X-1.6461 Y2.7522  
G01 X-1.6469 Y2.7522  
G01 X-1.6477 Y2.7520  
G01 X-1.6492 Y2.7520  
G01 X-1.6506 Y2.7519  
G01 X-1.6514 Y2.7520  
G01 X-1.7270 Y2.7520  
G01 X-1.7270 Y2.6623  
G01 X-1.6895 Y2.6373  
G01 X-1.6867 Y2.6385  
G01 X-1.6789 Y2.6400  
G01 X-1.6711 Y2.6400  
G01 X-1.6633 Y2.6385  
G01 X-1.6561 Y2.6354  
G01 X-1.6495 Y2.6311  
G01 X-1.6439 Y2.6255  
G01 X-1.6396 Y2.6189  
G01 X-1.6365 Y2.6117  
G01 X-1.6350 Y2.6039  
G01 X-1.6350 Y2.5961  
G01 X-1.6365 Y2.5883  
G01 X-1.6396 Y2.5811  
G01 X-1.6439 Y2.5745  
G01 X-1.6495 Y2.5689  
G01 X-1.6561 Y2.5646  
G01 X-1.6633 Y2.5615  
G01 X-1.6711 Y2.5600  
G01 X-1.6789 Y2.5600  
G01 X-1.6867 Y2.5615  
G01 X-1.6939 Y2.5646  
G01 X-1.7005 Y2.5689  
G01 X-1.7061 Y2.5745  
G01 X-1.7104 Y2.5811  
G01 X-1.7135 Y2.5883  
G01 X-1.7150 Y2.5961  
G01 X-1.7150 Y2.5990  
G01 X-1.7609 Y2.6296  
G01 X-1.7628 Y2.6309  
G01 X-1.7646 Y2.6321  
G01 X-1.7662 Y2.6337  
G01 X-1.7678 Y2.6353  
G00 Z0.0500  
G00 X-1.6887 Y2.6670  
G01 Z-0.0030 F10    
G01 X-1.7080 Y2.6863  F20    
G01 X-1.7080 Y2.7137  
G01 X-1.6887 Y2.7330  
G01 X-1.6613 Y2.7330  
G01 X-1.6420 Y2.7137  
G01 X-1.6420 Y2.7132  
G01 X-1.5935 Y2.6971  
G01 X-1.5921 Y2.6967  
G01 X-1.5914 Y2.6964  
G01 X-1.5906 Y2.6961  
G01 X-1.5893 Y2.6954  
G01 X-1.5880 Y2.6948  
G01 X-1.5874 Y2.6943  
G01 X-1.5866 Y2.6939  
G01 X-1.5855 Y2.6929  
G01 X-1.5844 Y2.6920  
G01 X-1.5838 Y2.6914  
G01 X-1.5832 Y2.6909  
G01 X-1.5823 Y2.6897  
G01 X-1.5814 Y2.6887  
G01 X-1.5809 Y2.6880  
G01 X-1.5804 Y2.6873  
G01 X-1.5798 Y2.6860  
G01 X-1.5791 Y2.6848  
G01 X-1.5788 Y2.6840  
G01 X-1.5784 Y2.6833  
G01 X-1.5780 Y2.6819  
G01 X-1.5776 Y2.6805  
G01 X-1.5774 Y2.6797  
G01 X-1.5772 Y2.6789  
G01 X-1.5771 Y2.6774  
G01 X-1.5557 Y2.5273  
G01 X-1.5420 Y2.5137  
G01 X-1.5420 Y2.4863  
G01 X-1.5613 Y2.4670  
G01 X-1.5887 Y2.4670  
G01 X-1.5987 Y2.4770  
G01 X-1.6423 Y2.4770  
G01 X-1.6439 Y2.4745  
G01 X-1.6495 Y2.4689  
G01 X-1.6561 Y2.4646  
G01 X-1.6633 Y2.4615  
G01 X-1.6711 Y2.4600  
G01 X-1.6789 Y2.4600  
G01 X-1.6867 Y2.4615  
G01 X-1.6939 Y2.4646  
G01 X-1.7005 Y2.4689  
G01 X-1.7061 Y2.4745  
G01 X-1.7104 Y2.4811  
G01 X-1.7135 Y2.4883  
G01 X-1.7150 Y2.4961  
G01 X-1.7150 Y2.5039  
G01 X-1.7135 Y2.5117  
G01 X-1.7104 Y2.5189  
G01 X-1.7061 Y2.5255  
G01 X-1.7005 Y2.5311  
G01 X-1.6939 Y2.5354  
G01 X-1.6867 Y2.5385  
G01 X-1.6789 Y2.5400  
G01 X-1.6711 Y2.5400  
G01 X-1.6633 Y2.5385  
G01 X-1.6561 Y2.5354  
G01 X-1.6495 Y2.5311  
G01 X-1.6439 Y2.5255  
G01 X-1.6423 Y2.5230  
G01 X-1.6015 Y2.5230  
G01 X-1.6208 Y2.6577  
G01 X-1.6582 Y2.6701  
G01 X-1.6613 Y2.6670  
G01 X-1.6887 Y2.6670  
G00 Z0.0500  
G00 X-1.6867 Y2.4385  
G01 Z-0.0030 F10    
G01 X-1.6789 Y2.4400  F20    
G01 X-1.6711 Y2.4400  
G01 X-1.6633 Y2.4385  
G01 X-1.6561 Y2.4354  
G01 X-1.6495 Y2.4311  
G01 X-1.6439 Y2.4255  
G01 X-1.6423 Y2.4230  
G01 X-1.5987 Y2.4230  
G01 X-1.5887 Y2.4330  
G01 X-1.5613 Y2.4330  
G01 X-1.5420 Y2.4137  
G01 X-1.5420 Y2.3995  
G01 X-1.5321 Y2.3897  
G01 X-1.5296 Y2.3859  
G01 X-1.5279 Y2.3817  
G01 X-1.5270 Y2.3773  
G01 X-1.5270 Y2.2237  
G01 X-1.5170 Y2.2137  
G01 X-1.5170 Y2.1863  
G01 X-1.5363 Y2.1670  
G01 X-1.5637 Y2.1670  
G01 X-1.5830 Y2.1863  
G01 X-1.5830 Y2.2137  
G01 X-1.5730 Y2.2237  
G01 X-1.5730 Y2.3655  
G01 X-1.5745 Y2.3670  
G01 X-1.5887 Y2.3670  
G01 X-1.5987 Y2.3770  
G01 X-1.6423 Y2.3770  
G01 X-1.6439 Y2.3745  
G01 X-1.6495 Y2.3689  
G01 X-1.6561 Y2.3646  
G01 X-1.6633 Y2.3615  
G01 X-1.6711 Y2.3600  
G01 X-1.6789 Y2.3600  
G01 X-1.6867 Y2.3615  
G01 X-1.6939 Y2.3646  
G01 X-1.7005 Y2.3689  
G01 X-1.7061 Y2.3745  
G01 X-1.7104 Y2.3811  
G01 X-1.7135 Y2.3883  
G01 X-1.7150 Y2.3961  
G01 X-1.7150 Y2.4039  
G01 X-1.7135 Y2.4117  
G01 X-1.7104 Y2.4189  
G01 X-1.7061 Y2.4255  
G01 X-1.7005 Y2.4311  
G01 X-1.6939 Y2.4354  
G01 X-1.6867 Y2.4385  
G00 Z0.0500  
G00 X-1.2330 Y2.4613  
G01 Z-0.0030 F10    
G01 X-1.2330 Y2.4887  F20    
G01 X-1.2137 Y2.5080  
G01 X-1.1863 Y2.5080  
G01 X-1.1670 Y2.4887  
G01 X-1.1670 Y2.4613  
G01 X-1.1770 Y2.4513  
G01 X-1.1770 Y2.4237  
G01 X-1.1763 Y2.4230  
G01 X-1.1327 Y2.4230  
G01 X-1.1311 Y2.4255  
G01 X-1.1255 Y2.4311  
G01 X-1.1189 Y2.4354  
G01 X-1.1117 Y2.4385  
G01 X-1.1039 Y2.4400  
G01 X-1.0961 Y2.4400  
G01 X-1.0883 Y2.4385  
G01 X-1.0811 Y2.4354  
G01 X-1.0745 Y2.4311  
G01 X-1.0689 Y2.4255  
G01 X-1.0646 Y2.4189  
G01 X-1.0615 Y2.4117  
G01 X-1.0600 Y2.4039  
G01 X-1.0600 Y2.3961  
G01 X-1.0615 Y2.3883  
G01 X-1.0646 Y2.3811  
G01 X-1.0689 Y2.3745  
G01 X-1.0745 Y2.3689  
G01 X-1.0811 Y2.3646  
G01 X-1.0883 Y2.3615  
G01 X-1.0961 Y2.3600  
G01 X-1.1039 Y2.3600  
G01 X-1.1117 Y2.3615  
G01 X-1.1189 Y2.3646  
G01 X-1.1255 Y2.3689  
G01 X-1.1311 Y2.3745  
G01 X-1.1327 Y2.3770  
G01 X-1.1763 Y2.3770  
G01 X-1.1863 Y2.3670  
G01 X-1.2137 Y2.3670  
G01 X-1.2330 Y2.3863  
G01 X-1.2330 Y2.4137  
G01 X-1.2230 Y2.4237  
G01 X-1.2230 Y2.4513  
G01 X-1.2330 Y2.4613  
G00 Z0.0500  
G00 X-1.1255 Y2.4689  
G01 Z-0.0030 F10    
G01 X-1.1311 Y2.4745  F20    
G01 X-1.1354 Y2.4811  
G01 X-1.1385 Y2.4883  
G01 X-1.1400 Y2.4961  
G01 X-1.1400 Y2.5039  
G01 X-1.1385 Y2.5117  
G01 X-1.1354 Y2.5189  
G01 X-1.1311 Y2.5255  
G01 X-1.1255 Y2.5311  
G01 X-1.1189 Y2.5354  
G01 X-1.1117 Y2.5385  
G01 X-1.1039 Y2.5400  
G01 X-1.0961 Y2.5400  
G01 X-1.0883 Y2.5385  
G01 X-1.0811 Y2.5354  
G01 X-1.0745 Y2.5311  
G01 X-1.0689 Y2.5255  
G01 X-1.0673 Y2.5230  
G01 X-1.0666 Y2.5230  
G01 X-1.0480 Y2.5787  
G01 X-1.0480 Y2.7173  
G01 X-1.1141 Y2.8055  
G01 X-1.1809 Y2.8277  
G01 X-1.1817 Y2.8279  
G01 X-1.1830 Y2.8284  
G01 X-1.1844 Y2.8289  
G01 X-1.1851 Y2.8293  
G01 X-1.1859 Y2.8296  
G01 X-1.1871 Y2.8304  
G01 X-1.1884 Y2.8311  
G01 X-1.1890 Y2.8317  
G01 X-1.2609 Y2.8796  
G01 X-1.2628 Y2.8809  
G01 X-1.2646 Y2.8821  
G01 X-1.2663 Y2.8837  
G01 X-1.2678 Y2.8853  
G01 X-1.2691 Y2.8872  
G01 X-1.2704 Y2.8891  
G01 X-1.3169 Y2.9589  
G01 X-1.3214 Y2.9580  
G01 X-1.3286 Y2.9580  
G01 X-1.3358 Y2.9594  
G01 X-1.3425 Y2.9622  
G01 X-1.3486 Y2.9663  
G01 X-1.3537 Y2.9714  
G01 X-1.3578 Y2.9775  
G01 X-1.3606 Y2.9842  
G01 X-1.3620 Y2.9914  
G01 X-1.3620 Y3.0586  
G01 X-1.3606 Y3.0658  
G01 X-1.3578 Y3.0725  
G01 X-1.3537 Y3.0786  
G01 X-1.3486 Y3.0837  
G01 X-1.3425 Y3.0878  
G01 X-1.3358 Y3.0906  
G01 X-1.3286 Y3.0920  
G01 X-1.3214 Y3.0920  
G01 X-1.3142 Y3.0906  
G01 X-1.3075 Y3.0878  
G01 X-1.3014 Y3.0837  
G01 X-1.2963 Y3.0786  
G01 X-1.2922 Y3.0725  
G01 X-1.2894 Y3.0658  
G01 X-1.2880 Y3.0586  
G01 X-1.2880 Y3.0024  
G01 X-1.2801 Y2.9866  
G01 X-1.2334 Y2.9166  
G01 X-1.1648 Y2.8708  
G01 X-1.0947 Y2.8475  
G01 X-1.0945 Y2.8474  
G01 X-1.0925 Y2.8468  
G01 X-1.0906 Y2.8461  
G01 X-1.0904 Y2.8460  
G01 X-1.0902 Y2.8459  
G01 X-1.0884 Y2.8449  
G01 X-1.0866 Y2.8439  
G01 X-1.0865 Y2.8437  
G01 X-1.0863 Y2.8436  
G01 X-1.0848 Y2.8423  
G01 X-1.0832 Y2.8409  
G01 X-1.0831 Y2.8407  
G01 X-1.0830 Y2.8406  
G01 X-1.0817 Y2.8390  
G01 X-1.0804 Y2.8373  
G01 X-1.0804 Y2.8371  
G01 X-1.0076 Y2.7401  
G01 X-1.0071 Y2.7397  
G01 X-1.0062 Y2.7383  
G01 X-1.0052 Y2.7370  
G01 X-1.0050 Y2.7364  
G01 X-1.0046 Y2.7359  
G01 X-1.0040 Y2.7344  
G01 X-1.0033 Y2.7329  
G01 X-1.0031 Y2.7323  
G01 X-1.0029 Y2.7317  
G01 X-1.0026 Y2.7301  
G01 X-1.0022 Y2.7285  
G01 X-1.0021 Y2.7279  
G01 X-1.0020 Y2.7273  
G01 X-1.0020 Y2.7256  
G01 X-1.0019 Y2.7240  
G01 X-1.0020 Y2.7234  
G01 X-1.0020 Y2.5758  
G01 X-1.0019 Y2.5744  
G01 X-1.0020 Y2.5736  
G01 X-1.0020 Y2.5727  
G01 X-1.0023 Y2.5713  
G01 X-1.0025 Y2.5699  
G01 X-1.0027 Y2.5691  
G01 X-1.0029 Y2.5683  
G01 X-1.0034 Y2.5670  
G01 X-1.0277 Y2.4941  
G01 X-1.0279 Y2.4933  
G01 X-1.0284 Y2.4920  
G01 X-1.0289 Y2.4906  
G01 X-1.0293 Y2.4899  
G01 X-1.0296 Y2.4891  
G01 X-1.0304 Y2.4879  
G01 X-1.0311 Y2.4866  
G01 X-1.0317 Y2.4860  
G01 X-1.0321 Y2.4853  
G01 X-1.0332 Y2.4843  
G01 X-1.0341 Y2.4832  
G01 X-1.0348 Y2.4827  
G01 X-1.0353 Y2.4821  
G01 X-1.0365 Y2.4813  
G01 X-1.0377 Y2.4804  
G01 X-1.0384 Y2.4801  
G01 X-1.0391 Y2.4796  
G01 X-1.0404 Y2.4791  
G01 X-1.0417 Y2.4784  
G01 X-1.0425 Y2.4782  
G01 X-1.0433 Y2.4779  
G01 X-1.0447 Y2.4776  
G01 X-1.0461 Y2.4772  
G01 X-1.0469 Y2.4772  
G01 X-1.0477 Y2.4770  
G01 X-1.0492 Y2.4770  
G01 X-1.0506 Y2.4769  
G01 X-1.0514 Y2.4770  
G01 X-1.0673 Y2.4770  
G01 X-1.0689 Y2.4745  
G01 X-1.0745 Y2.4689  
G01 X-1.0811 Y2.4646  
G01 X-1.0883 Y2.4615  
G01 X-1.0961 Y2.4600  
G01 X-1.1039 Y2.4600  
G01 X-1.1117 Y2.4615  
G01 X-1.1189 Y2.4646  
G01 X-1.1255 Y2.4689  
G00 Z0.0500  
G00 X-1.1255 Y2.5689  
G01 Z-0.0030 F10    
G01 X-1.1311 Y2.5745  F20    
G01 X-1.1354 Y2.5811  
G01 X-1.1385 Y2.5883  
G01 X-1.1400 Y2.5961  
G01 X-1.1400 Y2.6039  
G01 X-1.1385 Y2.6117  
G01 X-1.1354 Y2.6189  
G01 X-1.1311 Y2.6255  
G01 X-1.1255 Y2.6311  
G01 X-1.1230 Y2.6327  
G01 X-1.1230 Y2.6763  
G01 X-1.1267 Y2.6800  
G01 X-1.2093 Y2.7420  
G01 X-1.2127 Y2.7420  
G01 X-1.2670 Y2.6877  
G01 X-1.2670 Y2.6863  
G01 X-1.2863 Y2.6670  
G01 X-1.3137 Y2.6670  
G01 X-1.3330 Y2.6863  
G01 X-1.3330 Y2.7137  
G01 X-1.3137 Y2.7330  
G01 X-1.3123 Y2.7330  
G01 X-1.2652 Y2.7800  
G01 X-1.2954 Y2.8001  
G01 X-1.2998 Y2.8046  
G01 X-1.3033 Y2.8098  
G01 X-1.3058 Y2.8156  
G01 X-1.3062 Y2.8180  
G01 X-1.3782 Y2.8180  
G01 X-1.3843 Y2.8192  
G01 X-1.4001 Y2.8193  
G01 X-1.4027 Y2.8203  
G01 X-1.4047 Y2.8223  
G01 X-1.4057 Y2.8249  
G01 X-1.4057 Y2.8406  
G01 X-1.4070 Y2.8468  
G01 X-1.4070 Y2.8532  
G01 X-1.4058 Y2.8593  
G01 X-1.4057 Y2.8751  
G01 X-1.4047 Y2.8777  
G01 X-1.4027 Y2.8797  
G01 X-1.4001 Y2.8807  
G01 X-1.3844 Y2.8807  
G01 X-1.3782 Y2.8820  
G01 X-1.2968 Y2.8820  
G01 X-1.2907 Y2.8808  
G01 X-1.2749 Y2.8807  
G01 X-1.2723 Y2.8797  
G01 X-1.2703 Y2.8777  
G01 X-1.2693 Y2.8751  
G01 X-1.2693 Y2.8594  
G01 X-1.2688 Y2.8569  
G01 X-1.2681 Y2.8562  
G01 X-1.2657 Y2.8558  
G01 X-1.2599 Y2.8534  
G01 X-1.1918 Y2.8080  
G01 X-1.1863 Y2.8080  
G01 X-1.1733 Y2.7950  
G01 X-1.0907 Y2.7330  
G01 X-1.0863 Y2.7330  
G01 X-1.0670 Y2.7137  
G01 X-1.0670 Y2.6863  
G01 X-1.0770 Y2.6763  
G01 X-1.0770 Y2.6327  
G01 X-1.0745 Y2.6311  
G01 X-1.0689 Y2.6255  
G01 X-1.0646 Y2.6189  
G01 X-1.0615 Y2.6117  
G01 X-1.0600 Y2.6039  
G01 X-1.0600 Y2.5961  
G01 X-1.0615 Y2.5883  
G01 X-1.0646 Y2.5811  
G01 X-1.0689 Y2.5745  
G01 X-1.0745 Y2.5689  
G01 X-1.0811 Y2.5646  
G01 X-1.0883 Y2.5615  
G01 X-1.0961 Y2.5600  
G01 X-1.1039 Y2.5600  
G01 X-1.1117 Y2.5615  
G01 X-1.1189 Y2.5646  
G01 X-1.1255 Y2.5689  
G00 Z0.0500  
G00 X-1.1344 Y2.3400  
G01 Z-0.0030 F10    
G01 X-1.0656 Y2.3400  F20    
G01 X-1.0630 Y2.3389  
G01 X-1.0611 Y2.3370  
G01 X-1.0600 Y2.3344  
G01 X-1.0600 Y2.2656  
G01 X-1.0611 Y2.2630  
G01 X-1.0630 Y2.2611  
G01 X-1.0656 Y2.2600  
G01 X-1.0943 Y2.2600  
G01 X-1.1173 Y2.2140  
G01 X-1.1170 Y2.2137  
G01 X-1.1170 Y2.1863  
G01 X-1.1363 Y2.1670  
G01 X-1.1637 Y2.1670  
G01 X-1.1830 Y2.1863  
G01 X-1.1830 Y2.2137  
G01 X-1.1637 Y2.2330  
G01 X-1.1592 Y2.2330  
G01 X-1.1400 Y2.2714  
G01 X-1.1400 Y2.2770  
G01 X-1.1763 Y2.2770  
G01 X-1.1863 Y2.2670  
G01 X-1.2137 Y2.2670  
G01 X-1.2330 Y2.2863  
G01 X-1.2330 Y2.3137  
G01 X-1.2137 Y2.3330  
G01 X-1.1863 Y2.3330  
G01 X-1.1763 Y2.3230  
G01 X-1.1400 Y2.3230  
G01 X-1.1400 Y2.3344  
G01 X-1.1389 Y2.3370  
G01 X-1.1370 Y2.3389  
G01 X-1.1344 Y2.3400  
G00 Z0.0500  
G00 X-1.0330 Y2.2137  
G01 Z-0.0030 F10    
G01 X-1.0207 Y2.2259  F20    
G01 X-0.9736 Y2.7446  
G01 X-1.0398 Y2.8550  
G01 X-1.1286 Y2.8772  
G01 X-1.1289 Y2.8772  
G01 X-1.1308 Y2.8777  
G01 X-1.1328 Y2.8782  
G01 X-1.1330 Y2.8783  
G01 X-1.1333 Y2.8784  
G01 X-1.1351 Y2.8793  
G01 X-1.1369 Y2.8802  
G01 X-1.1371 Y2.8803  
G01 X-1.1838 Y2.9037  
G01 X-1.1844 Y2.9039  
G01 X-1.1858 Y2.9047  
G01 X-1.1873 Y2.9054  
G01 X-1.1878 Y2.9058  
G01 X-1.1884 Y2.9061  
G01 X-1.1896 Y2.9072  
G01 X-1.1909 Y2.9082  
G01 X-1.1913 Y2.9087  
G01 X-1.1918 Y2.9091  
G01 X-1.1928 Y2.9104  
G01 X-1.1939 Y2.9116  
G01 X-1.1942 Y2.9122  
G01 X-1.1946 Y2.9127  
G01 X-1.1953 Y2.9142  
G01 X-1.1961 Y2.9156  
G01 X-1.1963 Y2.9162  
G01 X-1.2176 Y2.9587  
G01 X-1.2214 Y2.9580  
G01 X-1.2286 Y2.9580  
G01 X-1.2358 Y2.9594  
G01 X-1.2425 Y2.9622  
G01 X-1.2486 Y2.9663  
G01 X-1.2537 Y2.9714  
G01 X-1.2578 Y2.9775  
G01 X-1.2606 Y2.9842  
G01 X-1.2620 Y2.9914  
G01 X-1.2620 Y3.0586  
G01 X-1.2606 Y3.0658  
G01 X-1.2578 Y3.0725  
G01 X-1.2537 Y3.0786  
G01 X-1.2486 Y3.0837  
G01 X-1.2425 Y3.0878  
G01 X-1.2358 Y3.0906  
G01 X-1.2286 Y3.0920  
G01 X-1.2214 Y3.0920  
G01 X-1.2142 Y3.0906  
G01 X-1.2075 Y3.0878  
G01 X-1.2014 Y3.0837  
G01 X-1.1963 Y3.0786  
G01 X-1.1922 Y3.0725  
G01 X-1.1894 Y3.0658  
G01 X-1.1880 Y3.0586  
G01 X-1.1880 Y3.0024  
G01 X-1.1579 Y2.9421  
G01 X-1.1170 Y2.9217  
G01 X-1.0172 Y2.8968  
G01 X-1.0131 Y2.8948  
G01 X-1.0095 Y2.8921  
G01 X-1.0064 Y2.8888  
G01 X-1.0041 Y2.8849  
G01 X-0.9312 Y2.7634  
G01 X-0.9309 Y2.7630  
G01 X-0.9300 Y2.7614  
G01 X-0.9291 Y2.7599  
G01 X-0.9289 Y2.7594  
G01 X-0.9287 Y2.7590  
G01 X-0.9282 Y2.7573  
G01 X-0.9276 Y2.7556  
G01 X-0.9275 Y2.7551  
G01 X-0.9274 Y2.7547  
G01 X-0.9272 Y2.7529  
G01 X-0.9269 Y2.7511  
G01 X-0.9269 Y2.7507  
G01 X-0.9269 Y2.7502  
G01 X-0.9271 Y2.7484  
G01 X-0.9271 Y2.7466  
G01 X-0.9273 Y2.7461  
G01 X-0.9749 Y2.2216  
G01 X-0.9670 Y2.2137  
G01 X-0.9670 Y2.1863  
G01 X-0.9863 Y2.1670  
G01 X-1.0137 Y2.1670  
G01 X-1.0330 Y2.1863  
G01 X-1.0330 Y2.2137  
G00 Z0.0500  
G00 X-0.8080 Y2.2137  
G01 Z-0.0030 F10    
G01 X-0.7887 Y2.2330  F20    
G01 X-0.7806 Y2.2330  
G01 X-0.7469 Y2.2837  
G01 X-0.7285 Y2.3942  
G01 X-0.7627 Y2.3856  
G01 X-0.7646 Y2.3811  
G01 X-0.7689 Y2.3745  
G01 X-0.7745 Y2.3689  
G01 X-0.7811 Y2.3646  
G01 X-0.7883 Y2.3615  
G01 X-0.7961 Y2.3600  
G01 X-0.8039 Y2.3600  
G01 X-0.8117 Y2.3615  
G01 X-0.8189 Y2.3646  
G01 X-0.8255 Y2.3689  
G01 X-0.8311 Y2.3745  
G01 X-0.8354 Y2.3811  
G01 X-0.8385 Y2.3883  
G01 X-0.8400 Y2.3961  
G01 X-0.8400 Y2.4039  
G01 X-0.8385 Y2.4117  
G01 X-0.8354 Y2.4189  
G01 X-0.8311 Y2.4255  
G01 X-0.8255 Y2.4311  
G01 X-0.8189 Y2.4354  
G01 X-0.8117 Y2.4385  
G01 X-0.8039 Y2.4400  
G01 X-0.7961 Y2.4400  
G01 X-0.7883 Y2.4385  
G01 X-0.7811 Y2.4354  
G01 X-0.7745 Y2.4311  
G01 X-0.7737 Y2.4303  
G01 X-0.7306 Y2.4411  
G01 X-0.7137 Y2.4580  
G01 X-0.6863 Y2.4580  
G01 X-0.6670 Y2.4387  
G01 X-0.6670 Y2.4113  
G01 X-0.6814 Y2.3970  
G01 X-0.7020 Y2.2731  
G01 X-0.7020 Y2.2728  
G01 X-0.7024 Y2.2709  
G01 X-0.7027 Y2.2690  
G01 X-0.7028 Y2.2687  
G01 X-0.7029 Y2.2683  
G01 X-0.7036 Y2.2665  
G01 X-0.7043 Y2.2647  
G01 X-0.7045 Y2.2644  
G01 X-0.7046 Y2.2641  
G01 X-0.7057 Y2.2625  
G01 X-0.7067 Y2.2609  
G01 X-0.7069 Y2.2606  
G01 X-0.7420 Y2.2080  
G01 X-0.7420 Y2.1863  
G01 X-0.7613 Y2.1670  
G01 X-0.7887 Y2.1670  
G01 X-0.8080 Y2.1863  
G01 X-0.8080 Y2.2137  
G00 Z0.0500  
G00 X-0.8039 Y2.4600  
G01 Z-0.0030 F10    
G01 X-0.8117 Y2.4615  F20    
G01 X-0.8189 Y2.4646  
G01 X-0.8255 Y2.4689  
G01 X-0.8311 Y2.4745  
G01 X-0.8354 Y2.4811  
G01 X-0.8385 Y2.4883  
G01 X-0.8400 Y2.4961  
G01 X-0.8400 Y2.5039  
G01 X-0.8385 Y2.5117  
G01 X-0.8354 Y2.5189  
G01 X-0.8311 Y2.5255  
G01 X-0.8255 Y2.5311  
G01 X-0.8189 Y2.5354  
G01 X-0.8117 Y2.5385  
G01 X-0.8039 Y2.5400  
G01 X-0.7961 Y2.5400  
G01 X-0.7883 Y2.5385  
G01 X-0.7811 Y2.5354  
G01 X-0.7745 Y2.5311  
G01 X-0.7737 Y2.5303  
G01 X-0.7306 Y2.5411  
G01 X-0.7230 Y2.5487  
G01 X-0.7230 Y2.6180  
G01 X-0.7623 Y2.6770  
G01 X-0.7763 Y2.6770  
G01 X-0.7863 Y2.6670  
G01 X-0.8137 Y2.6670  
G01 X-0.8330 Y2.6863  
G01 X-0.8330 Y2.7137  
G01 X-0.8137 Y2.7330  
G01 X-0.7863 Y2.7330  
G01 X-0.7763 Y2.7230  
G01 X-0.7523 Y2.7230  
G01 X-0.7500 Y2.7230  
G01 X-0.7477 Y2.7230  
G01 X-0.7455 Y2.7225  
G01 X-0.7433 Y2.7221  
G01 X-0.7412 Y2.7212  
G01 X-0.7391 Y2.7204  
G01 X-0.7372 Y2.7191  
G01 X-0.7353 Y2.7179  
G01 X-0.7337 Y2.7162  
G01 X-0.7321 Y2.7147  
G01 X-0.7309 Y2.7128  
G01 X-0.7296 Y2.7109  
G01 X-0.6809 Y2.6378  
G01 X-0.6796 Y2.6359  
G01 X-0.6788 Y2.6338  
G01 X-0.6779 Y2.6317  
G01 X-0.6774 Y2.6295  
G01 X-0.6770 Y2.6273  
G01 X-0.6770 Y2.6250  
